; generated by Slic3r 1.2.9 on 2020-08-11 at 11:45:48

; external perimeters extrusion width = 0.40mm
; perimeters extrusion width = 0.40mm
; infill extrusion width = 0.40mm
; solid infill extrusion width = 0.40mm
; top infill extrusion width = 0.40mm

M107
M83
T0
M116
G21 ; set units to millimeters
G90 ; use absolute coordinates
M83 ; use relative distances for extrusion
G1 E-4.20000 F1500.00000
G1 Z1.000 F15000.000
G1 X0.000 Y-10.586 F15000.000
G1 Z0.300 F15000.000
G1 E4.20000 F1500.00000
G1 X9.950 Y-10.586 E0.76680 F960.000
G1 X11.597 Y-10.191 E0.13052
G1 X12.887 Y-9.093 E0.13052 F960.000
G1 X13.569 Y-7.292 E0.14844
G1 X15.672 Y14.955 E1.72211
G1 X15.689 Y15.297 E0.02640
G1 X15.689 Y29.197 E1.07121
G1 X15.294 Y30.844 E0.13052
G1 X14.196 Y32.134 E0.13052
G1 X12.053 Y32.832 E0.17373
G1 X-7.847 Y32.832 E1.53360
G1 X-9.494 Y32.438 E0.13052
G1 X-10.784 Y31.340 E0.13052
G1 X-11.467 Y29.532 E0.14898
G1 X-13.570 Y6.800 E1.75932
G1 X-13.586 Y6.465 E0.02584
G1 X-13.586 Y-6.950 E1.03383
G1 X-13.191 Y-8.597 E0.13052
G1 X-12.093 Y-9.887 E0.13052
G1 X-9.950 Y-10.586 E0.17373
G1 X-0.060 Y-10.586 E0.76218
G1 E-4.20000 F1500.00000
G1 Z1.300 F15000.000
G1 X-2.833 Y18.800 F15000.000
G1 Z0.300 F15000.000
G1 E4.20000 F1500.00000
G1 X-2.115 Y18.885 E0.05573 F600.000
G1 X-1.425 Y19.125 E0.05628
G1 X-1.009 Y19.366 E0.03703
G1 X-0.798 Y19.515 E0.01994
G1 X-0.441 Y19.824 E0.03640
G1 X-0.256 Y20.034 E0.02155
G1 X0.023 Y20.406 E0.03583
G1 X0.339 Y21.057 E0.05579
G1 X0.509 Y21.694 E0.05082
G1 X0.554 Y22.247 E0.04272
G1 X0.509 Y22.799 E0.04272
G1 X0.339 Y23.437 E0.05082
G1 X0.025 Y24.082 E0.05531
G1 X-0.096 Y24.258 E0.01647
G1 X-0.437 Y24.666 E0.04100
G1 X-0.798 Y24.979 E0.03679
G1 X-1.009 Y25.128 E0.01994
G1 X-1.425 Y25.368 E0.03703
G1 X-2.111 Y25.607 E0.05593
G1 X-2.584 Y25.675 E0.03682
G1 X-2.842 Y25.693 E0.01994
G1 X-3.326 Y25.670 E0.03733
G1 X-4.034 Y25.507 E0.05599
G1 X-4.689 Y25.194 E0.05594
G1 X-5.090 Y24.908 E0.03800
G1 X-5.601 Y24.393 E0.05591
G1 X-5.989 Y23.778 E0.05602
G1 X-6.172 Y23.320 E0.03800
G1 X-6.329 Y22.614 E0.05573
G1 X-6.329 Y21.879 E0.05670
G1 X-6.172 Y21.173 E0.05569
G1 X-5.989 Y20.716 E0.03799
G1 X-5.601 Y20.101 E0.05602
G1 X-5.090 Y19.586 E0.05591
G1 X-4.689 Y19.300 E0.03800
G1 X-4.034 Y18.987 E0.05594
G1 X-3.326 Y18.824 E0.05599
G1 X-2.893 Y18.803 E0.03337 F600.000
G1 X-2.612 Y18.467 F15000.000
G1 E-4.20000 F1500.00000
G1 Z1.300 F15000.000
G1 X-5.582 Y28.211 F15000.000
G1 Z0.300 F15000.000
G1 E4.20000 F1500.00000
G1 X-6.861 Y28.211 E0.09861 F720.000
G1 X-6.861 Y24.103 E0.31663
G1 X-6.586 Y24.023 E0.02210
G1 X-6.102 Y24.791 E0.06998
G1 X-5.503 Y25.394 E0.06548
G1 X-5.012 Y25.744 E0.04644
G1 X-4.244 Y26.110 E0.06558
G1 X-3.413 Y26.302 E0.06577
G1 X-2.835 Y26.330 E0.04457
G1 X-2.517 Y26.308 E0.02460
G1 X-1.959 Y26.228 E0.04339
G1 X-1.159 Y25.949 E0.06528
G1 X-0.666 Y25.664 E0.04387
G1 X-0.406 Y25.480 E0.02460
G1 X0.018 Y25.113 E0.04320
G1 X0.410 Y24.643 E0.04715
G1 X0.575 Y24.404 E0.02240
G1 X0.772 Y24.001 E0.03453
G1 X1.067 Y24.069 E0.02339
G1 X1.067 Y26.282 E0.17056 F720.000
G1 X6.377 Y26.282 E0.40917
G1 X6.889 Y25.982 E0.04579
G1 X7.159 Y25.860 E0.02278
G1 X7.595 Y25.705 E0.03575
G1 X7.850 Y25.653 E0.02003
G1 X8.073 Y25.637 E0.01721
G1 X8.468 Y25.673 E0.03058
G1 X8.819 Y25.766 E0.02794
G1 X9.323 Y25.985 E0.04240
G1 X9.833 Y26.282 E0.04548
G1 X11.067 Y26.282 E0.09513
G1 X11.067 Y28.211 E0.14864
G1 X-5.522 Y28.211 E1.27846
G1 E-4.20000 F1500.00000
G1 Z1.300 F15000.000
G1 X7.795 Y18.833 F15000.000
G1 Z0.300 F15000.000
G1 E4.20000 F1500.00000
G1 X7.605 Y18.792 E0.01499 F720.000
G1 X7.037 Y18.584 E0.04658
G1 X6.377 Y18.211 E0.05844
G1 X1.067 Y18.211 E0.40917
G1 X1.067 Y20.424 E0.17056
G1 X0.772 Y20.493 E0.02339
G1 X0.568 Y20.074 E0.03589
G1 X0.238 Y19.632 E0.04249
G1 X0.007 Y19.371 E0.02683
G1 X-0.406 Y19.014 E0.04209
G1 X-0.666 Y18.830 E0.02460
G1 X-1.159 Y18.545 E0.04387
G1 X-1.971 Y18.262 E0.06627
G1 X-2.811 Y18.163 E0.06515
G1 X-3.413 Y18.192 E0.04644
G1 X-4.244 Y18.383 E0.06577
G1 X-5.012 Y18.750 E0.06558
G1 X-5.503 Y19.099 E0.04644
G1 X-6.102 Y19.703 E0.06548
G1 X-6.586 Y20.471 E0.06998
G1 X-6.861 Y20.391 E0.02210
G1 X-6.861 Y16.282 E0.31663
G1 X11.067 Y16.282 E1.38169
G1 X11.067 Y18.211 E0.14864
G1 X9.833 Y18.211 E0.09513 F720.000
G1 X9.320 Y18.510 E0.04578
G1 X8.888 Y18.703 E0.03639
G1 X8.618 Y18.789 E0.02190
G1 X8.193 Y18.857 E0.03311
G1 X7.855 Y18.836 E0.02615
G1 X7.816 Y19.471 F15000.000
G1 X7.427 Y19.404 E0.03041 F720.000
G1 X6.791 Y19.170 E0.05228
G1 X6.204 Y18.847 E0.05162
G1 X1.703 Y18.847 E0.34687
G1 X1.703 Y25.647 E0.52405
G1 X6.204 Y25.647 E0.34687
G1 X6.597 Y25.416 E0.03512
G1 X6.921 Y25.270 E0.02738
G1 X7.424 Y25.091 E0.04117
G1 X7.764 Y25.021 E0.02677
G1 X8.080 Y25.000 E0.02435
G1 X8.561 Y25.043 E0.03723
G1 X9.039 Y25.169 E0.03812
G1 X9.611 Y25.417 E0.04803
G1 X10.005 Y25.647 E0.03513
G1 X11.703 Y25.647 E0.13088
G1 X11.703 Y28.847 E0.24661
G1 X-7.497 Y28.847 E1.47966
G1 X-7.497 Y15.647 E1.01726
G1 X11.703 Y15.647 E1.47966
G1 X11.703 Y18.847 E0.24661
G1 X10.005 Y18.847 E0.13088 F720.000
G1 X9.610 Y19.077 E0.03521
G1 X9.115 Y19.297 E0.04177
G1 X8.772 Y19.407 E0.02776
G1 X8.199 Y19.494 E0.04464
G1 X7.876 Y19.474 E0.02493
G1 X7.666 Y19.106 F15000.000
G1 X10.682 Y16.978 F15000.000
G1 X10.372 Y16.668 E0.03430 F960.000
G1 X9.459 Y16.668 E0.07153
G1 X10.617 Y17.826 E0.12824
G1 X9.749 Y17.871 E0.06805
G1 X8.545 Y16.668 E0.13330
G1 X7.632 Y16.668 E0.07153
G1 X9.168 Y18.204 E0.17008
G1 X8.489 Y18.439 E0.05621
G1 X6.718 Y16.668 E0.19615
G1 X5.805 Y16.668 E0.07153
G1 X7.370 Y18.233 E0.17329
G1 X6.049 Y17.826 E0.10818
G1 X4.891 Y16.668 E0.12824
G1 X3.978 Y16.668 E0.07153
G1 X5.136 Y17.826 E0.12824
G1 X4.223 Y17.826 E0.07153
G1 X3.065 Y16.668 E0.12824
G1 X2.151 Y16.668 E0.07153
G1 X3.309 Y17.826 E0.12824
G1 X2.396 Y17.826 E0.07153
G1 X1.238 Y16.668 E0.12824
G1 X0.324 Y16.668 E0.07153
G1 X1.482 Y17.826 E0.12824
G1 X0.682 Y17.939 E0.06330
G1 X-0.589 Y16.668 E0.14077
G1 X-1.503 Y16.668 E0.07153
G1 X0.682 Y18.852 E0.24194
G1 X-0.918 Y18.166 F15000.000
G1 X-2.416 Y16.668 E0.16594 F960.000
G1 X-3.330 Y16.668 E0.07153
G1 X-2.163 Y17.834 E0.12917
G1 X-3.113 Y17.798 E0.07445
G1 X-4.243 Y16.668 E0.12512
G1 X-5.156 Y16.668 E0.07153
G1 X-3.891 Y17.934 E0.14019
G1 X-4.574 Y18.164 E0.05648
G1 X-6.070 Y16.668 E0.16564
G1 X-6.476 Y17.175 E0.05089
G1 X-5.186 Y18.466 E0.14291
G1 X-5.717 Y18.847 E0.05126
G1 X-6.476 Y18.089 E0.08403
G1 X-6.476 Y19.002 E0.07153
G1 X-6.172 Y19.306 E0.03365
G1 X-6.795 Y20.741 F15000.000
G1 X-6.910 Y21.785 E0.17011 F960.000
G1 X-6.913 Y22.649 E0.13992
G1 X-6.795 Y23.753 E0.17969
G1 X-6.476 Y25.653 F15000.000
G1 X-4.304 Y27.826 E0.24533 F960.000
G1 X-5.235 Y27.826 F15000.000
G1 X-6.476 Y26.585 E0.14015 F960.000
G1 X-6.476 Y27.516 E0.07437
G1 X-6.166 Y27.826 E0.03497
G1 X-4.890 Y26.308 F15000.000
G1 X-3.372 Y27.826 E0.17135 F960.000
G1 X-2.441 Y27.826 E0.07437
G1 X-3.580 Y26.687 E0.12864
G1 X-2.641 Y26.694 E0.07495
G1 X-1.509 Y27.826 E0.12782
G1 X-0.578 Y27.826 E0.07437
G1 X-1.846 Y26.558 E0.14322
G1 X-1.156 Y26.317 E0.05839
G1 X0.353 Y27.826 E0.17044
G1 X1.285 Y27.826 E0.07437
G1 X-0.554 Y25.987 E0.20764
G1 X-0.024 Y25.586 E0.05309
G1 X0.682 Y26.292 E0.07970
G1 X1.058 Y26.668 F15000.000
G1 X2.216 Y27.826 E0.13076 F960.000
G1 X3.148 Y27.826 E0.07437
G1 X1.990 Y26.668 E0.13076
G1 X2.921 Y26.668 E0.07437
G1 X4.079 Y27.826 E0.13076
G1 X5.010 Y27.826 E0.07437
G1 X3.852 Y26.668 E0.13076
G1 X4.784 Y26.668 E0.07437
G1 X5.942 Y27.826 E0.13076
G1 X6.873 Y27.826 E0.07437
G1 X5.715 Y26.668 E0.13076
G1 X6.549 Y26.570 E0.06705
G1 X7.805 Y27.826 E0.14176
G1 X8.736 Y27.826 E0.07437
G1 X7.150 Y26.240 E0.17914
G1 X7.870 Y26.029 E0.05995
G1 X9.667 Y27.826 E0.20295
G1 X10.599 Y27.826 E0.07437
G1 X9.278 Y26.505 E0.14918
G1 X10.372 Y26.668 E0.08837
G1 X10.682 Y26.978 E0.03497
G1 E-4.20000 F1500.00000
G1 Z1.300 F15000.000
G1 X0.995 Y23.726 F15000.000
G1 Z0.300 F15000.000
G1 E4.20000 F1500.00000
G1 X1.099 Y22.927 E0.13058 F960.000
G1 X1.129 Y22.268 E0.10684
G1 X1.099 Y21.567 E0.11361
G1 X0.995 Y20.767 E0.13058
G1 E-4.20000 F1500.00000
G1 Z1.300 F15000.000
G1 Z0.300 F15000.000
G1 Z1.300 F15000.000
G1 X-4.214 Y3.361 F15000.000
G1 Z0.300 F15000.000
G1 E4.20000 F1500.00000
G1 X-4.686 Y3.429 E0.03682 F600.000
G1 X-4.945 Y3.446 E0.01994
G1 X-5.428 Y3.423 E0.03733
G1 X-6.136 Y3.260 E0.05599
G1 X-6.791 Y2.947 E0.05594
G1 X-7.193 Y2.661 E0.03800
G1 X-7.704 Y2.146 E0.05591
G1 X-8.092 Y1.531 E0.05602
G1 X-8.275 Y1.074 E0.03800
G1 X-8.432 Y0.368 E0.05573
G1 X-8.432 Y-0.368 E0.05670
G1 X-8.275 Y-1.074 E0.05569
G1 X-8.092 Y-1.531 E0.03799
G1 X-7.704 Y-2.146 E0.05602
G1 X-7.193 Y-2.661 E0.05591
G1 X-6.791 Y-2.947 E0.03800
G1 X-6.136 Y-3.260 E0.05594
G1 X-5.428 Y-3.423 E0.05599
G1 X-4.936 Y-3.447 E0.03799 F600.000
G1 X-4.218 Y-3.362 E0.05573
G1 X-3.528 Y-3.121 E0.05628
G1 X-3.112 Y-2.881 E0.03703
G1 X-2.901 Y-2.732 E0.01994
G1 X-2.544 Y-2.423 E0.03640
G1 X-2.359 Y-2.213 E0.02155
G1 X-2.080 Y-1.841 E0.03583
G1 X-1.763 Y-1.190 E0.05579
G1 X-1.594 Y-0.552 E0.05082
G1 X-1.549 Y0.000 E0.04272
G1 X-1.594 Y0.552 E0.04272
G1 X-1.763 Y1.190 E0.05082
G1 X-2.078 Y1.835 E0.05531
G1 X-2.199 Y2.011 E0.01647
G1 X-2.540 Y2.419 E0.04100
G1 X-2.901 Y2.732 E0.03679
G1 X-3.112 Y2.881 E0.01994
G1 X-3.528 Y3.121 E0.03703
G1 X-4.157 Y3.341 E0.05131
G1 X-4.338 Y3.741 F15000.000
G1 X-1.036 Y1.822 F15000.000
G1 X-1.036 Y2.058 E0.01817 F720.000
G1 X-0.991 Y2.454 E0.03073
G1 X-0.840 Y2.886 E0.03524
G1 X-0.597 Y3.273 E0.03524
G1 X-0.273 Y3.597 E0.03524
G1 X0.114 Y3.840 E0.03524
G1 X0.546 Y3.991 E0.03524
G1 X0.942 Y4.036 E0.03073
G1 X5.246 Y4.036 E0.33171
G1 X5.684 Y3.919 E0.03495
G1 X5.956 Y3.892 E0.02106
G1 X6.378 Y3.929 E0.03260
G1 X6.741 Y4.036 E0.02919
G1 X8.964 Y4.036 E0.17133
G1 X8.964 Y5.479 E0.11126
G1 X-8.964 Y5.479 E1.38169
G1 X-8.964 Y1.856 E0.27925
G1 X-8.689 Y1.776 E0.02210
G1 X-8.204 Y2.544 E0.06998
G1 X-7.606 Y3.147 E0.06548
G1 X-7.115 Y3.497 E0.04644
G1 X-6.347 Y3.864 E0.06558
G1 X-5.516 Y4.055 E0.06577
G1 X-4.938 Y4.083 E0.04457
G1 X-4.619 Y4.061 E0.02460
G1 X-4.062 Y3.981 E0.04339
G1 X-3.262 Y3.702 E0.06528
G1 X-2.769 Y3.417 E0.04387
G1 X-2.509 Y3.233 E0.02460
G1 X-2.085 Y2.866 E0.04320
G1 X-1.693 Y2.396 E0.04715
G1 X-1.527 Y2.157 E0.02240
G1 X-1.331 Y1.754 E0.03453
G1 X-1.094 Y1.809 E0.01876
G1 E-4.20000 F1500.00000
G1 Z1.300 F15000.000
G1 X6.740 Y-5.964 F15000.000
G1 Z0.300 F15000.000
G1 E4.20000 F1500.00000
G1 X8.964 Y-5.964 E0.17144 F720.000
G1 X8.964 Y-4.036 E0.14864
G1 X6.741 Y-4.036 E0.17133 F720.000
G1 X6.378 Y-3.929 E0.02919
G1 X5.956 Y-3.892 E0.03260
G1 X5.684 Y-3.919 E0.02106
G1 X5.246 Y-4.036 E0.03494
G1 X-1.036 Y-4.036 E0.48411
G1 X-1.036 Y-1.822 E0.17056
G1 X-1.331 Y-1.754 E0.02339
G1 X-1.535 Y-2.173 E0.03589
G1 X-1.865 Y-2.615 E0.04249
G1 X-2.096 Y-2.875 E0.02683
G1 X-2.509 Y-3.233 E0.04209
G1 X-2.769 Y-3.417 E0.02460
G1 X-3.262 Y-3.702 E0.04387
G1 X-4.074 Y-3.985 E0.06627
G1 X-4.914 Y-4.084 E0.06515
G1 X-5.516 Y-4.055 E0.04644
G1 X-6.347 Y-3.864 E0.06577
G1 X-7.115 Y-3.497 E0.06558
G1 X-7.606 Y-3.147 E0.04644
G1 X-8.204 Y-2.544 E0.06548
G1 X-8.689 Y-1.776 E0.06998
G1 X-8.964 Y-1.856 E0.02210
G1 X-8.964 Y-5.964 E0.31663
G1 X6.680 Y-5.964 E1.20562
G1 X6.680 Y-6.600 F15000.000
G1 X9.600 Y-6.600 E0.22505 F720.000
G1 X9.600 Y-3.400 E0.24661
G1 X6.832 Y-3.400 E0.21329 F720.000
G1 X6.496 Y-3.302 E0.02700
G1 X5.952 Y-3.253 E0.04207
G1 X5.570 Y-3.292 E0.02960
G1 X5.163 Y-3.400 E0.03246
G1 X-0.400 Y-3.400 E0.42873
G1 X-0.400 Y2.022 E0.41788
G1 X-0.367 Y2.312 E0.02246
G1 X-0.264 Y2.609 E0.02420
G1 X-0.097 Y2.874 E0.02420
G1 X0.126 Y3.097 E0.02420
G1 X0.391 Y3.264 E0.02420
G1 X0.688 Y3.367 E0.02420
G1 X0.978 Y3.400 E0.02246
G1 X5.163 Y3.400 E0.32257
G1 X5.570 Y3.292 E0.03246
G1 X5.952 Y3.253 E0.02960
G1 X6.496 Y3.302 E0.04207
G1 X6.832 Y3.400 E0.02700
G1 X9.600 Y3.400 E0.21329
G1 X9.600 Y6.115 E0.20923
G1 X-9.600 Y6.115 E1.47966
G1 X-9.600 Y-6.600 E0.97989
G1 X6.620 Y-6.600 E1.24998
G1 X6.880 Y-6.254 F15000.000
G1 X8.579 Y-5.269 F15000.000
G1 X8.269 Y-5.579 E0.03430 F960.000
G1 X7.356 Y-5.579 E0.07153
G1 X8.514 Y-4.421 E0.12824
G1 X7.600 Y-4.421 E0.07153
G1 X6.442 Y-5.579 E0.12824
G1 X5.529 Y-5.579 E0.07153
G1 X6.713 Y-4.395 E0.13111
G1 X5.891 Y-4.304 E0.06478
G1 X4.615 Y-5.579 E0.14123
G1 X3.702 Y-5.579 E0.07153
G1 X4.860 Y-4.421 E0.12824
G1 X3.947 Y-4.421 E0.07153
G1 X2.789 Y-5.579 E0.12824
G1 X1.875 Y-5.579 E0.07153
G1 X3.033 Y-4.421 E0.12824
G1 X2.120 Y-4.421 E0.07153
G1 X0.962 Y-5.579 E0.12824
G1 X0.048 Y-5.579 E0.07153
G1 X1.206 Y-4.421 E0.12824
G1 X0.293 Y-4.421 E0.07153
G1 X-0.865 Y-5.579 E0.12824
G1 X-1.779 Y-5.579 E0.07153
G1 X-0.621 Y-4.421 E0.12824
G1 X-1.421 Y-4.308 E0.06330
G1 X-2.692 Y-5.579 E0.14077
G1 X-3.606 Y-5.579 E0.07153
G1 X-1.421 Y-3.394 E0.24194
G1 X-3.021 Y-4.081 F15000.000
G1 X-4.519 Y-5.579 E0.16594 F960.000
G1 X-5.432 Y-5.579 E0.07153
G1 X-4.266 Y-4.413 E0.12917
G1 X-5.216 Y-4.449 E0.07445
G1 X-6.346 Y-5.579 E0.12512
G1 X-7.259 Y-5.579 E0.07153
G1 X-5.994 Y-4.313 E0.14019
G1 X-6.677 Y-4.083 E0.05648
G1 X-8.173 Y-5.579 E0.16564
G1 X-8.579 Y-5.072 E0.05089
G1 X-7.289 Y-3.781 E0.14291
G1 X-7.820 Y-3.399 E0.05126
G1 X-8.579 Y-4.158 E0.08403
G1 X-8.579 Y-3.245 E0.07153
G1 X-8.275 Y-2.941 E0.03365
G1 X-8.898 Y-1.506 F15000.000
G1 X-9.013 Y-0.462 E0.17011 F960.000
G1 X-9.016 Y0.402 E0.13992
G1 X-8.898 Y1.506 E0.17969
G1 X-8.269 Y5.094 F15000.000
G1 X-8.579 Y4.784 E0.04549 F960.000
G1 X-8.579 Y3.573 E0.12582
G1 X-7.058 Y5.094 E0.22343
G1 X-6.775 Y4.166 E0.10081
G1 X-6.445 Y4.496 E0.04849
G1 X-6.096 Y4.711 F15000.000
G1 X-5.578 Y4.766 E0.08431 F960.000
G1 X-4.953 Y4.781 E0.10129
G1 X-3.983 Y4.728 E0.15721
G1 X-3.583 Y4.783 F15000.000
G1 X-3.272 Y5.094 E0.03830 F960.000
G1 X-2.257 Y5.094 E0.08831
G1 X-3.275 Y4.075 E0.12533
G1 X-2.619 Y3.717 E0.06510
G1 X-1.242 Y5.094 E0.16939
G1 X-0.227 Y5.094 E0.08831
G1 X-2.049 Y3.272 E0.22423
G1 X-1.557 Y2.749 E0.06247
G1 X-1.241 Y3.065 E0.03894
G1 X-1.108 Y1.480 F15000.000
G1 X-1.003 Y0.680 E0.13058 F960.000
G1 X-0.974 Y0.021 E0.10684
G1 X-1.003 Y-0.680 E0.11361
G1 X-1.108 Y-1.480 E0.13058
G1 X0.438 Y4.731 F15000.000
G1 X0.924 Y4.757 E0.07875 F960.000
G1 X5.288 Y4.757 E0.70663
G1 X5.961 Y4.687 E0.10965
G1 X6.232 Y4.699 E0.04396
G1 X6.696 Y4.757 E0.07561
G1 X8.647 Y4.757 E0.31593
G1 E-4.20000 F1500.00000
G1 Z1.300 F15000.000
G1 X-1.254 Y19.274 F15000.000
G1 Z0.500 F15000.000
G1 E4.20000 F1500.00000
G1 X-0.663 Y19.677 E0.02066 F2400.000
G1 X-0.399 Y19.943 E0.01081
G1 X0.010 Y20.462 E0.01908
G1 X0.355 Y21.233 E0.02438
G1 X0.480 Y21.781 E0.01624
G1 X0.509 Y22.315 E0.01544
G1 X0.479 Y22.718 E0.01165
G1 X0.356 Y23.258 E0.01598
G1 X0.084 Y23.883 E0.01968
G1 X-0.080 Y24.159 E0.00928
G1 X-0.540 Y24.712 E0.02074
G1 X-1.218 Y25.208 E0.02425
G1 X-1.552 Y25.368 E0.01071
G1 X-2.035 Y25.540 E0.01478
G1 X-2.352 Y25.605 E0.00935
G1 X-3.186 Y25.645 E0.02409
G1 X-3.871 Y25.503 E0.02019
G1 X-4.183 Y25.395 E0.00953
G1 X-4.780 Y25.085 E0.01941
G1 X-4.949 Y24.965 E0.00599
G1 X-5.552 Y24.390 E0.02404
G1 X-5.992 Y23.674 E0.02424
G1 X-6.070 Y23.479 E0.00606
G1 X-6.281 Y22.680 E0.02386
G1 X-6.281 Y21.813 E0.02503
G1 X-6.070 Y21.015 E0.02384
G1 X-5.992 Y20.820 E0.00606
G1 X-5.552 Y20.104 E0.02424
G1 X-4.949 Y19.529 E0.02404
G1 X-4.778 Y19.407 E0.00606
G1 X-4.034 Y19.030 E0.02409
G1 X-3.188 Y18.849 E0.02497 F2400.000
G1 X-2.352 Y18.889 E0.02414
G1 X-2.032 Y18.954 E0.00944
G1 X-1.358 Y19.203 E0.02072
G1 X-1.304 Y19.240 E0.00190
G1 X-1.505 Y19.535 F15000.000
G1 X-0.892 Y19.953 E0.02141 F2400.000
G1 X-0.667 Y20.180 E0.00923
G1 X-0.298 Y20.648 E0.01721
G1 X0.015 Y21.346 E0.02208
G1 X0.125 Y21.831 E0.01434
G1 X0.151 Y22.312 E0.01390
G1 X0.125 Y22.665 E0.01022
G1 X0.015 Y23.146 E0.01425
G1 X-0.234 Y23.720 E0.01806
G1 X-0.373 Y23.952 E0.00782
G1 X-0.786 Y24.450 E0.01867
G1 X-1.402 Y24.901 E0.02203
G1 X-1.690 Y25.038 E0.00921
G1 X-2.131 Y25.195 E0.01352
G1 X-2.397 Y25.250 E0.00783
G1 X-3.158 Y25.286 E0.02199
G1 X-3.776 Y25.158 E0.01822
G1 X-4.041 Y25.066 E0.00812
G1 X-4.593 Y24.780 E0.01794
G1 X-4.721 Y24.689 E0.00453
G1 X-5.272 Y24.164 E0.02197
G1 X-5.671 Y23.513 E0.02202
G1 X-5.730 Y23.367 E0.00455
G1 X-5.924 Y22.634 E0.02188
G1 X-5.924 Y21.859 E0.02235
G1 X-5.730 Y21.127 E0.02187
