; generated by Slic3r 1.2.9 on 2020-08-10 at 12:54:38

; external perimeters extrusion width = 0.40mm
; perimeters extrusion width = 0.40mm
; infill extrusion width = 0.40mm
; solid infill extrusion width = 0.40mm
; top infill extrusion width = 0.40mm

M107
M83
T0
M116
G21 ; set units to millimeters
G90 ; use absolute coordinates
M83 ; use relative distances for extrusion
G1 E-4.20000 F1500.00000
G1 Z1.000 F15000.000
G1 X0.000 Y10.586 F15000.000
G1 Z0.300 F15000.000
G1 E4.20000 F1500.00000
G1 X-9.950 Y10.586 E0.76680 F960.000
G1 X-11.597 Y10.191 E0.13052
G1 X-12.887 Y9.093 E0.13052
G1 X-13.586 Y6.950 E0.17373
G1 X-13.586 Y-6.950 E1.07121
G1 X-13.191 Y-8.597 E0.13052
G1 X-12.093 Y-9.887 E0.13052
G1 X-9.950 Y-10.586 E0.17373
G1 X9.950 Y-10.586 E1.53360
G1 X11.597 Y-10.191 E0.13052
G1 X12.887 Y-9.093 E0.13052 F960.000
G1 X13.586 Y-6.950 E0.17373
G1 X13.586 Y6.950 E1.07121
G1 X13.191 Y8.597 E0.13052
G1 X12.093 Y9.887 E0.13052
G1 X9.950 Y10.586 E0.17373
G1 X0.060 Y10.586 E0.76218
G1 E-4.20000 F1500.00000
G1 Z1.300 F15000.000
G1 X-3.528 Y3.121 F15000.000
G1 Z0.300 F15000.000
G1 E4.20000 F1500.00000
G1 X-4.214 Y3.361 E0.05593 F600.000
G1 X-4.686 Y3.429 E0.03682
G1 X-4.945 Y3.446 E0.01994
G1 X-5.428 Y3.423 E0.03733
G1 X-6.136 Y3.260 E0.05599
G1 X-6.791 Y2.947 E0.05594
G1 X-7.193 Y2.661 E0.03800
G1 X-7.704 Y2.146 E0.05591
G1 X-8.092 Y1.531 E0.05602
G1 X-8.275 Y1.074 E0.03800
G1 X-8.432 Y0.368 E0.05573
G1 X-8.432 Y-0.368 E0.05670
G1 X-8.275 Y-1.074 E0.05569
G1 X-8.092 Y-1.531 E0.03799
G1 X-7.704 Y-2.146 E0.05602
G1 X-7.193 Y-2.661 E0.05591
G1 X-6.791 Y-2.947 E0.03800
G1 X-6.136 Y-3.260 E0.05594
G1 X-5.428 Y-3.423 E0.05599
G1 X-4.936 Y-3.447 E0.03799 F600.000
G1 X-4.218 Y-3.362 E0.05573
G1 X-3.528 Y-3.121 E0.05628
G1 X-3.112 Y-2.881 E0.03703
G1 X-2.901 Y-2.732 E0.01994
G1 X-2.544 Y-2.423 E0.03640
G1 X-2.359 Y-2.213 E0.02155
G1 X-2.080 Y-1.841 E0.03583
G1 X-1.763 Y-1.190 E0.05579
G1 X-1.594 Y-0.552 E0.05082
G1 X-1.549 Y0.000 E0.04272
G1 X-1.594 Y0.552 E0.04272
G1 X-1.763 Y1.190 E0.05082
G1 X-2.078 Y1.835 E0.05531
G1 X-2.199 Y2.011 E0.01647
G1 X-2.540 Y2.419 E0.04100
G1 X-2.901 Y2.732 E0.03679
G1 X-3.112 Y2.881 E0.01994
G1 X-3.476 Y3.091 E0.03240
G1 X-3.578 Y3.518 F15000.000
G1 X-6.235 Y5.964 F15000.000
G1 X-8.964 Y5.964 E0.21035 F720.000
G1 X-8.964 Y1.856 E0.31663
G1 X-8.689 Y1.776 E0.02210
G1 X-8.204 Y2.544 E0.06998
G1 X-7.606 Y3.147 E0.06548
G1 X-7.115 Y3.497 E0.04644
G1 X-6.347 Y3.864 E0.06558
G1 X-5.516 Y4.055 E0.06577
G1 X-4.938 Y4.083 E0.04457
G1 X-4.619 Y4.061 E0.02460
G1 X-4.062 Y3.981 E0.04339
G1 X-3.262 Y3.702 E0.06528
G1 X-2.769 Y3.417 E0.04387
G1 X-2.509 Y3.233 E0.02460
G1 X-2.085 Y2.866 E0.04320
G1 X-1.693 Y2.396 E0.04715
G1 X-1.527 Y2.157 E0.02240
G1 X-1.331 Y1.754 E0.03453
G1 X-1.036 Y1.822 E0.02339
G1 X-1.036 Y4.036 E0.17056 F720.000
G1 X3.517 Y4.036 E0.35085
G1 X4.520 Y3.379 E0.09238
G1 X4.884 Y3.187 E0.03167
G1 X5.252 Y3.036 E0.03067
G1 X6.754 Y3.036 E0.11581
G1 X7.066 Y3.163 E0.02594
G1 X7.360 Y3.314 E0.02548
G1 X7.774 Y3.556 E0.03699
G1 X8.479 Y4.036 E0.06570
G1 X8.964 Y4.036 E0.03738
G1 X8.964 Y5.964 E0.14864
G1 X-6.175 Y5.964 E1.16672
G1 E-4.20000 F1500.00000
G1 Z1.300 F15000.000
G1 X8.067 Y-5.964 F15000.000
G1 Z0.300 F15000.000
G1 E4.20000 F1500.00000
G1 X8.964 Y-5.964 E0.06912 F720.000
G1 X8.964 Y-4.036 E0.14864
G1 X8.483 Y-4.036 E0.03706 F720.000
G1 X7.695 Y-3.508 E0.07313
G1 X7.392 Y-3.331 E0.02701
G1 X7.094 Y-3.176 E0.02590
G1 X6.752 Y-3.036 E0.02849
G1 X5.250 Y-3.036 E0.11578
G1 X4.766 Y-3.244 E0.04063
G1 X4.517 Y-3.380 E0.02183
G1 X3.517 Y-4.036 E0.09212
G1 X-1.036 Y-4.036 E0.35088
G1 X-1.036 Y-1.822 E0.17056
G1 X-1.331 Y-1.754 E0.02339
G1 X-1.535 Y-2.173 E0.03589
G1 X-1.865 Y-2.615 E0.04249
G1 X-2.096 Y-2.875 E0.02683
G1 X-2.509 Y-3.233 E0.04209
G1 X-2.769 Y-3.417 E0.02460
G1 X-3.262 Y-3.702 E0.04387
G1 X-4.074 Y-3.985 E0.06627
G1 X-4.914 Y-4.084 E0.06515
G1 X-5.516 Y-4.055 E0.04644
G1 X-6.347 Y-3.864 E0.06577
G1 X-7.115 Y-3.497 E0.06558
G1 X-7.606 Y-3.147 E0.04644
G1 X-8.204 Y-2.544 E0.06548
G1 X-8.689 Y-1.776 E0.06998
G1 X-8.964 Y-1.856 E0.02210
G1 X-8.964 Y-5.964 E0.31663
G1 X8.007 Y-5.964 E1.30795
G1 X8.007 Y-6.600 F15000.000
G1 X9.600 Y-6.600 E0.12273 F720.000
G1 X9.600 Y-3.400 E0.24661
G1 X8.676 Y-3.400 E0.07118 F720.000
G1 X8.032 Y-2.969 E0.05974
G1 X7.700 Y-2.775 E0.02968
G1 X7.368 Y-2.602 E0.02881
G1 X6.854 Y-2.400 E0.04260
G1 X5.146 Y-2.400 E0.13160
G1 X4.916 Y-2.477 E0.01866
G1 X4.481 Y-2.676 E0.03685
G1 X4.190 Y-2.834 E0.02556
G1 X3.328 Y-3.400 E0.07948
G1 X-0.400 Y-3.400 E0.28727
G1 X-0.400 Y3.400 E0.52405
G1 X3.327 Y3.400 E0.28726
G1 X4.197 Y2.831 E0.08010
G1 X4.605 Y2.616 E0.03553
G1 X4.894 Y2.486 E0.02442
G1 X5.147 Y2.400 E0.02056
G1 X6.854 Y2.400 E0.13162
G1 X7.338 Y2.588 E0.03996
G1 X7.666 Y2.757 E0.02847
G1 X8.114 Y3.018 E0.03993
G1 X8.675 Y3.400 E0.05232
G1 X9.600 Y3.400 E0.07129
G1 X9.600 Y6.600 E0.24661
G1 X-9.600 Y6.600 E1.47966
G1 X-9.600 Y-6.600 E1.01726
G1 X7.947 Y-6.600 E1.35231
G1 X8.207 Y-6.254 F15000.000
G1 X8.579 Y-5.269 F15000.000
G1 X8.269 Y-5.579 E0.03430 F960.000
G1 X7.356 Y-5.579 E0.07153
G1 X8.514 Y-4.421 E0.12824
G1 X7.945 Y-4.076 E0.05208
G1 X6.442 Y-5.579 E0.16642
G1 X5.529 Y-5.579 E0.07153
G1 X7.389 Y-3.718 E0.20605
G1 X6.773 Y-3.421 E0.05357
G1 X4.615 Y-5.579 E0.23899
G1 X3.702 Y-5.579 E0.07153
G1 X5.860 Y-3.421 E0.23899
G1 X4.211 Y-4.156 F15000.000
G1 X2.789 Y-5.579 E0.15756 F960.000
G1 X1.875 Y-5.579 E0.07153
G1 X3.033 Y-4.421 E0.12824
G1 X2.120 Y-4.421 E0.07153
G1 X0.962 Y-5.579 E0.12824
G1 X0.048 Y-5.579 E0.07153
G1 X1.206 Y-4.421 E0.12824
G1 X0.293 Y-4.421 E0.07153
G1 X-0.865 Y-5.579 E0.12824
G1 X-1.779 Y-5.579 E0.07153
G1 X-0.621 Y-4.421 E0.12824
G1 X-1.421 Y-4.308 E0.06330
G1 X-2.692 Y-5.579 E0.14077
G1 X-3.606 Y-5.579 E0.07153
G1 X-1.421 Y-3.394 E0.24194
G1 X-3.021 Y-4.081 F15000.000
G1 X-4.519 Y-5.579 E0.16594 F960.000
G1 X-5.432 Y-5.579 E0.07153
G1 X-4.266 Y-4.413 E0.12917
G1 X-5.216 Y-4.449 E0.07445
G1 X-6.346 Y-5.579 E0.12512
G1 X-7.259 Y-5.579 E0.07153
G1 X-5.994 Y-4.313 E0.14019
G1 X-6.677 Y-4.083 E0.05648
G1 X-8.173 Y-5.579 E0.16564
G1 X-8.579 Y-5.072 E0.05089
G1 X-7.289 Y-3.781 E0.14291
G1 X-7.820 Y-3.399 E0.05126
G1 X-8.579 Y-4.158 E0.08403
G1 X-8.579 Y-3.245 E0.07153
G1 X-8.275 Y-2.941 E0.03365
G1 X-8.898 Y-1.506 F15000.000
G1 X-9.013 Y-0.462 E0.17011 F960.000
G1 X-9.016 Y0.402 E0.13992
G1 X-8.898 Y1.506 E0.17969
G1 X-8.579 Y3.407 F15000.000
G1 X-6.407 Y5.579 E0.24533 F960.000
G1 X-7.338 Y5.579 F15000.000
G1 X-8.579 Y4.338 E0.14015 F960.000
G1 X-8.579 Y5.269 E0.07437
G1 X-8.269 Y5.579 E0.03497
G1 X-6.992 Y4.062 F15000.000
G1 X-5.475 Y5.579 E0.17135 F960.000
G1 X-4.544 Y5.579 E0.07437
G1 X-5.683 Y4.440 E0.12864
G1 X-4.744 Y4.447 E0.07495
G1 X-3.612 Y5.579 E0.12782
G1 X-2.681 Y5.579 E0.07437
G1 X-3.949 Y4.311 E0.14322
G1 X-3.259 Y4.070 E0.05839
G1 X-1.750 Y5.579 E0.17044
G1 X-1.421 Y4.045 F15000.000
G1 X-2.127 Y3.339 E0.07970 F960.000
G1 X-2.657 Y3.740 E0.05309
G1 X-0.818 Y5.579 E0.20764
G1 X0.113 Y5.579 E0.07437
G1 X-1.045 Y4.421 E0.13076
G1 X-0.113 Y4.421 E0.07437
G1 X1.045 Y5.579 E0.13076
G1 X1.976 Y5.579 E0.07437
G1 X0.818 Y4.421 E0.13076
G1 X1.750 Y4.421 E0.07437
G1 X2.907 Y5.579 E0.13076
G1 X3.839 Y5.579 E0.07437
G1 X2.681 Y4.421 E0.13076
G1 X3.583 Y4.391 E0.07205
G1 X4.770 Y5.579 E0.13411
G1 X5.702 Y5.579 E0.07437
G1 X4.145 Y4.023 E0.17573
G1 X4.713 Y3.659 E0.05384
G1 X6.633 Y5.579 E0.21680
G1 X7.564 Y5.579 E0.07437
G1 X5.406 Y3.421 E0.24369
G1 X6.338 Y3.421 E0.07437
G1 X8.496 Y5.579 E0.24369
G1 X8.269 Y4.421 E0.09421
G1 X8.579 Y4.731 E0.03497
G1 E-4.20000 F1500.00000
G1 Z1.300 F15000.000
G1 X-1.108 Y1.480 F15000.000
G1 Z0.300 F15000.000
G1 E4.20000 F1500.00000
G1 X-1.003 Y0.680 E0.13058 F960.000
G1 X-0.974 Y0.021 E0.10684
G1 X-1.003 Y-0.680 E0.11361
G1 X-1.108 Y-1.480 E0.13058
G1 E-4.20000 F1500.00000
G1 Z1.300 F15000.000
G1 X-1.814 Y-1.163 F15000.000
G1 Z0.500 F15000.000
G1 E4.20000 F1500.00000
G1 X-1.747 Y-1.014 E0.00471 F2400.000
G1 X-1.623 Y-0.465 E0.01624
G1 X-1.594 Y0.069 E0.01544
G1 X-1.624 Y0.471 E0.01165
G1 X-1.747 Y1.011 E0.01598
G1 X-2.018 Y1.636 E0.01968
G1 X-2.183 Y1.913 E0.00928
G1 X-2.643 Y2.465 E0.02074
G1 X-3.321 Y2.961 E0.02425
G1 X-3.655 Y3.122 E0.01071
G1 X-4.138 Y3.293 E0.01478
G1 X-4.455 Y3.358 E0.00935
G1 X-5.289 Y3.398 E0.02409
G1 X-5.974 Y3.256 E0.02019
G1 X-6.286 Y3.148 E0.00953
G1 X-6.883 Y2.838 E0.01941
G1 X-7.052 Y2.718 E0.00599
G1 X-7.655 Y2.143 E0.02404
G1 X-8.094 Y1.427 E0.02424
G1 X-8.173 Y1.232 E0.00606
G1 X-8.384 Y0.433 E0.02386
G1 X-8.384 Y-0.434 E0.02503
G1 X-8.173 Y-1.232 E0.02384
G1 X-8.094 Y-1.427 E0.00606
G1 X-7.655 Y-2.143 E0.02424
G1 X-7.052 Y-2.718 E0.02404
G1 X-6.881 Y-2.840 E0.00606
G1 X-6.136 Y-3.217 E0.02409
G1 X-5.291 Y-3.398 E0.02497 F2400.000
G1 X-4.455 Y-3.358 E0.02414
G1 X-4.135 Y-3.292 E0.00944
G1 X-3.461 Y-3.044 E0.02072
G1 X-2.766 Y-2.570 E0.02429
G1 X-2.502 Y-2.304 E0.01081
G1 X-2.093 Y-1.785 E0.01908
G1 X-1.839 Y-1.218 E0.01793
G1 X-2.165 Y-1.072 F15000.000
G1 X-2.088 Y-0.900 E0.00542 F2400.000
G1 X-1.978 Y-0.416 E0.01434
G1 X-1.952 Y0.065 E0.01390
G1 X-1.978 Y0.418 E0.01022
G1 X-2.088 Y0.899 E0.01425
G1 X-2.337 Y1.473 E0.01806
G1 X-2.476 Y1.706 E0.00782
G1 X-2.889 Y2.203 E0.01867
G1 X-3.505 Y2.654 E0.02203
G1 X-3.793 Y2.791 E0.00921
G1 X-4.234 Y2.948 E0.01352
G1 X-4.500 Y3.003 E0.00783
G1 X-5.261 Y3.039 E0.02199
G1 X-5.879 Y2.911 E0.01822
G1 X-6.144 Y2.819 E0.00812
G1 X-6.696 Y2.533 E0.01794
G1 X-6.824 Y2.442 E0.00453
G1 X-7.375 Y1.917 E0.02197
G1 X-7.774 Y1.266 E0.02202
G1 X-7.833 Y1.120 E0.00455
G1 X-8.027 Y0.387 E0.02188
G1 X-8.027 Y-0.387 E0.02235
G1 X-7.833 Y-1.120 E0.02187
G1 X-7.774 Y-1.266 E0.00455
G1 X-7.375 Y-1.917 E0.02202
G1 X-6.824 Y-2.442 E0.02197
G1 X-6.696 Y-2.533 E0.00455
G1 X-6.016 Y-2.878 E0.02198
G1 X-5.261 Y-3.039 E0.02229 F2400.000
G1 X-4.500 Y-3.003 E0.02200
G1 X-4.233 Y-2.948 E0.00786
G1 X-3.626 Y-2.724 E0.01867
G1 X-2.995 Y-2.294 E0.02204
G1 X-2.770 Y-2.067 E0.00923
G1 X-2.401 Y-1.598 E0.01721
G1 X-2.189 Y-1.126 E0.01493
G1 X-1.978 Y-1.053 F15000.000
G1 E-4.20000 F1500.00000
G1 Z1.500 F15000.000
G1 X-8.642 Y6.393 F15000.000
G1 Z0.500 F15000.000
G1 E4.20000 F1500.00000
G1 X-9.393 Y6.393 E0.02167 F2400.000
G1 X-9.393 Y-6.393 E0.36903
G1 X9.393 Y-6.393 E0.54221
G1 X9.393 Y-3.607 E0.08041
G1 X8.837 Y-3.607 E0.01605 F2400.000
G1 X7.951 Y-2.970 E0.03148
G1 X7.341 Y-2.607 E0.02049
G1 X4.668 Y-2.607 E0.07716
G1 X4.344 Y-2.785 E0.01066
G1 X3.757 Y-3.172 E0.02029
G1 X3.158 Y-3.607 E0.02137
G1 X-0.607 Y-3.607 E0.10867
G1 X-0.607 Y3.607 E0.20822
G1 X3.158 Y3.607 E0.10867
G1 X3.757 Y3.172 E0.02136
G1 X4.344 Y2.785 E0.02030
G1 X4.668 Y2.607 E0.01067
G1 X7.341 Y2.607 E0.07716
G1 X7.951 Y2.970 E0.02049
G1 X8.837 Y3.607 E0.03148
G1 X9.393 Y3.607 E0.01605
G1 X9.393 Y6.393 E0.08041
G1 X-8.582 Y6.393 E0.51880
G1 X-8.582 Y6.750 F15000.000
G1 X-9.750 Y6.750 E0.03371 F2400.000
G1 X-9.750 Y-6.750 E0.38965
G1 X9.750 Y-6.750 E0.56282
G1 X9.750 Y-3.250 E0.10102
G1 X8.952 Y-3.250 E0.02303 F2400.000
G1 X8.151 Y-2.674 E0.02847
G1 X7.791 Y-2.447 E0.01229
G1 X7.433 Y-2.250 E0.01179
G1 X4.576 Y-2.250 E0.08245
G1 X4.159 Y-2.479 E0.01373
G1 X3.554 Y-2.878 E0.02095
G1 X3.042 Y-3.250 E0.01825
G1 X-0.250 Y-3.250 E0.09502
G1 X-0.250 Y3.250 E0.18761
G1 X3.042 Y3.250 E0.09502
G1 X3.554 Y2.879 E0.01825
G1 X4.159 Y2.479 E0.02095
G1 X4.577 Y2.250 E0.01373
G1 X7.433 Y2.250 E0.08244
G1 X7.791 Y2.447 E0.01179
G1 X8.151 Y2.674 E0.01229
G1 X8.952 Y3.250 E0.02847
G1 X9.750 Y3.250 E0.02303
G1 X9.750 Y6.750 E0.10102
G1 X-8.522 Y6.750 E0.52738
G1 X-8.782 Y6.404 F15000.000
G1 X-4.000 Y3.494 F15000.000
G1 X-6.691 Y6.185 E0.11006 F2400.000
G1 X-7.197 Y6.185 E0.01463
G1 X-4.588 Y3.576 E0.10670
G1 X-5.120 Y3.602 E0.01538
G1 X-7.703 Y6.185 E0.10566
G1 X-8.209 Y6.185 E0.01463
G1 X-5.563 Y3.539 E0.10821
G1 X-5.981 Y3.451 E0.01235
G1 X-8.715 Y6.185 E0.11181
G1 X-9.183 Y6.147 E0.01358
G1 X-6.353 Y3.317 E0.11574
G1 X-6.686 Y3.144 E0.01085
G1 X-9.185 Y5.643 E0.10220
G1 X-9.185 Y5.137 E0.01463
G1 X-7.012 Y2.965 E0.08887
G1 X-7.289 Y2.735 E0.01039
G1 X-9.185 Y4.631 E0.07754
G1 X-9.185 Y4.126 E0.01463
G1 X-7.548 Y2.489 E0.06695
G1 X-7.806 Y2.240 E0.01035
G1 X-9.185 Y3.620 E0.05641
G1 X-9.185 Y3.114 E0.01463
G1 X-7.998 Y1.927 E0.04854
G1 X-8.191 Y1.613 E0.01064
G1 X-9.185 Y2.608 E0.04067
G1 X-9.185 Y2.102 E0.01463
G1 X-8.356 Y1.272 E0.03392
G1 X-8.464 Y0.875 E0.01191
G1 X-9.185 Y1.596 E0.02947
G1 X-9.185 Y1.090 E0.01463
G1 X-8.570 Y0.475 E0.02515
G1 X-8.592 Y-0.010 E0.01403
G1 X-9.185 Y0.584 E0.02428
G1 X-9.185 Y0.078 E0.01463
G1 X-8.591 Y-0.516 E0.02428
G1 X-9.185 Y-0.428 E0.01736
G1 X-8.421 Y-1.193 E0.03127
G1 X-9.185 Y-1.440 F15000.000
G1 X-4.440 Y-6.185 E0.19406 F2400.000
G1 X-4.946 Y-6.185 E0.01463
G1 X-9.185 Y-1.946 E0.17337
G1 X-9.185 Y-2.452 E0.01463
G1 X-5.452 Y-6.185 E0.15268
G1 X-5.958 Y-6.185 E0.01463
G1 X-9.185 Y-2.958 E0.13198
G1 X-9.185 Y-3.464 E0.01463
G1 X-6.464 Y-6.185 E0.11129
G1 X-6.970 Y-6.185 E0.01463
G1 X-9.185 Y-3.970 E0.09060
G1 X-9.185 Y-4.476 E0.01463
G1 X-7.476 Y-6.185 E0.06991
G1 X-7.982 Y-6.185 E0.01463
G1 X-9.185 Y-4.982 E0.04921
G1 X-9.185 Y-5.488 E0.01463
G1 X-8.488 Y-6.185 E0.02852
G1 X-8.994 Y-6.185 E0.01463
G1 X-9.185 Y-5.994 E0.00783
G1 X-7.133 Y-2.987 F15000.000
G1 X-3.934 Y-6.185 E0.13081 F2400.000
G1 X-3.428 Y-6.185 E0.01463
G1 X-6.174 Y-3.440 E0.11229
G1 X-5.530 Y-3.577 E0.01903
G1 X-2.922 Y-6.185 E0.10666
G1 X-2.416 Y-6.185 E0.01463
G1 X-5.012 Y-3.589 E0.10616
G1 X-4.529 Y-3.566 E0.01398
G1 X-1.910 Y-6.185 E0.10711
G1 X-1.404 Y-6.185 E0.01463
G1 X-4.108 Y-3.481 E0.11059
G1 X-3.739 Y-3.345 E0.01139
G1 X-0.898 Y-6.185 E0.11616
G1 X-0.392 Y-6.185 E0.01463
G1 X-3.376 Y-3.202 E0.12202
G1 X-3.075 Y-2.996 E0.01053
G1 X0.114 Y-6.185 E0.13041
G1 X0.620 Y-6.185 E0.01463
G1 X-2.774 Y-2.791 E0.13880
G1 X-2.504 Y-2.556 E0.01037
G1 X1.126 Y-6.185 E0.14842
G1 X1.631 Y-6.185 E0.01463
G1 X-2.265 Y-2.289 E0.15934
G1 X-2.042 Y-2.006 E0.01042
G1 X-0.815 Y-3.233 E0.05018
G1 X-0.815 Y-2.727 E0.01463
G1 X-1.850 Y-1.692 E0.04234
G1 X-1.694 Y-1.342 E0.01107
G1 X-0.815 Y-2.221 E0.03594
G1 X-0.815 Y-1.715 E0.01463
G1 X-1.543 Y-0.986 E0.02980
G1 X-1.450 Y-0.574 E0.01223
G1 X-0.815 Y-1.209 E0.02596
G1 X-0.815 Y-0.703 E0.01463
G1 X-1.400 Y-0.118 E0.02393
G1 X-1.404 Y0.392 E0.01475
G1 X-0.815 Y-0.197 E0.02409
G1 X-0.815 Y0.309 E0.01463
G1 X-1.514 Y1.008 E0.02859
G1 X-0.815 Y0.815 E0.02097
G1 X-1.841 Y1.841 E0.04197
G1 X-3.159 Y3.159 F15000.000
G1 X-6.185 Y6.185 E0.12378 F2400.000
G1 X-5.679 Y6.185 E0.01463
G1 X-0.815 Y1.321 E0.19894
G1 X-0.815 Y1.827 E0.01463
G1 X-5.173 Y6.185 E0.17825
G1 X-4.667 Y6.185 E0.01463
G1 X-0.815 Y2.333 E0.15755
G1 X-0.815 Y2.839 E0.01463
G1 X-4.161 Y6.185 E0.13686
G1 X-3.655 Y6.185 E0.01463
G1 X-0.815 Y3.345 E0.11617
G1 X-0.779 Y3.815 E0.01364
G1 X-3.149 Y6.185 E0.09694
G1 X-2.643 Y6.185 E0.01463
G1 X-0.273 Y3.815 E0.09694
G1 X0.233 Y3.815 E0.01463
G1 X-2.138 Y6.185 E0.09694
G1 X-1.632 Y6.185 E0.01463
G1 X0.739 Y3.815 E0.09694
G1 X1.245 Y3.815 E0.01463
G1 X-1.126 Y6.185 E0.09694
G1 X-0.620 Y6.185 E0.01463
G1 X1.751 Y3.815 E0.09694
G1 X2.257 Y3.815 E0.01463
G1 X-0.114 Y6.185 E0.09694
G1 X0.392 Y6.185 E0.01463
G1 X2.763 Y3.815 E0.09694
G1 X3.269 Y3.815 E0.01463
G1 X0.898 Y6.185 E0.09694
G1 X1.404 Y6.185 E0.01463
G1 X4.724 Y2.866 E0.13576
G1 X5.281 Y2.815 E0.01616
G1 X1.910 Y6.185 E0.13784
G1 X2.416 Y6.185 E0.01463
G1 X5.787 Y2.815 E0.13784
G1 X6.292 Y2.815 E0.01463
G1 X2.922 Y6.185 E0.13784
G1 X3.428 Y6.185 E0.01463
G1 X6.798 Y2.815 E0.13784
G1 X7.304 Y2.815 E0.01463
G1 X3.934 Y6.185 E0.13784
G1 X4.440 Y6.185 E0.01463
G1 X7.634 Y2.991 E0.13064
G1 X7.946 Y3.185 E0.01062
G1 X4.946 Y6.185 E0.12268
G1 X5.452 Y6.185 E0.01463
G1 X8.240 Y3.397 E0.11403
G1 X8.534 Y3.609 E0.01048
G1 X5.958 Y6.185 E0.10537
G1 X6.464 Y6.185 E0.01463
G1 X8.834 Y3.815 E0.09694
G1 X9.185 Y3.970 E0.01110
G1 X6.970 Y6.185 E0.09060
G1 X7.476 Y6.185 E0.01463
G1 X9.185 Y4.476 E0.06991
G1 X9.185 Y4.982 E0.01463
G1 X7.982 Y6.185 E0.04922
G1 X8.488 Y6.185 E0.01463
G1 X9.185 Y5.488 E0.02852
G1 X9.185 Y5.994 E0.01463
G1 X8.994 Y6.185 E0.00783
G1 E-4.20000 F1500.00000
G1 Z1.500 F15000.000
G1 X7.635 Y-3.081 F15000.000
G1 Z0.500 F15000.000
G1 E4.20000 F1500.00000
G1 X9.185 Y-4.632 E0.06339 F2400.000
