; generated by Slic3r 1.2.9 on 2020-05-19 at 12:10:00

; external perimeters extrusion width = 0.40mm
; perimeters extrusion width = 0.40mm
; infill extrusion width = 0.40mm
; solid infill extrusion width = 0.40mm
; top infill extrusion width = 0.40mm

M107
M83
T0
M116
G21 ; set units to millimeters
G90 ; use absolute coordinates
M83 ; use relative distances for extrusion
G1 E-4.20000 F1500.00000
G1 Z1.000 F15000.000
G1 X21.456 Y1.570 F15000.000
G1 Z0.300 F15000.000
G1 E4.20000 F1500.00000
G1 X21.360 Y2.879 E0.10111 F960.000
G1 X21.283 Y3.404 E0.04090
G1 X20.713 Y5.962 E0.20195
G1 X20.561 Y6.470 E0.04090
G1 X19.624 Y8.918 E0.20195
G1 X19.399 Y9.398 E0.04090
G1 X18.117 Y11.683 E0.20195
G1 X17.824 Y12.126 E0.04090
G1 X16.222 Y14.200 E0.20195
G1 X15.868 Y14.596 E0.04090
G1 X13.981 Y16.414 E0.20195
G1 X13.573 Y16.754 E0.04090
G1 X11.442 Y18.279 E0.20195
G1 X10.989 Y18.555 E0.04090
G1 X8.659 Y19.753 E0.20195
G1 X8.170 Y19.961 E0.04090
G1 X5.690 Y20.807 E0.20195
G1 X5.176 Y20.941 E0.04090
G1 X2.600 Y21.417 E0.20195
G1 X2.072 Y21.475 E0.04090
G1 X-0.547 Y21.571 E0.20195
G1 X-1.077 Y21.552 E0.04090
G1 X-3.682 Y21.265 E0.20195
G1 X-4.204 Y21.169 E0.04090
G1 X-6.739 Y20.506 E0.20195
G1 X-7.242 Y20.334 E0.04090
G1 X-9.653 Y19.310 E0.20195
G1 X-10.125 Y19.067 E0.04090
G1 X-12.362 Y17.702 E0.20195
G1 X-12.794 Y17.393 E0.04090
G1 X-14.808 Y15.717 E0.20195
G1 X-15.190 Y15.348 E0.04090
G1 X-16.939 Y13.397 E0.20195
G1 X-17.263 Y12.977 E0.04090
G1 X-18.709 Y10.791 E0.20195
G1 X-18.969 Y10.328 E0.04090
G1 X-20.081 Y7.955 E0.20195
G1 X-20.271 Y7.460 E0.04090
G1 X-21.026 Y4.950 E0.20195
G1 X-21.141 Y4.432 E0.04090
G1 X-21.523 Y1.840 E0.20195
G1 X-21.562 Y1.310 E0.04090
G1 X-21.562 Y-1.310 E0.20195
G1 X-21.523 Y-1.840 E0.04090
G1 X-21.141 Y-4.432 E0.20195
G1 X-21.026 Y-4.950 E0.04090
G1 X-20.271 Y-7.460 E0.20195
G1 X-20.081 Y-7.955 E0.04090
G1 X-18.969 Y-10.328 E0.20195
G1 X-18.709 Y-10.791 E0.04090
G1 X-17.263 Y-12.977 E0.20195
G1 X-16.939 Y-13.397 E0.04090
G1 X-15.190 Y-15.348 E0.20195
G1 X-14.808 Y-15.717 E0.04090
G1 X-12.794 Y-17.393 E0.20195
G1 X-12.362 Y-17.702 E0.04090
G1 X-10.125 Y-19.067 E0.20195
G1 X-9.653 Y-19.310 E0.04090
G1 X-7.242 Y-20.334 E0.20195
G1 X-6.739 Y-20.506 E0.04090
G1 X-4.204 Y-21.169 E0.20195
G1 X-3.682 Y-21.265 E0.04090
G1 X-1.077 Y-21.552 E0.20195
G1 X-0.547 Y-21.571 E0.04090
G1 X2.072 Y-21.475 E0.20195
G1 X2.600 Y-21.417 E0.04090 F960.000
G1 X5.176 Y-20.941 E0.20195
G1 X5.690 Y-20.807 E0.04090
G1 X8.170 Y-19.961 E0.20195
G1 X8.659 Y-19.753 E0.04090
G1 X10.989 Y-18.555 E0.20195
G1 X11.442 Y-18.279 E0.04090
G1 X13.573 Y-16.754 E0.20195
G1 X13.981 Y-16.414 E0.04090
G1 X15.868 Y-14.596 E0.20195
G1 X16.222 Y-14.200 E0.04090
G1 X17.824 Y-12.126 E0.20195
G1 X18.117 Y-11.683 E0.04090
G1 X19.399 Y-9.398 E0.20195
G1 X19.624 Y-8.918 E0.04090
G1 X20.561 Y-6.470 E0.20195
G1 X20.713 Y-5.962 E0.04090
G1 X21.283 Y-3.404 E0.20195
G1 X21.360 Y-2.879 E0.04090
G1 X21.552 Y-0.265 E0.20195
G1 X21.552 Y0.265 E0.04090
G1 X21.461 Y1.511 E0.09621
G1 E-4.20000 F1500.00000
G1 Z1.300 F15000.000
G1 X2.588 Y-0.013 F15000.000
G1 Z0.300 F15000.000
G1 E4.20000 F1500.00000
G1 X2.537 Y0.503 E0.04001 F600.000
G1 X2.392 Y0.988 E0.03898
G1 X2.156 Y1.435 E0.03898
G1 X1.591 Y2.136 E0.06935
G1 X-1.655 Y2.136 E0.25019
G1 X-2.277 Y1.324 E0.07876
G1 X-2.531 Y0.739 E0.04919
G1 X-2.635 Y0.109 E0.04919
G1 X-2.584 Y-0.527 E0.04919
G1 X-2.379 Y-1.132 E0.04919
G1 X-2.035 Y-1.669 E0.04919
G1 X-1.570 Y-2.107 E0.04919
G1 X-1.008 Y-2.422 E0.04966
G1 X-0.371 Y-2.587 E0.05073
G1 X0.241 Y-2.600 E0.04715 F600.000
G1 X0.863 Y-2.458 E0.04919
G1 X1.433 Y-2.170 E0.04919
G1 X1.915 Y-1.752 E0.04919
G1 X2.282 Y-1.229 E0.04919
G1 X2.511 Y-0.634 E0.04919
G1 X2.580 Y-0.073 E0.04354
G1 X1.948 Y-0.005 F15000.000
G1 X1.911 Y0.380 E0.02984 F600.000
G1 X1.801 Y0.746 E0.02945
G1 X1.623 Y1.084 E0.02945
G1 X1.287 Y1.500 E0.04118
G1 X-1.342 Y1.500 E0.20261
G1 X-1.725 Y1.000 E0.04856
G1 X-1.917 Y0.558 E0.03714
G1 X-1.995 Y0.082 E0.03714
G1 X-1.956 Y-0.398 E0.03714
G1 X-1.802 Y-0.855 E0.03714
G1 X-1.542 Y-1.260 E0.03714
G1 X-1.191 Y-1.591 E0.03714
G1 X-0.769 Y-1.827 E0.03730
G1 X-0.283 Y-1.953 E0.03868
G1 X0.176 Y-1.963 E0.03539 F600.000
G1 X0.646 Y-1.856 E0.03714
G1 X1.076 Y-1.638 E0.03714
G1 X1.440 Y-1.322 E0.03714
G1 X1.717 Y-0.928 E0.03714
G1 X1.890 Y-0.478 E0.03714
G1 X1.941 Y-0.065 E0.03212
G1 X2.279 Y0.196 F15000.000
G1 X15.346 Y-7.167 F15000.000
G1 X16.218 Y-4.887 E0.18813 F720.000
G1 X16.757 Y-2.470 E0.19083
G1 X16.938 Y-0.000 E0.19083
G1 X16.757 Y2.470 E0.19083
G1 X16.218 Y4.887 E0.19083
G1 X15.334 Y7.199 E0.19083
G1 X14.122 Y9.359 E0.19083
G1 X12.609 Y11.319 E0.19083
G1 X10.826 Y13.037 E0.19083
G1 X8.812 Y14.478 E0.19083
G1 X6.610 Y15.611 E0.19083
G1 X4.266 Y16.410 E0.19083
G1 X1.831 Y16.860 E0.19083
G1 X-0.643 Y16.950 E0.19083
G1 X-3.105 Y16.679 E0.19083
G1 X-5.501 Y16.053 E0.19083
G1 X-7.780 Y15.085 E0.19083
G1 X-9.893 Y13.795 E0.19083
G1 X-11.797 Y12.211 E0.19083
G1 X-13.449 Y10.366 E0.19083
G1 X-14.815 Y8.301 E0.19083
G1 X-15.866 Y6.059 E0.19083
G1 X-16.580 Y3.688 E0.19083
G1 X-16.940 Y1.238 E0.19083
G1 X-16.940 Y-1.238 E0.19083
G1 X-16.580 Y-3.688 E0.19083
G1 X-15.866 Y-6.059 E0.19083
G1 X-14.815 Y-8.301 E0.19083
G1 X-13.449 Y-10.366 E0.19083
G1 X-11.797 Y-12.211 E0.19083
G1 X-9.893 Y-13.795 E0.19083
G1 X-7.780 Y-15.085 E0.19083
G1 X-5.501 Y-16.053 E0.19083
G1 X-3.105 Y-16.679 E0.19083
G1 X-0.643 Y-16.950 E0.19083
G1 X1.460 Y-16.873 E0.16223
G1 X1.831 Y-16.860 E0.02860 F720.000
G1 X4.266 Y-16.410 E0.19083
G1 X6.610 Y-15.611 E0.19083
G1 X8.812 Y-14.478 E0.19083
G1 X10.826 Y-13.037 E0.19083
G1 X12.609 Y-11.319 E0.19083
G1 X14.122 Y-9.359 E0.19083
G1 X15.322 Y-7.221 E0.18891
G1 X15.876 Y-7.532 F15000.000
G1 X16.829 Y-5.070 E0.20345 F720.000
G1 X17.387 Y-2.562 E0.19800
G1 X17.575 Y0.000 E0.19800
G1 X17.387 Y2.562 E0.19800
G1 X16.829 Y5.070 E0.19800
G1 X15.911 Y7.470 E0.19800
G1 X14.653 Y9.711 E0.19800
G1 X13.083 Y11.744 E0.19800
G1 X11.234 Y13.527 E0.19800
G1 X9.144 Y15.022 E0.19800
G1 X6.859 Y16.197 E0.19800
G1 X4.427 Y17.027 E0.19800
G1 X1.901 Y17.493 E0.19800
G1 X-0.667 Y17.587 E0.19800
G1 X-3.221 Y17.306 E0.19800
G1 X-5.706 Y16.656 E0.19800
G1 X-8.071 Y15.651 E0.19800
G1 X-10.264 Y14.313 E0.19800
G1 X-12.239 Y12.670 E0.19800
G1 X-13.954 Y10.756 E0.19800
G1 X-15.371 Y8.613 E0.19800
G1 X-16.462 Y6.287 E0.19800
G1 X-17.202 Y3.827 E0.19800
G1 X-17.576 Y1.285 E0.19800
G1 X-17.576 Y-1.285 E0.19800
G1 X-17.202 Y-3.827 E0.19800
G1 X-16.462 Y-6.287 E0.19800
G1 X-15.371 Y-8.613 E0.19800
G1 X-13.954 Y-10.756 E0.19800
G1 X-12.239 Y-12.670 E0.19800
G1 X-10.264 Y-14.313 E0.19800
G1 X-8.071 Y-15.651 E0.19800
G1 X-5.706 Y-16.656 E0.19800
G1 X-3.221 Y-17.306 E0.19800
G1 X-0.667 Y-17.587 E0.19800
G1 X1.483 Y-17.509 E0.16582
G1 X1.901 Y-17.493 E0.03219 F720.000
G1 X4.427 Y-17.027 E0.19800
G1 X6.859 Y-16.197 E0.19800
G1 X9.144 Y-15.022 E0.19800
G1 X11.234 Y-13.527 E0.19800
G1 X13.083 Y-11.744 E0.19800
G1 X14.653 Y-9.711 E0.19800
G1 X15.847 Y-7.585 E0.18787
G1 X15.640 Y-7.209 F15000.000
G1 X14.468 Y-7.784 F15000.000
G1 X7.745 Y-14.507 E0.74166 F960.000
G1 X5.977 Y-15.366 F15000.000
G1 X15.304 Y-6.039 E1.02894 F960.000
G1 X12.451 Y-10.712 F15000.000
G1 X11.296 Y-11.866 E0.12741 F960.000
G1 X4.596 Y-15.837 F15000.000
G1 X15.860 Y-4.573 E1.24263 F960.000
G1 X16.121 Y-3.402 E0.09356
G1 X3.366 Y-16.157 E1.40715
G1 X2.250 Y-16.363 E0.08853
G1 X16.377 Y-2.236 E1.55854
G1 X16.449 Y-1.254 E0.07679
G1 X1.211 Y-16.492 E1.68101
G1 X0.267 Y-16.526 E0.07372
G1 X16.521 Y-0.272 E1.79312
G1 X16.514 Y0.631 E0.07047
G1 X-0.677 Y-16.561 E1.89658
G1 X-1.508 Y-16.481 E0.06508
G1 X16.452 Y1.479 E1.98135
G1 X16.390 Y2.327 E0.06631
G1 X-2.328 Y-16.391 E2.06493
G1 X-3.147 Y-16.301 E0.06431
G1 X16.249 Y3.096 E2.13976
G1 X16.084 Y3.840 E0.05947
G1 X-3.868 Y-16.112 E2.20105
G1 X-4.590 Y-15.924 E0.05816
G1 X15.918 Y4.584 E2.26234
G1 X15.699 Y5.275 E0.05656
G1 X-5.311 Y-15.735 E2.31780
G1 X-5.967 Y-15.482 E0.05489
G1 X15.448 Y5.933 E2.36245
G1 X15.196 Y6.591 E0.05497
G1 X-6.606 Y-15.210 E2.40512
G1 X-7.244 Y-14.939 E0.05412
G1 X14.928 Y7.234 E2.44607
G1 X14.601 Y7.817 E0.05213
G1 X-7.859 Y-14.644 E2.47780
G1 X-8.424 Y-14.299 E0.05164
G1 X14.274 Y8.400 E2.50405
G1 X13.947 Y8.982 E0.05213
G1 X-8.989 Y-13.954 E2.53030
G1 X-9.554 Y-13.609 E0.05164
G1 X1.303 Y-2.752 E1.19771
G1 X0.164 Y-2.981 E0.09059
G1 X-10.072 Y-13.217 E1.12916
G1 X-10.568 Y-12.803 E0.05040
G1 X-0.648 Y-2.883 E1.09439
G1 X-1.312 Y-2.637 E0.05525
G1 X-11.065 Y-12.390 E1.07588
G1 X-11.548 Y-11.963 E0.05028
G1 X-1.866 Y-2.281 E1.06809
G1 X-2.327 Y-1.832 E0.05019
G1 X-11.992 Y-11.498 E1.06628
G1 X-12.422 Y-11.018 E0.05026
G1 X-2.683 Y-1.278 E1.07448
G1 X-2.924 Y-0.610 E0.05542
G1 X-12.852 Y-10.538 E1.09523
G1 X-13.265 Y-10.041 E0.05041
G1 X-3.019 Y0.205 E1.13028
G1 X-2.736 Y1.398 E0.09569
G1 X-13.627 Y-9.493 E1.20153
G1 X-13.989 Y-8.946 E0.05122
G1 X8.937 Y13.981 E2.52917
G1 X9.467 Y13.601 E0.05087
G1 X-1.613 Y2.521 E1.22234
G1 X-0.703 Y2.521 E0.07098
G1 X9.998 Y13.222 E1.18047
G1 X10.528 Y12.842 E0.05087
G1 X0.207 Y2.521 E1.13861
G1 X1.117 Y2.521 E0.07098
G1 X11.004 Y12.408 E1.09072
G1 X11.467 Y11.961 E0.05020
G1 X1.849 Y2.343 E1.06109
G1 X2.255 Y1.840 E0.05047
G1 X11.924 Y11.508 E1.06663
G1 X12.379 Y11.053 E0.05019
G1 X2.615 Y1.290 E1.07708
G1 X2.867 Y0.632 E0.05497
G1 X12.784 Y10.549 E1.09408
G1 X13.181 Y10.036 E0.05060
G1 X2.974 Y-0.171 E1.12596
G1 X2.714 Y-1.341 E0.09355
G1 X13.577 Y9.522 E1.19846
G1 X8.371 Y14.324 F15000.000
G1 X-14.352 Y-8.398 E2.50668 F960.000
G1 X-14.671 Y-7.807 E0.05238
G1 X7.770 Y14.633 E2.47557
G1 X7.169 Y14.942 E0.05271
G1 X-14.961 Y-7.187 E2.44131
G1 X-15.251 Y-6.568 E0.05337
G1 X6.568 Y15.251 E2.40706
G1 X5.893 Y15.486 E0.05575
G1 X-15.534 Y-5.941 E2.36380
G1 X-15.745 Y-5.241 E0.05698
G1 X5.215 Y15.718 E2.31217
G1 X4.536 Y15.949 E0.05592
G1 X-15.955 Y-4.542 E2.26054
G1 X-16.165 Y-3.843 E0.05698
G1 X3.803 Y16.126 E2.20292
G1 X3.035 Y16.268 E0.06092
G1 X-16.300 Y-3.067 E2.13304
G1 X-16.417 Y-2.274 E0.06254
G1 X2.267 Y16.410 E2.06119
G1 X1.441 Y16.493 E0.06480
G1 X-16.533 Y-1.481 E1.98288
G1 X-16.555 Y-0.593 E0.06932
G1 X0.563 Y16.525 E1.88841
G1 X-0.315 Y16.557 E0.06852
G1 X-16.555 Y0.317 E1.79158
G1 X-16.527 Y1.255 E0.07319
G1 X-1.308 Y16.474 E1.67888
G1 X-2.331 Y16.361 E0.08023
G1 X-16.370 Y2.322 E1.54877
G1 X-16.213 Y3.389 E0.08412
G1 X-3.451 Y16.151 E1.40786
G1 X-4.683 Y15.829 E0.09933
G1 X-15.833 Y4.679 E1.22999
G1 X-15.364 Y6.057 F15000.000
G1 X-6.119 Y15.303 E1.01992 F960.000
G1 X-7.842 Y14.490 F15000.000
G1 X-14.561 Y7.770 E0.74130 F960.000
G1 X-11.813 Y11.428 F15000.000
G1 X-11.131 Y12.110 E0.07529 F960.000
G1 E-4.20000 F1500.00000
G1 Z1.300 F15000.000
G1 X-1.444 Y1.707 F15000.000
G1 Z0.500 F15000.000
G1 E4.20000 F1500.00000
G1 X-1.905 Y1.106 E0.02187 F3000.000
G1 X-2.117 Y0.617 E0.01538
G1 X-2.204 Y0.091 E0.01538
G1 X-2.161 Y-0.440 E0.01538
G1 X-1.990 Y-0.945 E0.01538
G1 X-1.703 Y-1.394 E0.01538
G1 X-1.315 Y-1.759 E0.01538
G1 X-0.850 Y-2.019 E0.01538
G1 X-0.495 Y-2.116 E0.01060
G1 X-0.495 Y-2.328 E0.00613 F3000.000
G1 X0.717 Y-2.052 E0.03589
G1 X1.192 Y-1.811 E0.01538
G1 X1.595 Y-1.462 E0.01538
G1 X1.901 Y-1.026 E0.01538
G1 X2.093 Y-0.529 E0.01538
G1 X2.157 Y-0.008 E0.01515
G1 X2.115 Y0.420 E0.01242
G1 X1.994 Y0.825 E0.01219
G1 X1.797 Y1.199 E0.01219
G1 X1.386 Y1.707 E0.01886
G1 X-1.384 Y1.707 E0.07995
G1 X-1.268 Y1.350 F15000.000
G1 X-1.595 Y0.923 E0.01552 F3000.000
G1 X-1.772 Y0.515 E0.01284
G1 X-1.844 Y0.076 E0.01284
G1 X-1.808 Y-0.368 E0.01284
G1 X-1.666 Y-0.789 E0.01284
G1 X-1.426 Y-1.164 E0.01284
G1 X-1.102 Y-1.469 E0.01284
G1 X-0.714 Y-1.686 E0.01284
G1 X-0.284 Y-1.803 E0.01284
G1 X-0.138 Y-1.806 E0.00421
G1 X-0.138 Y-1.881 E0.00215 F3000.000
G1 X0.595 Y-1.714 E0.02170
G1 X0.992 Y-1.513 E0.01284
G1 X1.328 Y-1.221 E0.01284
G1 X1.584 Y-0.857 E0.01284
G1 X1.744 Y-0.442 E0.01284
G1 X1.797 Y-0.003 E0.01275
G1 X1.763 Y0.351 E0.01028
G1 X1.662 Y0.689 E0.01019
G1 X1.497 Y1.001 E0.01019
G1 X1.216 Y1.350 E0.01293
G1 X-1.208 Y1.350 E0.06994
G1 X-1.630 Y1.519 F15000.000
G1 X9.587 Y14.451 F15000.000
G1 X9.036 Y14.845 E0.01957 F3600.000
G1 X6.778 Y16.006 E0.07328
G1 X4.375 Y16.826 E0.07328
G1 X1.878 Y17.287 E0.07328
G1 X-0.659 Y17.380 E0.07328
G1 X-3.183 Y17.102 E0.07328
G1 X-5.639 Y16.460 E0.07328
G1 X-7.976 Y15.467 E0.07328
G1 X-10.143 Y14.144 E0.07328
G1 X-12.095 Y12.520 E0.07328
G1 X-13.023 Y11.484 E0.04017
G1 X-13.789 Y10.629 E0.03312
G1 X-15.190 Y8.512 E0.07328
G1 X-16.268 Y6.213 E0.07328
G1 X-16.999 Y3.781 E0.07328
G1 X-17.369 Y1.269 E0.07328
G1 X-17.369 Y-1.269 E0.07328
G1 X-16.999 Y-3.781 E0.07328
G1 X-16.268 Y-6.213 E0.07328
G1 X-15.190 Y-8.512 E0.07328
G1 X-13.789 Y-10.629 E0.07328
G1 X-12.095 Y-12.520 E0.07328
G1 X-10.143 Y-14.144 E0.07328
G1 X-7.976 Y-15.467 E0.07328
G1 X-5.639 Y-16.460 E0.07328
G1 X-3.183 Y-17.102 E0.07328
G1 X-0.659 Y-17.380 E0.07328
G1 X0.731 Y-17.329 E0.04017
G1 X1.878 Y-17.287 E0.03312 F3600.000
G1 X4.375 Y-16.826 E0.07328
G1 X6.778 Y-16.006 E0.07328
G1 X9.036 Y-14.845 E0.07328
G1 X11.101 Y-13.368 E0.07328
G1 X12.929 Y-11.606 E0.07328
G1 X14.480 Y-9.596 E0.07328
G1 X15.723 Y-7.382 E0.07328
G1 X16.630 Y-5.010 E0.07328
G1 X17.182 Y-2.532 E0.07328
G1 X17.367 Y-0.000 E0.07328
G1 X17.182 Y2.532 E0.07328
G1 X16.630 Y5.010 E0.07328
G1 X15.723 Y7.382 E0.07328
G1 X14.480 Y9.596 E0.07328
G1 X12.929 Y11.606 E0.07328
G1 X11.101 Y13.368 E0.07328
G1 X9.636 Y14.416 E0.05198
G1 X9.844 Y14.706 F15000.000
G1 X9.222 Y15.151 E0.02206 F3600.000
G1 X6.918 Y16.336 E0.07479
G1 X4.465 Y17.172 E0.07479
G1 X1.917 Y17.643 E0.07479
G1 X-0.672 Y17.737 E0.07479
G1 X-3.248 Y17.454 E0.07479
G1 X-5.755 Y16.799 E0.07479
G1 X-8.140 Y15.785 E0.07479
G1 X-10.352 Y14.435 E0.07479
G1 X-12.343 Y12.778 E0.07479
G1 X-13.289 Y11.722 E0.04092
G1 X-14.073 Y10.848 E0.03387
G1 X-15.502 Y8.687 E0.07479
G1 X-16.602 Y6.341 E0.07479
G1 X-17.349 Y3.859 E0.07479
G1 X-17.726 Y1.296 E0.07479
G1 X-17.726 Y-1.296 E0.07479
G1 X-17.349 Y-3.859 E0.07479
G1 X-16.602 Y-6.341 E0.07479
G1 X-15.502 Y-8.687 E0.07479
G1 X-14.073 Y-10.848 E0.07479
G1 X-12.343 Y-12.778 E0.07479
G1 X-10.352 Y-14.435 E0.07479
G1 X-8.140 Y-15.785 E0.07479
G1 X-5.755 Y-16.799 E0.07479
G1 X-3.248 Y-17.454 E0.07479
G1 X-0.672 Y-17.737 E0.07479
G1 X0.745 Y-17.686 E0.04092
G1 X1.917 Y-17.643 E0.03387 F3600.000
G1 X4.465 Y-17.172 E0.07479
G1 X6.918 Y-16.336 E0.07479
G1 X9.222 Y-15.151 E0.07479
G1 X11.330 Y-13.643 E0.07479
G1 X13.195 Y-11.844 E0.07479
G1 X14.779 Y-9.794 E0.07479
G1 X16.047 Y-7.534 E0.07479
G1 X16.973 Y-5.114 E0.07479
G1 X17.536 Y-2.584 E0.07479
G1 X17.725 Y-0.000 E0.07479
G1 X17.536 Y2.584 E0.07479
G1 X16.973 Y5.114 E0.07479
G1 X16.047 Y7.534 E0.07479
G1 X14.779 Y9.794 E0.07479
G1 X13.195 Y11.844 E0.07479
G1 X11.330 Y13.643 E0.07479
G1 X9.893 Y14.671 E0.05100
G1 X9.480 Y14.541 F15000.000
G1 X9.184 Y14.412 F15000.000
G1 X14.429 Y9.167 E0.21551 F4800.000
G1 X15.079 Y8.008 F15000.000
G1 X7.984 Y15.104 E0.29154 F4800.000
G1 X6.938 Y15.642 F15000.000
G1 X15.632 Y6.947 E0.35724 F4800.000
G1 X15.947 Y6.124 F15000.000
G1 X6.075 Y15.996 E0.40562 F4800.000
G1 X5.303 Y16.259 F15000.000
G1 X16.262 Y5.301 E0.45025 F4800.000
G1 X12.889 Y11.216 F15000.000
G1 X11.852 Y12.252 E0.04259 F4800.000
G1 X4.532 Y16.523 F15000.000
G1 X16.500 Y4.555 E0.49172 F4800.000
G1 X16.646 Y3.901 E0.01947
G1 X3.850 Y16.696 E0.52572
G1 X3.227 Y16.811 E0.01842
G1 X16.791 Y3.247 E0.55732
G1 X16.937 Y2.593 E0.01947
G1 X2.603 Y16.927 E0.58892
G1 X1.980 Y17.042 E0.01842
G1 X17.006 Y2.016 E0.61737
G1 X17.046 Y1.467 E0.01598
G1 X1.420 Y17.093 E0.64201
G1 X0.892 Y17.112 E0.01534
G1 X17.086 Y0.919 E0.66533
G1 X17.126 Y0.370 E0.01598
G1 X0.365 Y17.132 E0.68866
G1 X-0.163 Y17.151 E0.01534
G1 X17.152 Y-0.164 E0.71141
G1 X17.118 Y-0.638 E0.01380
G1 X-0.690 Y17.170 E0.73166
G1 X-1.153 Y17.124 E0.01350
G1 X17.083 Y-1.112 E0.74924
G1 X17.048 Y-1.585 E0.01380
G1 X-1.611 Y17.074 E0.76663
G1 X-2.069 Y17.023 E0.01338
G1 X17.014 Y-2.059 E0.78402
G1 X16.979 Y-2.532 E0.01380
G1 X-2.527 Y16.973 E0.80141
G1 X-2.984 Y16.923 E0.01338
G1 X16.891 Y-2.952 E0.81659
G1 X16.798 Y-3.368 E0.01237
G1 X-3.414 Y16.844 E0.83044
G1 X-3.817 Y16.739 E0.01210
G1 X16.705 Y-3.784 E0.84319
G1 X16.613 Y-4.199 E0.01237
