;(.../Electronics/Eagle/pcb-gcode/pcb-gcode.ulp)
;(Copyright 2005 - 2012 by John Johnson)
;(See readme.txt for licensing terms.)
;(This file generated from the board:)
;(.../Electronics/wheel-opto-sensor-v2.brd)
;(Current profile is .../pcb-gcode/profiles/generic.pp  )
;(This file generated 01/02/2018 15:14)
;(Settings from pcb-machine.h)
;(spindle on time = 1000.0000)
;(  Tool Size)
;(0.1778 )
;(spindle speed = 30000.0000)
;(tool change at 0.0000 0.0000 5.0000 )
;(feed rate xy = F500.00 )
;(feed rate z  = F200.00 )
;(Z Axis Settings)
;(  High     Up        Down     Drill)
;(5.0000 	2.0000 	-0.2000 	-2.0000 )
;(Settings from pcb-defaults.h)
;(isolate min = 0.0250)
;(isolate max = 0.5000)
;(isolate step = 0.0800)
;(Generated top outlines, top drill, )
;(Unit of measure: mm)
;(Metric Mode)
G21
;(Absolute Coordinates)
G90
;S30000
G00 Z5.0000  F3000
G00 X0.0000 Y0.0000  F3000
;M03 S1
G04 P1000.000000
G00 Z2.0000  F3000
G00 X0.9388 Y1.0065  F3000
G01 Z-0.2000 F200.00 
G01 X1.0065 Y0.9388 F500.00 
G01 X1.0951 Y0.9021 
G01 X16.6532 Y0.9021 
G01 X16.6557 Y0.9031 
G01 X16.7417 Y0.9388 
G01 X16.8084 Y1.0055 
G01 X16.8462 Y1.0951 
G01 X16.8462 Y1.1909 
G01 X16.8451 Y1.1934 
G01 X16.8095 Y1.2795 
G01 X16.5697 Y1.5192 
G01 X16.2954 Y2.1815 
G01 X16.2954 Y2.8985 
G01 X16.5697 Y3.5608 
G01 X17.0767 Y4.0677 
G01 X17.7390 Y4.3421 
G01 X18.4560 Y4.3421 
G01 X19.1183 Y4.0677 
G01 X19.6252 Y3.5608 
G01 X19.8996 Y2.8985 
G01 X19.8996 Y2.1815 
G01 X19.6252 Y1.5192 
G01 X19.3855 Y1.2795 
G01 X19.3488 Y1.1909 
G01 X19.3488 Y1.0951 
G01 X19.3845 Y1.0091 
G01 X19.3855 Y1.0065 
G01 X19.4533 Y0.9388 
G01 X19.5418 Y0.9021 
G01 X30.0074 Y0.9021 
G01 X30.0960 Y0.9388 
G01 X30.1637 Y1.0065 
G01 X30.2004 Y1.0951 
G01 X30.2004 Y6.0098 
G01 X30.2034 Y6.0481 
G01 X30.2004 Y6.0574 
G01 X30.2004 Y6.0672 
G01 X30.1857 Y6.1027 
G01 X30.1738 Y6.1393 
G01 X30.1675 Y6.1467 
G01 X30.1637 Y6.1557 
G01 X30.1365 Y6.1829 
G01 X30.1116 Y6.2121 
G01 X30.1029 Y6.2166 
G01 X30.0960 Y6.2235 
G01 X30.0604 Y6.2382 
G01 X30.0262 Y6.2557 
G01 X30.0164 Y6.2564 
G01 X30.0074 Y6.2602 
G01 X29.9690 Y6.2602 
G01 X29.9306 Y6.2632 
G01 X29.9213 Y6.2602 
G01 X29.9116 Y6.2602 
G01 X29.8760 Y6.2454 
G01 X29.7190 Y6.1944 
G01 X29.5472 Y6.1672 
G01 X28.9824 Y6.1672 
G01 X29.0338 Y6.1934 
G01 X29.5451 Y6.1934 
G01 X29.7129 Y6.2200 
G01 X29.8744 Y6.2725 
G01 X30.0258 Y6.3496 
G01 X30.1632 Y6.4494 
G01 X30.2833 Y6.5695 
G01 X30.3831 Y6.7069 
G01 X30.4602 Y6.8583 
G01 X30.5127 Y7.0198 
G01 X30.5393 Y7.1876 
G01 X30.5393 Y7.3574 
G01 X30.5127 Y7.5252 
G01 X30.4602 Y7.6867 
G01 X30.3831 Y7.8381 
G01 X30.2833 Y7.9755 
G01 X30.1632 Y8.0956 
G01 X30.0258 Y8.1954 
G01 X29.8744 Y8.2725 
G01 X29.7129 Y8.3250 
G01 X29.5451 Y8.3516 
G01 X29.0338 Y8.3516 
G01 X28.9580 Y8.3902 
G01 X28.7774 Y8.4489 
G01 X28.5899 Y8.4786 
G01 X27.3231 Y8.4786 
G01 X27.3238 Y8.4870 
G01 X27.3275 Y8.4961 
G01 X27.3275 Y8.5345 
G01 X27.3305 Y8.5728 
G01 X27.3275 Y8.5821 
G01 X27.3275 Y8.5919 
G01 X27.3128 Y8.6274 
G01 X27.3009 Y8.6640 
G01 X27.2946 Y8.6714 
G01 X27.2908 Y8.6804 
G01 X27.2636 Y8.7076 
G01 X27.2387 Y8.7369 
G01 X27.2300 Y8.7413 
G01 X27.2231 Y8.7482 
G01 X27.1875 Y8.7629 
G01 X27.1533 Y8.7804 
G01 X27.1435 Y8.7811 
G01 X26.8749 Y8.8924 
G01 X26.5497 Y9.2176 
G01 X26.3737 Y9.6425 
G01 X26.3737 Y10.1025 
G01 X26.5497 Y10.5274 
G01 X26.6936 Y10.6712 
G01 X26.7302 Y10.7598 
G01 X26.7302 Y10.8556 
G01 X26.7198 Y10.8808 
G01 X26.6936 Y10.9442 
G01 X26.6258 Y11.0119 
G01 X26.5373 Y11.0486 
G01 X18.7784 Y11.0486 
G01 X18.5899 Y11.0786 
G01 X16.4451 Y11.0786 
G01 X16.2576 Y11.0489 
G01 X15.0014 Y11.0486 
G01 X14.9128 Y11.0119 
G01 X14.8451 Y10.9442 
G01 X14.8084 Y10.8556 
G01 X14.8084 Y8.9634 
G01 X14.7031 Y8.8581 
G01 X14.6664 Y8.7696 
G01 X14.6664 Y8.0579 
G01 X14.7031 Y7.9694 
G01 X14.7708 Y7.9016 
G01 X14.8084 Y7.8641 
G01 X14.8084 Y7.3995 
G01 X14.8384 Y7.3272 
G01 X14.8451 Y7.3109 
G01 X14.9118 Y7.2442 
G01 X14.9554 Y7.2255 
G01 X15.0014 Y7.2065 
G01 X15.0972 Y7.2065 
G01 X15.1695 Y7.2364 
G01 X15.1858 Y7.2432 
G01 X15.2525 Y7.3099 
G01 X15.2745 Y7.3615 
G01 X15.2825 Y7.3809 
G01 X15.6000 Y7.6984 
G01 X15.7966 Y7.8950 
G01 X16.0535 Y8.0014 
G01 X16.5719 Y8.0014 
G01 X16.5744 Y8.0024 
G01 X16.6604 Y8.0381 
G01 X16.8749 Y8.2526 
G01 X17.1435 Y8.3639 
G01 X17.1533 Y8.3646 
G01 X17.1875 Y8.3821 
G01 X17.2231 Y8.3968 
G01 X17.2300 Y8.4037 
G01 X17.2387 Y8.4081 
G01 X17.2636 Y8.4374 
G01 X17.2908 Y8.4646 
G01 X17.2946 Y8.4736 
G01 X17.3009 Y8.4810 
G01 X17.3128 Y8.5176 
G01 X17.3275 Y8.5531 
G01 X17.3275 Y8.5629 
G01 X17.3305 Y8.5722 
G01 X17.3275 Y8.6105 
G01 X17.3275 Y8.6364 
G01 X19.6625 Y8.6364 
G01 X19.6625 Y8.6105 
G01 X19.6595 Y8.5722 
G01 X19.6625 Y8.5629 
G01 X19.6625 Y8.5531 
G01 X19.6772 Y8.5176 
G01 X19.6891 Y8.4810 
G01 X19.6954 Y8.4736 
G01 X19.6992 Y8.4646 
G01 X19.7263 Y8.4374 
G01 X19.7513 Y8.4081 
G01 X19.7600 Y8.4037 
G01 X19.7669 Y8.3968 
G01 X19.8024 Y8.3821 
G01 X19.8367 Y8.3646 
G01 X19.8464 Y8.3639 
G01 X20.1151 Y8.2526 
G01 X20.4403 Y7.9274 
G01 X20.6163 Y7.5025 
G01 X20.6163 Y7.0425 
G01 X20.4403 Y6.6176 
G01 X20.1151 Y6.2924 
G01 X19.6902 Y6.1164 
G01 X17.2998 Y6.1164 
G01 X16.8627 Y6.2975 
G01 X16.7669 Y6.2975 
G01 X16.7417 Y6.2870 
G01 X16.6783 Y6.2608 
G01 X16.6106 Y6.1930 
G01 X16.5739 Y6.1045 
G01 X16.5739 Y5.5760 
G01 X16.4675 Y5.3191 
G01 X16.2031 Y5.0547 
G01 X15.0009 Y3.8525 
G01 X14.9531 Y3.8327 
G01 X14.9128 Y3.8160 
G01 X14.8451 Y3.7483 
G01 X14.8351 Y3.7241 
G01 X14.8084 Y3.6597 
G01 X14.8084 Y3.5659 
G01 X14.6966 Y3.4541 
G01 X13.2384 Y3.4541 
G01 X13.1540 Y3.5386 
G01 X13.0654 Y3.5752 
G01 X12.9696 Y3.5752 
G01 X12.9340 Y3.5605 
G01 X12.8810 Y3.5386 
G01 X12.8133 Y3.4708 
G01 X12.7966 Y3.4541 
G01 X11.3131 Y3.4541 
G01 X11.3081 Y3.4520 
G01 X11.2515 Y3.4286 
G01 X10.5214 Y3.4286 
G01 X10.4328 Y3.3919 
G01 X10.3651 Y3.3242 
G01 X10.3284 Y3.2356 
G01 X10.3284 Y3.1484 
G01 X10.2166 Y3.0366 
G01 X8.4584 Y3.0366 
G01 X8.3466 Y3.1484 
G01 X8.3466 Y5.1066 
G01 X8.4584 Y5.2184 
G01 X10.2166 Y5.2184 
G01 X10.3284 Y5.1066 
G01 X10.3284 Y5.0194 
G01 X10.3651 Y4.9308 
G01 X10.4328 Y4.8631 
G01 X10.5214 Y4.8264 
G01 X10.7711 Y4.8264 
G01 X10.8597 Y4.8631 
G01 X10.9274 Y4.9308 
G01 X11.0341 Y5.0375 
G01 X11.0819 Y5.0573 
G01 X11.1222 Y5.0740 
G01 X11.1899 Y5.1417 
G01 X11.1999 Y5.1659 
G01 X11.2266 Y5.2303 
G01 X11.2266 Y5.3241 
G01 X11.3319 Y5.4294 
G01 X11.3686 Y5.5179 
G01 X11.3686 Y5.9121 
G01 X11.3319 Y6.0006 
G01 X11.2642 Y6.0684 
G01 X11.2175 Y6.1150 
G01 X11.1899 Y6.1817 
G01 X11.1222 Y6.2494 
G01 X11.0336 Y6.2861 
G01 X10.6925 Y6.2861 
G01 X10.6040 Y6.2494 
G01 X10.5362 Y6.1817 
G01 X10.2518 Y5.8972 
G01 X9.7802 Y5.7019 
G01 X9.2698 Y5.7019 
G01 X8.7982 Y5.8972 
G01 X8.4372 Y6.2582 
G01 X8.2419 Y6.7298 
G01 X8.2419 Y7.2402 
G01 X8.4372 Y7.7118 
G01 X8.5367 Y7.8112 
G01 X8.5733 Y7.8998 
G01 X8.5733 Y7.9956 
G01 X8.5522 Y8.0467 
G01 X8.5367 Y8.0842 
G01 X8.4689 Y8.1519 
G01 X8.3804 Y8.1886 
G01 X7.1054 Y8.1886 
G01 X7.0169 Y8.1519 
G01 X6.9491 Y8.0842 
G01 X6.9030 Y8.0380 
G01 X6.8663 Y7.9495 
G01 X6.8663 Y7.8537 
G01 X6.9030 Y7.7651 
G01 X6.9446 Y7.7235 
G01 X6.9630 Y7.6916 
G01 X6.9726 Y7.6559 
G01 X6.9726 Y7.3554 
G01 X6.9464 Y7.3554 
G01 X6.9464 Y7.6602 
G01 X6.9291 Y7.7020 
G01 X6.8970 Y7.7341 
G01 X6.8552 Y7.7514 
G01 X5.2098 Y7.7514 
G01 X5.1680 Y7.7341 
G01 X5.1359 Y7.7020 
G01 X5.1186 Y7.6602 
G01 X5.1186 Y7.3554 
G01 X5.0924 Y7.3554 
G01 X5.0924 Y7.6978 
G01 X5.0914 Y7.7004 
G01 X5.0557 Y7.7864 
G01 X4.9880 Y7.8541 
G01 X4.9261 Y7.8798 
G01 X4.8994 Y7.8908 
G01 X4.8036 Y7.8908 
G01 X4.8011 Y7.8898 
G01 X4.7150 Y7.8541 
G01 X4.5234 Y7.6625 
G01 X4.2665 Y7.5561 
G01 X4.0026 Y7.5561 
G01 X3.9140 Y7.5194 
G01 X3.8463 Y7.4517 
G01 X3.8418 Y7.4472 
G01 X3.4915 Y7.3021 
G01 X1.5884 Y7.3021 
G01 X1.1909 Y7.4668 
G01 X1.0951 Y7.4668 
G01 X1.0065 Y7.4301 
G01 X0.9388 Y7.3623 
G01 X0.9021 Y7.2738 
G01 X0.9021 Y6.6854 
G01 X0.8976 Y6.6568 
G01 X0.9021 Y6.6379 
G01 X0.9021 Y6.6185 
G01 X0.9132 Y6.5918 
G01 X0.9199 Y6.5636 
G01 X0.9314 Y6.5479 
G01 X0.9388 Y6.5300 
G01 X0.9593 Y6.5095 
G01 X0.9763 Y6.4861 
G01 X0.9928 Y6.4760 
G01 X1.0065 Y6.4622 
G01 X1.0333 Y6.4512 
G01 X1.0580 Y6.4360 
G01 X1.0772 Y6.4330 
G01 X1.0951 Y6.4256 
G01 X1.1240 Y6.4256 
G01 X1.1527 Y6.4210 
G01 X1.1715 Y6.4256 
G01 X1.1909 Y6.4256 
G01 X1.2177 Y6.4366 
G01 X1.2458 Y6.4434 
G01 X1.2615 Y6.4548 
G01 X1.2795 Y6.4622 
G01 X1.2999 Y6.4827 
G01 X1.3052 Y6.4866 
G01 X1.4317 Y6.5510 
G01 X1.5668 Y6.5949 
G01 X1.7070 Y6.6171 
G01 X2.1721 Y6.6171 
G01 X2.1721 Y6.5909 
G01 X1.6917 Y6.5909 
G01 X1.5225 Y6.5572 
G01 X1.3631 Y6.4912 
G01 X1.2196 Y6.3954 
G01 X1.0976 Y6.2734 
G01 X1.0018 Y6.1299 
G01 X0.9358 Y5.9705 
G01 X0.9021 Y5.8013 
G01 X0.9021 Y5.6287 
G01 X0.9358 Y5.4595 
G01 X1.0018 Y5.3001 
G01 X1.0976 Y5.1566 
G01 X1.2196 Y5.0346 
G01 X1.3631 Y4.9388 
G01 X1.5225 Y4.8728 
G01 X1.6917 Y4.8391 
G01 X2.1721 Y4.8391 
G01 X2.1721 Y4.8129 
G01 X1.7070 Y4.8129 
G01 X1.5668 Y4.8351 
G01 X1.4317 Y4.8790 
G01 X1.3052 Y4.9434 
G01 X1.2999 Y4.9473 
G01 X1.2795 Y4.9678 
G01 X1.2615 Y4.9752 
G01 X1.2458 Y4.9866 
G01 X1.2177 Y4.9933 
G01 X1.1909 Y5.0044 
G01 X1.1715 Y5.0044 
G01 X1.1527 Y5.0090 
G01 X1.1240 Y5.0044 
G01 X1.0951 Y5.0044 
G01 X1.0772 Y4.9970 
G01 X1.0580 Y4.9940 
G01 X1.0333 Y4.9788 
G01 X1.0065 Y4.9678 
G01 X0.9928 Y4.9540 
G01 X0.9763 Y4.9439 
G01 X0.9593 Y4.9205 
G01 X0.9388 Y4.9000 
G01 X0.9314 Y4.8821 
G01 X0.9199 Y4.8664 
G01 X0.9132 Y4.8382 
G01 X0.9021 Y4.8115 
G01 X0.9021 Y4.7920 
G01 X0.8976 Y4.7732 
G01 X0.9021 Y4.7446 
G01 X0.9021 Y1.0951 
G01 X0.9388 Y1.0065 
G00 Z2.0000  F3000
G00 X2.9079 Y4.8129  F3000
G01 Z-0.2000 F200.00 
G01 X2.9079 Y4.8391 F500.00 
G01 X3.3883 Y4.8391 
G01 X3.5575 Y4.8728 
G01 X3.7169 Y4.9388 
G01 X3.8604 Y5.0346 
G01 X3.9824 Y5.1566 
G01 X4.0782 Y5.3001 
G01 X4.0977 Y5.3471 
G01 X4.1270 Y5.3471 
G01 X4.0735 Y5.2422 
G01 X3.9901 Y5.1273 
G01 X3.8897 Y5.0269 
G01 X3.7748 Y4.9435 
G01 X3.6483 Y4.8790 
G01 X3.5132 Y4.8351 
G01 X3.3730 Y4.8129 
G01 X2.9079 Y4.8129 
G00 Z2.0000  F3000
G00 X2.9079 Y6.5909  F3000
G01 Z-0.2000 F200.00 
G01 X2.9079 Y6.6171 F500.00 
G01 X3.3730 Y6.6171 
G01 X3.5132 Y6.5949 
G01 X3.6483 Y6.5510 
G01 X3.7748 Y6.4865 
G01 X3.8897 Y6.4031 
G01 X3.9901 Y6.3027 
G01 X4.0735 Y6.1878 
G01 X4.1270 Y6.0829 
G01 X4.0977 Y6.0829 
G01 X4.0782 Y6.1299 
G01 X3.9824 Y6.2734 
G01 X3.8604 Y6.3954 
G01 X3.7169 Y6.4912 
G01 X3.5575 Y6.5572 
G01 X3.3883 Y6.5909 
G01 X2.9079 Y6.5909 
G00 Z2.0000  F3000
G00 X3.3883 Y7.3791  F3000
G01 Z-0.2000 F200.00 
G01 X3.5575 Y7.4128 F500.00 
G01 X3.7169 Y7.4788 
G01 X3.8604 Y7.5746 
G01 X3.9188 Y7.6331 
G01 X4.1887 Y7.6331 
G01 X4.3089 Y7.6570 
G01 X4.4221 Y7.7039 
G01 X4.5239 Y7.7719 
G01 X4.6106 Y7.8586 
G01 X5.0176 Y8.2656 
G01 X5.1186 Y8.2656 
G01 X5.1186 Y8.2148 
G01 X5.1359 Y8.1730 
G01 X5.1680 Y8.1409 
G01 X5.2098 Y8.1236 
G01 X6.8552 Y8.1236 
G01 X6.8970 Y8.1409 
G01 X6.9291 Y8.1730 
G01 X6.9464 Y8.2148 
G01 X6.9464 Y8.2656 
G01 X8.6312 Y8.2656 
G01 X8.7514 Y8.2895 
G01 X8.8646 Y8.3364 
G01 X8.9664 Y8.4044 
G01 X8.9689 Y8.4069 
G01 X9.0556 Y8.4936 
G01 X9.1236 Y8.5954 
G01 X9.1705 Y8.7086 
G01 X9.1944 Y8.8287 
G01 X9.1944 Y12.0861 
G01 X9.4652 Y12.0861 
G01 X9.5070 Y12.1034 
G01 X9.5391 Y12.1355 
G01 X9.5564 Y12.1773 
G01 X9.5564 Y13.2227 
G01 X9.5391 Y13.2645 
G01 X9.5070 Y13.2966 
G01 X9.4652 Y13.3139 
G01 X8.8440 Y13.3139 
G01 X8.8038 Y13.3219 
G01 X8.5126 Y13.3219 
G01 X8.4206 Y13.4139 
G01 X8.3339 Y13.5006 
G01 X8.2321 Y13.5686 
G01 X8.1189 Y13.6155 
G01 X7.9988 Y13.6394 
G01 X6.9464 Y13.6394 
G01 X6.9464 Y13.6877 
G01 X6.9291 Y13.7295 
G01 X6.8970 Y13.7616 
G01 X6.8552 Y13.7789 
G01 X5.2098 Y13.7789 
G01 X5.1680 Y13.7616 
G01 X5.1359 Y13.7295 
G01 X5.1186 Y13.6877 
G01 X5.1186 Y12.3423 
G01 X5.1359 Y12.3005 
G01 X5.1680 Y12.2684 
G01 X5.2098 Y12.2511 
G01 X6.8552 Y12.2511 
G01 X6.8970 Y12.2684 
G01 X6.9291 Y12.3005 
G01 X6.9464 Y12.3423 
G01 X6.9464 Y12.3956 
G01 X7.6799 Y12.3956 
G01 X7.8586 Y12.2169 
G01 X7.9327 Y12.1674 
G01 X7.9459 Y12.1355 
G01 X7.9506 Y12.1308 
G01 X7.9506 Y9.5094 
G01 X6.9464 Y9.5094 
G01 X6.9464 Y9.5602 
G01 X6.9291 Y9.6020 
G01 X6.8970 Y9.6341 
G01 X6.8552 Y9.6514 
G01 X5.2098 Y9.6514 
G01 X5.1680 Y9.6341 
G01 X5.1359 Y9.6020 
G01 X5.1186 Y9.5602 
G01 X5.1186 Y9.5094 
G01 X4.6987 Y9.5094 
G01 X4.5786 Y9.4855 
G01 X4.4654 Y9.4386 
G01 X4.3636 Y9.3706 
G01 X3.8944 Y8.9014 
G01 X3.8604 Y8.9354 
G01 X3.7169 Y9.0312 
G01 X3.5575 Y9.0972 
G01 X3.3883 Y9.1309 
G01 X1.6917 Y9.1309 
G01 X1.5225 Y9.0972 
G01 X1.3631 Y9.0312 
G01 X1.2196 Y8.9354 
G01 X1.0976 Y8.8134 
G01 X1.0018 Y8.6699 
G01 X0.9358 Y8.5105 
G01 X0.9021 Y8.3413 
G01 X0.9021 Y8.1687 
G01 X0.9358 Y7.9995 
G01 X1.0018 Y7.8401 
G01 X1.0976 Y7.6966 
G01 X1.2196 Y7.5746 
G01 X1.3631 Y7.4788 
G01 X1.5225 Y7.4128 
G01 X1.6917 Y7.3791 
G01 X3.3883 Y7.3791 
G00 Z2.0000  F3000
G00 X5.0924 Y6.6196  F3000
G01 Z-0.2000 F200.00 
G01 X5.1186 Y6.6196 F500.00 
G01 X5.1186 Y6.3148 
G01 X5.1359 Y6.2730 
G01 X5.1680 Y6.2409 
G01 X5.2098 Y6.2236 
G01 X5.6646 Y6.2236 
G01 X5.6646 Y6.1974 
G01 X5.2141 Y6.1974 
G01 X5.1784 Y6.2069 
G01 X5.1465 Y6.2254 
G01 X5.1204 Y6.2515 
G01 X5.1019 Y6.2834 
G01 X5.0924 Y6.3191 
G01 X5.0924 Y6.6196 
G00 Z2.0000  F3000
G00 X6.4004 Y6.2236  F3000
G01 Z-0.2000 F200.00 
G01 X6.8552 Y6.2236 F500.00 
G01 X6.8970 Y6.2409 
G01 X6.9291 Y6.2730 
G01 X6.9464 Y6.3148 
G01 X6.9464 Y6.6196 
G01 X6.9726 Y6.6196 
G01 X6.9726 Y6.3190 
G01 X6.9630 Y6.2834 
G01 X6.9446 Y6.2515 
G01 X6.9185 Y6.2254 
G01 X6.8866 Y6.2069 
G01 X6.8509 Y6.1974 
G01 X6.4004 Y6.1974 
G01 X6.4004 Y6.2236 
G00 Z2.0000  F3000
G00 X6.1696 Y5.1676  F3000
G01 Z-0.2000 F200.00 
G01 X6.1696 Y5.1414 F500.00 
G01 X5.7148 Y5.1414 
G01 X5.6730 Y5.1241 
G01 X5.6409 Y5.0920 
G01 X5.6236 Y5.0502 
G01 X5.6236 Y4.4954 
G01 X5.5974 Y4.4954 
G01 X5.5974 Y5.0459 
G01 X5.6069 Y5.0816 
G01 X5.6254 Y5.1135 
G01 X5.6515 Y5.1396 
G01 X5.6834 Y5.1580 
G01 X5.7191 Y5.1676 
G01 X6.1696 Y5.1676 
G00 Z2.0000  F3000
G00 X6.9054 Y5.1676  F3000
G01 Z-0.2000 F200.00 
G01 X7.3559 Y5.1676 F500.00 
G01 X7.3916 Y5.1580 
G01 X7.4235 Y5.1396 
G01 X7.4496 Y5.1135 
G01 X7.4680 Y5.0816 
G01 X7.4776 Y5.0459 
G01 X7.4776 Y4.4954 
G01 X7.4514 Y4.4954 
G01 X7.4514 Y5.0502 
G01 X7.4341 Y5.0920 
G01 X7.4020 Y5.1241 
G01 X7.3602 Y5.1414 
G01 X6.9054 Y5.1414 
G01 X6.9054 Y5.1676 
G00 Z2.0000  F3000
G00 X8.4730 Y5.1241  F3000
G01 Z-0.2000 F200.00 
G01 X8.4409 Y5.0920 F500.00 
G01 X8.4236 Y5.0502 
G01 X8.4236 Y3.2048 
G01 X8.4409 Y3.1630 
G01 X8.4730 Y3.1309 
G01 X8.5148 Y3.1136 
G01 X10.1602 Y3.1136 
G01 X10.2020 Y3.1309 
G01 X10.2341 Y3.1630 
G01 X10.2514 Y3.2048 
G01 X10.2514 Y3.5056 
G01 X11.1738 Y3.5056 
G01 X11.2939 Y3.5295 
G01 X11.3491 Y3.5524 
G01 X11.3530 Y3.5484 
G01 X11.3948 Y3.5311 
G01 X12.7402 Y3.5311 
G01 X12.7820 Y3.5484 
G01 X12.8141 Y3.5805 
G01 X12.8314 Y3.6223 
G01 X12.8314 Y5.2677 
G01 X12.8141 Y5.3095 
G01 X12.7820 Y5.3416 
G01 X12.7402 Y5.3589 
G01 X12.6894 Y5.3589 
G01 X12.6894 Y6.0711 
G01 X12.7402 Y6.0711 
G01 X12.7820 Y6.0884 
G01 X12.8141 Y6.1205 
G01 X12.8314 Y6.1623 
G01 X12.8314 Y7.8077 
G01 X12.8141 Y7.8495 
G01 X12.7820 Y7.8816 
G01 X12.7402 Y7.8989 
G01 X11.3948 Y7.8989 
G01 X11.3530 Y7.8816 
G01 X11.3209 Y7.8495 
G01 X11.3036 Y7.8077 
G01 X11.3036 Y7.6069 
G01 X10.5618 Y7.6069 
G01 X10.5565 Y7.6171 
G01 X10.4450 Y7.7707 
G01 X10.3107 Y7.9050 
G01 X10.1571 Y8.0165 
G01 X9.9880 Y8.1027 
G01 X9.8074 Y8.1614 
G01 X9.6199 Y8.1911 
G01 X9.4301 Y8.1911 
G01 X9.2426 Y8.1614 
G01 X9.0620 Y8.1027 
G01 X8.8929 Y8.0165 
G01 X8.7393 Y7.9050 
G01 X8.6050 Y7.7707 
G01 X8.4934 Y7.6171 
G01 X8.4073 Y7.4480 
G01 X8.3486 Y7.2674 
G01 X8.3189 Y7.0799 
G01 X8.3189 Y6.8901 
G01 X8.3486 Y6.7026 
G01 X8.4073 Y6.5220 
G01 X8.4934 Y6.3529 
G01 X8.6050 Y6.1993 
G01 X8.7393 Y6.0650 
G01 X8.8929 Y5.9535 
G01 X9.0620 Y5.8673 
G01 X9.2426 Y5.8086 
G01 X9.4301 Y5.7789 
G01 X9.6199 Y5.7789 
G01 X9.8074 Y5.8086 
G01 X9.9880 Y5.8673 
G01 X10.1571 Y5.9535 
G01 X10.3107 Y6.0650 
G01 X10.4450 Y6.1993 
G01 X10.5565 Y6.3529 
G01 X10.5618 Y6.3631 
G01 X11.3036 Y6.3631 
G01 X11.3036 Y6.1623 
G01 X11.3209 Y6.1205 
G01 X11.3530 Y6.0884 
G01 X11.3948 Y6.0711 
G01 X11.4456 Y6.0711 
G01 X11.4456 Y5.3589 
G01 X11.3948 Y5.3589 
G01 X11.3530 Y5.3416 
G01 X11.3209 Y5.3095 
G01 X11.3036 Y5.2677 
G01 X11.3036 Y5.0539 
G01 X11.2486 Y5.0430 
G01 X11.1354 Y4.9961 
G01 X11.0336 Y4.9281 
G01 X10.8549 Y4.7494 
G01 X10.2514 Y4.7494 
G01 X10.2514 Y5.0502 
G01 X10.2341 Y5.0920 
G01 X10.2020 Y5.1241 
G01 X10.1602 Y5.1414 
G01 X8.5148 Y5.1414 
G01 X8.4730 Y5.1241 
G00 Z2.0000  F3000
G00 X7.4776 Y3.7596  F3000
G01 Z-0.2000 F200.00 
G01 X7.4776 Y3.2091 F500.00 
G01 X7.4680 Y3.1734 
G01 X7.4496 Y3.1415 
G01 X7.4235 Y3.1154 
G01 X7.3916 Y3.0969 
G01 X7.3559 Y3.0874 
G01 X6.9054 Y3.0874 
G01 X6.9054 Y3.1136 
G01 X7.3602 Y3.1136 
G01 X7.4020 Y3.1309 
G01 X7.4341 Y3.1630 
G01 X7.4514 Y3.2048 
G01 X7.4514 Y3.7596 
G01 X7.4776 Y3.7596 
G00 Z2.0000  F3000
G00 X5.6236 Y3.7596  F3000
G01 Z-0.2000 F200.00 
G01 X5.6236 Y3.2048 F500.00 
G01 X5.6409 Y3.1630 
G01 X5.6730 Y3.1309 
G01 X5.7148 Y3.1136 
G01 X6.1696 Y3.1136 
G01 X6.1696 Y3.0874 
G01 X5.7191 Y3.0874 
G01 X5.6834 Y3.0969 
G01 X5.6515 Y3.1154 
G01 X5.6254 Y3.1415 
G01 X5.6069 Y3.1734 
G01 X5.5974 Y3.2091 
G01 X5.5974 Y3.7596 
G01 X5.6236 Y3.7596 
G00 Z2.0000  F3000
G00 X5.2098 Y10.3511  F3000
G01 Z-0.2000 F200.00 
G01 X6.8552 Y10.3511 F500.00 
G01 X6.8970 Y10.3684 
G01 X6.9291 Y10.4005 
G01 X6.9464 Y10.4423 
G01 X6.9464 Y11.7877 
G01 X6.9291 Y11.8295 
G01 X6.8970 Y11.8616 
G01 X6.8552 Y11.8789 
G01 X5.2098 Y11.8789 
G01 X5.1680 Y11.8616 
G01 X5.1359 Y11.8295 
G01 X5.1186 Y11.7877 
G01 X5.1186 Y11.7344 
G01 X4.0662 Y11.7344 
G01 X3.9461 Y11.7105 
G01 X3.8329 Y11.6636 
G01 X3.7311 Y11.5956 
G01 X3.7097 Y11.5742 
G01 X3.5575 Y11.6372 
G01 X3.3883 Y11.6709 
G01 X3.1619 Y11.6709 
G01 X3.1619 Y14.3006 
G01 X7.2182 Y14.3006 
G01 X7.2234 Y14.2904 
G01 X7.3350 Y14.1368 
G01 X7.4693 Y14.0025 
G01 X7.6229 Y13.8910 
G01 X7.7920 Y13.8048 
G01 X7.9726 Y13.7461 
G01 X8.1601 Y13.7164 
G01 X8.3499 Y13.7164 
G01 X8.5374 Y13.7461 
G01 X8.7180 Y13.8048 
G01 X8.8871 Y13.8910 
G01 X9.0407 Y14.0025 
G01 X9.1750 Y14.1368 
G01 X9.2865 Y14.2904 
G01 X9.3727 Y14.4595 
G01 X9.4314 Y14.6401 
G01 X9.4611 Y14.8276 
G01 X9.4611 Y15.0174 
G01 X9.4314 Y15.2049 
G01 X9.3727 Y15.3855 
G01 X9.2865 Y15.5546 
G01 X9.1750 Y15.7082 
G01 X9.0407 Y15.8425 
G01 X8.8871 Y15.9540 
G01 X8.7180 Y16.0402 
G01 X8.5374 Y16.0989 
G01 X8.3499 Y16.1286 
G01 X8.1601 Y16.1286 
G01 X7.9726 Y16.0989 
G01 X7.7920 Y16.0402 
G01 X7.6229 Y15.9540 
G01 X7.4693 Y15.8425 
G01 X7.3350 Y15.7082 
G01 X7.2234 Y15.5546 
G01 X7.2182 Y15.5444 
G01 X2.7962 Y15.5444 
G01 X2.6761 Y15.5205 
G01 X2.5629 Y15.4736 
G01 X2.4611 Y15.4056 
G01 X2.1436 Y15.0881 
G01 X2.0569 Y15.0014 
G01 X1.9889 Y14.8996 
G01 X1.9420 Y14.7864 
G01 X1.9181 Y14.6662 
G01 X1.9181 Y11.6709 
G01 X1.6917 Y11.6709 
G01 X1.5225 Y11.6372 
G01 X1.3631 Y11.5712 
G01 X1.2196 Y11.4754 
G01 X1.0976 Y11.3534 
G01 X1.0018 Y11.2099 
G01 X0.9358 Y11.0505 
G01 X0.9021 Y10.8813 
G01 X0.9021 Y10.7087 
G01 X0.9358 Y10.5395 
G01 X1.0018 Y10.3801 
G01 X1.0976 Y10.2366 
G01 X1.2196 Y10.1146 
G01 X1.3631 Y10.0188 
G01 X1.5225 Y9.9528 
G01 X1.6917 Y9.9191 
G01 X3.3883 Y9.9191 
G01 X3.5575 Y9.9528 
G01 X3.7169 Y10.0188 
G01 X3.8604 Y10.1146 
G01 X3.9306 Y10.1849 
G01 X3.9914 Y10.1970 
G01 X4.1046 Y10.2439 
G01 X4.2064 Y10.3119 
G01 X4.3851 Y10.4906 
G01 X5.1186 Y10.4906 
G01 X5.1186 Y10.4423 
G01 X5.1359 Y10.4005 
G01 X5.1680 Y10.3684 
G01 X5.2098 Y10.3511 
G00 Z2.0000  F3000
G00 X10.4594 Y10.5711  F3000
G01 Z-0.2000 F200.00 
G01 X11.3036 Y9.7269 F500.00 
G01 X11.3036 Y9.0198 
G01 X11.3209 Y8.9780 
G01 X11.3530 Y8.9459 
G01 X11.3948 Y8.9286 
G01 X12.7402 Y8.9286 
G01 X12.7820 Y8.9459 
G01 X12.8141 Y8.9780 
G01 X12.8314 Y9.0198 
G01 X12.8314 Y10.6652 
G01 X12.8141 Y10.7070 
G01 X12.7820 Y10.7391 
G01 X12.7402 Y10.7564 
G01 X12.0331 Y10.7564 
G01 X11.6534 Y11.1361 
G01 X11.6652 Y11.1361 
G01 X11.7070 Y11.1534 
G01 X11.7391 Y11.1855 
G01 X11.7564 Y11.2273 
G01 X11.7564 Y12.2727 
G01 X11.7391 Y12.3145 
G01 X11.7070 Y12.3466 
G01 X11.6652 Y12.3639 
G01 X11.0440 Y12.3639 
G01 X11.0038 Y12.3719 
G01 X10.8812 Y12.3719 
G01 X10.8410 Y12.3639 
G01 X10.2198 Y12.3639 
G01 X10.1780 Y12.3466 
G01 X10.1459 Y12.3145 
G01 X10.1286 Y12.2727 
G01 X10.1286 Y11.2273 
G01 X10.1459 Y11.1855 
G01 X10.1780 Y11.1534 
G01 X10.2198 Y11.1361 
G01 X10.3206 Y11.1361 
G01 X10.3206 Y10.9062 
G01 X10.3445 Y10.7861 
G01 X10.3914 Y10.6729 
G01 X10.4594 Y10.5711 
G00 Z2.0000  F3000
G00 X11.8701 Y11.0283  F3000
G01 Z-0.2000 F200.00 
G01 X11.9378 Y10.9606 F500.00 
G01 X12.0283 Y10.8701 
G01 X12.1169 Y10.8334 
G01 X12.7966 Y10.8334 
G01 X12.8810 Y10.7489 
G01 X12.9696 Y10.7123 
G01 X13.0654 Y10.7123 
G01 X13.1010 Y10.7270 
G01 X13.1540 Y10.7489 
G01 X13.2217 Y10.8167 
G01 X13.2344 Y10.8294 
G01 X13.2711 Y10.9179 
G01 X13.2711 Y11.8865 
G01 X13.3775 Y12.1434 
G01 X13.5741 Y12.3400 
G01 X13.8310 Y12.4464 
G01 X16.5389 Y12.4464 
G01 X16.6274 Y12.4831 
G01 X16.6941 Y12.5498 
G01 X16.7162 Y12.6017 
G01 X16.7319 Y12.6394 
G01 X16.7319 Y12.7352 
G01 X16.6952 Y12.8238 
G01 X16.5697 Y12.9492 
G01 X16.2954 Y13.6115 
G01 X16.2954 Y14.3285 
G01 X16.5697 Y14.9908 
G01 X16.7995 Y15.2205 
G01 X16.8362 Y15.3091 
G01 X16.8362 Y15.4049 
G01 X16.8263 Y15.4286 
G01 X16.7995 Y15.4935 
G01 X16.7317 Y15.5612 
G01 X16.6432 Y15.5979 
G01 X14.3378 Y15.5979 
G01 X14.2846 Y15.6365 
G01 X14.1155 Y15.7227 
G01 X13.9349 Y15.7814 
G01 X13.7474 Y15.8111 
G01 X13.5576 Y15.8111 
G01 X13.3701 Y15.7814 
G01 X13.1895 Y15.7227 
G01 X13.0204 Y15.6365 
G01 X12.9672 Y15.5979 
G01 X9.6767 Y15.5979 
G01 X9.6741 Y15.5969 
G01 X9.5881 Y15.5612 
G01 X9.5204 Y15.4935 
G01 X9.4947 Y15.4316 
G01 X9.4837 Y15.4049 
G01 X9.4837 Y15.3091 
G01 X9.4854 Y15.3049 
G01 X9.5381 Y15.1777 
G01 X9.5381 Y14.6673 
G01 X9.3428 Y14.1957 
G01 X8.9153 Y13.7683 
G01 X8.8787 Y13.6797 
G01 X8.8787 Y13.5839 
G01 X8.9143 Y13.4979 
G01 X8.9153 Y13.4953 
G01 X8.9831 Y13.4276 
G01 X9.0716 Y13.3909 
G01 X9.5216 Y13.3909 
G01 X9.6946 Y13.2179 
G01 X9.6896 Y13.2140 
G01 X9.6815 Y13.2000 
G01 X9.6701 Y13.1885 
G01 X9.6578 Y13.1589 
G01 X9.6417 Y13.1311 
G01 X9.6396 Y13.1150 
G01 X9.6334 Y13.1000 
G01 X9.6334 Y13.0679 
G01 X9.6292 Y13.0360 
G01 X9.6334 Y13.0204 
G01 X9.6334 Y12.4445 
G01 X9.6344 Y12.4420 
G01 X9.6701 Y12.3560 
G01 X9.7378 Y12.2882 
G01 X9.7997 Y12.2626 
G01 X9.8264 Y12.2515 
G01 X9.9222 Y12.2515 
G01 X9.9247 Y12.2526 
G01 X10.0108 Y12.2882 
G01 X10.1634 Y12.4409 
G01 X10.7842 Y12.4409 
G01 X10.8035 Y12.4489 
G01 X11.0815 Y12.4489 
G01 X11.1008 Y12.4409 
G01 X11.7216 Y12.4409 
G01 X11.8334 Y12.3291 
G01 X11.8334 Y11.1169 
G01 X11.8701 Y11.0283 
G00 Z2.0000  F3000
G00 X13.2530 Y10.7391  F3000
G01 Z-0.2000 F200.00 
G01 X13.2209 Y10.7070 F500.00 
G01 X13.2036 Y10.6652 
G01 X13.2036 Y9.0198 
G01 X13.2209 Y8.9780 
G01 X13.2530 Y8.9459 
G01 X13.2948 Y8.9286 
G01 X13.3456 Y8.9286 
G01 X13.3456 Y7.8989 
G01 X13.2948 Y7.8989 
G01 X13.2530 Y7.8816 
G01 X13.2209 Y7.8495 
G01 X13.2036 Y7.8077 
G01 X13.2036 Y6.1623 
G01 X13.2209 Y6.1205 
G01 X13.2530 Y6.0884 
G01 X13.2948 Y6.0711 
G01 X14.6402 Y6.0711 
G01 X14.6820 Y6.0884 
G01 X14.7141 Y6.1205 
G01 X14.7314 Y6.1623 
G01 X14.7314 Y7.8077 
G01 X14.7141 Y7.8495 
G01 X14.6820 Y7.8816 
G01 X14.6402 Y7.8989 
G01 X14.5894 Y7.8989 
G01 X14.5894 Y8.9286 
G01 X14.6402 Y8.9286 
G01 X14.6820 Y8.9459 
G01 X14.7141 Y8.9780 
G01 X14.7314 Y9.0198 
G01 X14.7314 Y10.6652 
G01 X14.7141 Y10.7070 
G01 X14.6820 Y10.7391 
G01 X14.6402 Y10.7564 
G01 X14.5919 Y10.7564 
G01 X14.5919 Y11.1256 
G01 X27.0474 Y11.1256 
G01 X27.2551 Y10.9179 
G01 X27.1156 Y10.8725 
G01 X26.9642 Y10.7954 
G01 X26.8268 Y10.6956 
G01 X26.7067 Y10.5755 
G01 X26.6069 Y10.4381 
G01 X26.5298 Y10.2867 
G01 X26.4773 Y10.1252 
G01 X26.4507 Y9.9574 
G01 X26.4507 Y9.7876 
G01 X26.4773 Y9.6198 
G01 X26.5298 Y9.4583 
G01 X26.6069 Y9.3069 
G01 X26.7067 Y9.1695 
G01 X26.8268 Y9.0494 
G01 X26.9642 Y8.9496 
G01 X27.1156 Y8.8725 
G01 X27.2771 Y8.8200 
G01 X27.4449 Y8.7934 
G01 X29.5451 Y8.7934 
G01 X29.7129 Y8.8200 
G01 X29.8744 Y8.8725 
G01 X30.0258 Y8.9496 
G01 X30.1632 Y9.0494 
G01 X30.2833 Y9.1695 
G01 X30.3831 Y9.3069 
G01 X30.4602 Y9.4583 
G01 X30.5127 Y9.6198 
G01 X30.5393 Y9.7876 
G01 X30.5393 Y9.9574 
G01 X30.5127 Y10.1252 
G01 X30.4602 Y10.2867 
G01 X30.3831 Y10.4381 
G01 X30.2833 Y10.5755 
G01 X30.1632 Y10.6956 
G01 X30.0258 Y10.7954 
G01 X29.8744 Y10.8725 
G01 X29.7129 Y10.9250 
G01 X29.5451 Y10.9516 
G01 X28.9804 Y10.9516 
G01 X28.9714 Y10.9606 
G01 X27.7014 Y12.2306 
G01 X27.5996 Y12.2986 
G01 X27.4864 Y12.3455 
G01 X27.3663 Y12.3694 
G01 X13.9087 Y12.3694 
G01 X13.7886 Y12.3455 
G01 X13.6754 Y12.2986 
G01 X13.5736 Y12.2306 
G01 X13.4869 Y12.1439 
G01 X13.4189 Y12.0421 
G01 X13.3720 Y11.9289 
G01 X13.3481 Y11.8087 
G01 X13.3481 Y10.7564 
G01 X13.2948 Y10.7564 
G01 X13.2530 Y10.7391 
G00 Z2.0000  F3000
G00 X11.7116 Y13.0281  F3000
G01 Z-0.2000 F200.00 
G01 X11.6966 Y13.0194 F500.00 
G01 X11.6609 Y13.0099 
G01 X11.3064 Y13.0099 
G01 X11.3064 Y13.0281 
G01 X11.7116 Y13.0281 
G00 Z2.0000  F3000
G00 X10.5786 Y13.0361  F3000
G01 Z-0.2000 F200.00 
G01 X10.5786 Y13.0099 F500.00 
G01 X10.2241 Y13.0099 
G01 X10.1884 Y13.0194 
G01 X10.1565 Y13.0379 
G01 X10.1304 Y13.0640 
G01 X10.1152 Y13.0903 
G01 X10.1152 Y13.1000 
G01 X10.1029 Y13.1297 
G01 X10.0946 Y13.1607 
G01 X10.0847 Y13.1736 
G01 X10.0785 Y13.1885 
G01 X10.0558 Y13.2112 
G01 X10.0410 Y13.2305 
G01 X10.0657 Y13.2552 
G01 X10.0785 Y13.2861 
G01 X10.1286 Y13.2861 
G01 X10.1286 Y13.1273 
G01 X10.1459 Y13.0855 
G01 X10.1780 Y13.0534 
G01 X10.2198 Y13.0361 
G01 X10.5786 Y13.0361 
G00 Z2.0000  F3000
G00 X10.5786 Y14.2639  F3000
G01 Z-0.2000 F200.00 
G01 X10.2198 Y14.2639 F500.00 
G01 X10.1780 Y14.2466 
G01 X10.1459 Y14.2145 
G01 X10.1286 Y14.1727 
G01 X10.1286 Y14.0139 
G01 X10.1024 Y14.0139 
G01 X10.1024 Y14.1684 
G01 X10.1119 Y14.2041 
G01 X10.1304 Y14.2360 
G01 X10.1565 Y14.2621 
G01 X10.1884 Y14.2805 
G01 X10.2241 Y14.2901 
G01 X10.5786 Y14.2901 
G01 X10.5786 Y14.2639 
G00 Z2.0000  F3000
G00 X11.3064 Y14.2719  F3000
G01 Z-0.2000 F200.00 
G01 X11.3064 Y14.2901 F500.00 
G01 X11.6609 Y14.2901 
G01 X11.6966 Y14.2805 
G01 X11.7116 Y14.2719 
G01 X11.3064 Y14.2719 
G00 Z2.0000  F3000
G00 X13.2530 Y5.3416  F3000
G01 Z-0.2000 F200.00 
G01 X13.2209 Y5.3095 F500.00 
G01 X13.2036 Y5.2677 
G01 X13.2036 Y3.6223 
G01 X13.2209 Y3.5805 
G01 X13.2530 Y3.5484 
G01 X13.2948 Y3.5311 
G01 X14.6402 Y3.5311 
G01 X14.6820 Y3.5484 
G01 X14.7141 Y3.5805 
G01 X14.7314 Y3.6223 
G01 X14.7314 Y3.8361 
G01 X14.7864 Y3.8470 
G01 X14.8996 Y3.8939 
G01 X15.0014 Y3.9619 
G01 X16.2714 Y5.2319 
G01 X16.3581 Y5.3186 
G01 X16.4261 Y5.4204 
G01 X16.4730 Y5.5336 
G01 X16.4969 Y5.6537 
G01 X16.4969 Y6.6806 
G01 X16.6260 Y6.6806 
G01 X16.7067 Y6.5695 
G01 X16.8268 Y6.4494 
G01 X16.9642 Y6.3496 
G01 X17.1156 Y6.2725 
G01 X17.2771 Y6.2200 
G01 X17.4449 Y6.1934 
G01 X19.5451 Y6.1934 
G01 X19.7129 Y6.2200 
G01 X19.8744 Y6.2725 
G01 X20.0258 Y6.3496 
G01 X20.1632 Y6.4494 
G01 X20.2833 Y6.5695 
G01 X20.3831 Y6.7069 
G01 X20.4602 Y6.8583 
G01 X20.5127 Y7.0198 
G01 X20.5393 Y7.1876 
G01 X20.5393 Y7.3574 
G01 X20.5127 Y7.5252 
G01 X20.4602 Y7.6867 
G01 X20.3831 Y7.8381 
G01 X20.2833 Y7.9755 
G01 X20.1632 Y8.0956 
G01 X20.0258 Y8.1954 
G01 X19.8744 Y8.2725 
G01 X19.7129 Y8.3250 
G01 X19.5451 Y8.3516 
G01 X17.4449 Y8.3516 
G01 X17.2771 Y8.3250 
G01 X17.1156 Y8.2725 
G01 X16.9642 Y8.1954 
G01 X16.8268 Y8.0956 
G01 X16.7067 Y7.9755 
G01 X16.6696 Y7.9244 
G01 X16.1312 Y7.9244 
G01 X16.0111 Y7.9005 
G01 X15.8979 Y7.8536 
G01 X15.7961 Y7.7856 
G01 X15.7094 Y7.6989 
G01 X15.3919 Y7.3814 
G01 X15.3239 Y7.2796 
G01 X15.2770 Y7.1664 
G01 X15.2531 Y7.0462 
G01 X15.2531 Y5.9726 
G01 X14.6394 Y5.3589 
G01 X13.2948 Y5.3589 
G01 X13.2530 Y5.3416 
G00 Z2.0000  F3000
G00 X0.8862 Y0.9460  F3000
G01 Z-0.2000 F200.00 
G01 X0.9460 Y0.8862 F500.00 
G01 X1.0191 Y0.8440 
G01 X1.1007 Y0.8221 
G01 X16.6475 Y0.8221 
G01 X16.7257 Y0.8430 
G01 X16.7291 Y0.8440 
G01 X16.8023 Y0.8862 
G01 X16.8611 Y0.9450 
G01 X16.9043 Y1.0191 
G01 X16.9262 Y1.1007 
G01 X16.9262 Y1.1852 
G01 X16.9052 Y1.2634 
G01 X16.9043 Y1.2669 
G01 X16.8620 Y1.3400 
G01 X16.6376 Y1.5645 
G01 X16.3754 Y2.1974 
G01 X16.3754 Y2.8825 
G01 X16.6376 Y3.5155 
G01 X17.1220 Y3.9999 
G01 X17.7550 Y4.2621 
G01 X18.4400 Y4.2621 
G01 X19.0730 Y3.9999 
G01 X19.5574 Y3.5155 
G01 X19.8196 Y2.8825 
G01 X19.8196 Y2.1974 
G01 X19.5574 Y1.5645 
G01 X19.3329 Y1.3400 
G01 X19.2907 Y1.2669 
G01 X19.2688 Y1.1852 
G01 X19.2688 Y1.1007 
G01 X19.2907 Y1.0191 
G01 X19.3320 Y0.9476 
G01 X19.3927 Y0.8862 
G01 X19.4659 Y0.8440 
G01 X19.5475 Y0.8221 
G01 X30.0017 Y0.8221 
G01 X30.0834 Y0.8440 
G01 X30.1565 Y0.8862 
G01 X30.2163 Y0.9460 
G01 X30.2585 Y1.0191 
G01 X30.2804 Y1.1007 
G01 X30.2804 Y5.9855 
G01 X30.2822 Y5.9939 
G01 X30.2804 Y6.0277 
G01 X30.2804 Y6.0615 
G01 X30.2782 Y6.0697 
G01 X30.2777 Y6.0782 
G01 X30.2673 Y6.1104 
G01 X30.2585 Y6.1431 
G01 X30.2543 Y6.1505 
G01 X30.2516 Y6.1586 
G01 X30.2332 Y6.1870 
G01 X30.2163 Y6.2163 
G01 X30.2103 Y6.2223 
G01 X30.2056 Y6.2295 
G01 X30.1805 Y6.2521 
G01 X30.1565 Y6.2760 
G01 X30.1492 Y6.2803 
G01 X30.1428 Y6.2860 
G01 X30.1127 Y6.3014 
G01 X30.1031 Y6.3069 
G01 X30.2153 Y6.3884 
G01 X30.3443 Y6.5174 
G01 X30.4516 Y6.6650 
G01 X30.5344 Y6.8276 
G01 X30.5908 Y7.0011 
G01 X30.6193 Y7.1813 
G01 X30.6193 Y7.3637 
G01 X30.5908 Y7.5439 
G01 X30.5344 Y7.7174 
G01 X30.4516 Y7.8800 
G01 X30.3443 Y8.0276 
G01 X30.2153 Y8.1566 
G01 X30.0677 Y8.2638 
G01 X29.9051 Y8.3467 
G01 X29.7316 Y8.4031 
G01 X29.5514 Y8.4316 
G01 X29.0530 Y8.4316 
G01 X28.9887 Y8.4644 
G01 X28.7962 Y8.5269 
G01 X28.5962 Y8.5586 
G01 X27.4084 Y8.5586 
G01 X27.4064 Y8.5733 
G01 X27.4049 Y8.6030 
G01 X27.4009 Y8.6151 
G01 X27.3992 Y8.6277 
G01 X27.3879 Y8.6551 
G01 X27.3787 Y8.6833 
G01 X27.3718 Y8.6940 
G01 X27.3669 Y8.7058 
G01 X27.3504 Y8.7274 
G01 X27.4386 Y8.7134 
G01 X29.5514 Y8.7134 
G01 X29.7316 Y8.7419 
G01 X29.9051 Y8.7983 
G01 X30.0677 Y8.8811 
G01 X30.2153 Y8.9884 
G01 X30.3443 Y9.1174 
G01 X30.4516 Y9.2650 
G01 X30.5344 Y9.4276 
G01 X30.5908 Y9.6011 
G01 X30.6193 Y9.7813 
G01 X30.6193 Y9.9637 
G01 X30.5908 Y10.1439 
G01 X30.5344 Y10.3174 
G01 X30.4516 Y10.4800 
G01 X30.3443 Y10.6276 
G01 X30.2153 Y10.7566 
G01 X30.0677 Y10.8638 
G01 X29.9051 Y10.9467 
G01 X29.7316 Y11.0031 
G01 X29.5514 Y11.0316 
G01 X29.0135 Y11.0316 
G01 X27.7524 Y12.2927 
G01 X27.6375 Y12.3695 
G01 X27.5097 Y12.4224 
G01 X27.3741 Y12.4494 
G01 X16.7069 Y12.4494 
G01 X16.7477 Y12.4903 
G01 X16.7900 Y12.5634 
G01 X16.8058 Y12.6223 
G01 X16.8119 Y12.6450 
G01 X16.8119 Y12.7295 
G01 X16.7900 Y12.8112 
G01 X16.7661 Y12.8525 
G01 X16.7477 Y12.8843 
G01 X16.6880 Y12.9441 
G01 X16.6376 Y12.9945 
G01 X16.3754 Y13.6274 
G01 X16.3754 Y14.3125 
G01 X16.6376 Y14.9455 
G01 X16.8520 Y15.1600 
G01 X16.8943 Y15.2331 
G01 X16.9162 Y15.3147 
G01 X16.9162 Y15.3992 
G01 X16.8943 Y15.4809 
G01 X16.8548 Y15.5492 
G01 X16.8520 Y15.5540 
G01 X16.7923 Y15.6138 
G01 X16.7191 Y15.6560 
G01 X16.6375 Y15.6779 
G01 X14.3638 Y15.6779 
G01 X14.3266 Y15.7050 
G01 X14.1462 Y15.7969 
G01 X13.9537 Y15.8594 
G01 X13.7537 Y15.8911 
G01 X13.5513 Y15.8911 
G01 X13.3513 Y15.8594 
G01 X13.1588 Y15.7969 
G01 X12.9784 Y15.7050 
G01 X12.9412 Y15.6779 
G01 X9.7456 Y15.6779 
G01 X9.7246 Y15.6807 
G01 X9.7035 Y15.6779 
G01 X9.6823 Y15.6779 
G01 X9.6618 Y15.6724 
G01 X9.6408 Y15.6696 
G01 X9.6212 Y15.6615 
G01 X9.6007 Y15.6560 
G01 X9.5823 Y15.6454 
G01 X9.5627 Y15.6373 
G01 X9.5459 Y15.6244 
G01 X9.5275 Y15.6138 
G01 X9.5125 Y15.5988 
G01 X9.4957 Y15.5859 
G01 X9.4828 Y15.5690 
G01 X9.4678 Y15.5540 
G01 X9.4572 Y15.5357 
G01 X9.4443 Y15.5188 
G01 X9.4362 Y15.4992 
G01 X9.4256 Y15.4809 
G01 X9.4215 Y15.4659 
G01 X9.3550 Y15.5966 
G01 X9.2360 Y15.7603 
G01 X9.0928 Y15.9035 
G01 X8.9291 Y16.0225 
G01 X8.7487 Y16.1144 
G01 X8.5562 Y16.1769 
G01 X8.3562 Y16.2086 
G01 X8.1538 Y16.2086 
G01 X7.9538 Y16.1769 
G01 X7.7613 Y16.1144 
G01 X7.5809 Y16.0225 
G01 X7.4172 Y15.9035 
G01 X7.2740 Y15.7603 
G01 X7.1753 Y15.6244 
G01 X2.7884 Y15.6244 
G01 X2.6528 Y15.5974 
G01 X2.5250 Y15.5445 
G01 X2.4101 Y15.4677 
G01 X2.0926 Y15.1502 
G01 X1.9948 Y15.0524 
G01 X1.9180 Y14.9375 
G01 X1.8651 Y14.8097 
G01 X1.8381 Y14.6741 
G01 X1.8381 Y11.7509 
G01 X1.6839 Y11.7509 
G01 X1.4992 Y11.7142 
G01 X1.3252 Y11.6421 
G01 X1.1686 Y11.5375 
G01 X1.0355 Y11.4044 
G01 X0.9309 Y11.2478 
G01 X0.8588 Y11.0738 
G01 X0.8221 Y10.8891 
G01 X0.8221 Y10.7009 
G01 X0.8588 Y10.5162 
G01 X0.9309 Y10.3422 
G01 X1.0355 Y10.1856 
G01 X1.1686 Y10.0525 
G01 X1.3252 Y9.9479 
G01 X1.4992 Y9.8758 
G01 X1.6839 Y9.8391 
G01 X3.3961 Y9.8391 
G01 X3.5808 Y9.8758 
G01 X3.7548 Y9.9479 
G01 X3.9114 Y10.0525 
G01 X3.9700 Y10.1112 
G01 X4.0147 Y10.1201 
G01 X4.1425 Y10.1730 
G01 X4.2574 Y10.2498 
G01 X4.4182 Y10.4106 
G01 X5.0452 Y10.4106 
G01 X5.0681 Y10.3552 
G01 X5.1227 Y10.3006 
G01 X5.1939 Y10.2711 
G01 X6.8711 Y10.2711 
G01 X6.9423 Y10.3006 
G01 X6.9969 Y10.3552 
G01 X7.0264 Y10.4264 
G01 X7.0264 Y11.8036 
G01 X6.9969 Y11.8748 
G01 X6.9423 Y11.9294 
G01 X6.8711 Y11.9589 
G01 X5.1939 Y11.9589 
G01 X5.1227 Y11.9294 
G01 X5.0681 Y11.8748 
G01 X5.0431 Y11.8144 
G01 X4.0584 Y11.8144 
G01 X3.9228 Y11.7874 
G01 X3.7950 Y11.7345 
G01 X3.6943 Y11.6672 
G01 X3.5808 Y11.7142 
G01 X3.3961 Y11.7509 
G01 X3.2419 Y11.7509 
G01 X3.2419 Y14.2206 
G01 X7.1753 Y14.2206 
G01 X7.2740 Y14.0847 
G01 X7.4172 Y13.9415 
G01 X7.5809 Y13.8225 
G01 X7.7613 Y13.7306 
G01 X7.7959 Y13.7194 
G01 X7.0198 Y13.7194 
G01 X6.9969 Y13.7748 
G01 X6.9423 Y13.8294 
G01 X6.8711 Y13.8589 
G01 X5.1939 Y13.8589 
G01 X5.1227 Y13.8294 
G01 X5.0681 Y13.7748 
G01 X5.0386 Y13.7036 
G01 X5.0386 Y12.3264 
G01 X5.0681 Y12.2552 
G01 X5.1227 Y12.2006 
G01 X5.1939 Y12.1711 
G01 X6.8711 Y12.1711 
G01 X6.9423 Y12.2006 
G01 X6.9969 Y12.2552 
G01 X7.0219 Y12.3156 
G01 X7.6468 Y12.3156 
G01 X7.8076 Y12.1548 
G01 X7.8681 Y12.1143 
G01 X7.8706 Y12.1083 
G01 X7.8706 Y9.5894 
G01 X7.0209 Y9.5894 
G01 X6.9969 Y9.6473 
G01 X6.9423 Y9.7019 
G01 X6.8711 Y9.7314 
G01 X5.1939 Y9.7314 
G01 X5.1227 Y9.7019 
G01 X5.0681 Y9.6473 
G01 X5.0441 Y9.5894 
G01 X4.6909 Y9.5894 
G01 X4.5553 Y9.5624 
G01 X4.4275 Y9.5095 
G01 X4.3126 Y9.4327 
G01 X3.8910 Y9.0111 
G01 X3.7548 Y9.1021 
G01 X3.5808 Y9.1742 
G01 X3.3961 Y9.2109 
G01 X1.6839 Y9.2109 
G01 X1.4992 Y9.1742 
G01 X1.3252 Y9.1021 
G01 X1.1686 Y8.9975 
G01 X1.0355 Y8.8643 
G01 X0.9309 Y8.7078 
G01 X0.8588 Y8.5338 
G01 X0.8221 Y8.3491 
G01 X0.8221 Y8.1608 
G01 X0.8588 Y7.9762 
G01 X0.9309 Y7.8022 
G01 X1.0355 Y7.6456 
G01 X1.1329 Y7.5482 
G01 X1.1220 Y7.5468 
G01 X1.1007 Y7.5468 
G01 X1.0803 Y7.5413 
G01 X1.0592 Y7.5385 
G01 X1.0396 Y7.5304 
G01 X1.0191 Y7.5249 
G01 X1.0008 Y7.5143 
G01 X0.9812 Y7.5062 
G01 X0.9643 Y7.4932 
G01 X0.9460 Y7.4826 
G01 X0.9310 Y7.4676 
G01 X0.9141 Y7.4547 
G01 X0.9012 Y7.4379 
G01 X0.8862 Y7.4229 
G01 X0.8756 Y7.4045 
G01 X0.8627 Y7.3877 
G01 X0.8546 Y7.3681 
G01 X0.8440 Y7.3497 
G01 X0.8385 Y7.3292 
G01 X0.8304 Y7.3096 
G01 X0.8276 Y7.2886 
G01 X0.8221 Y7.2681 
G01 X0.8221 Y7.2469 
G01 X0.8193 Y7.2259 
G01 X0.8221 Y7.2048 
G01 X0.8221 Y6.6917 
G01 X0.8194 Y6.6749 
G01 X0.8221 Y6.6496 
G01 X0.8221 Y6.6242 
G01 X0.8265 Y6.6078 
G01 X0.8283 Y6.5909 
G01 X0.8374 Y6.5671 
G01 X0.8440 Y6.5426 
G01 X0.8525 Y6.5279 
G01 X0.8586 Y6.5120 
G01 X0.8735 Y6.4914 
G01 X0.8862 Y6.4694 
G01 X0.8982 Y6.4574 
G01 X0.9082 Y6.4436 
G01 X0.9280 Y6.4277 
G01 X0.9460 Y6.4097 
G01 X0.9607 Y6.4012 
G01 X0.9739 Y6.3905 
G01 X0.9971 Y6.3801 
G01 X1.0191 Y6.3674 
G01 X1.0356 Y6.3630 
G01 X1.0511 Y6.3561 
G01 X1.0651 Y6.3539 
G01 X1.0355 Y6.3243 
G01 X0.9309 Y6.1678 
G01 X0.8588 Y5.9938 
G01 X0.8221 Y5.8091 
G01 X0.8221 Y5.6208 
G01 X0.8588 Y5.4362 
G01 X0.9309 Y5.2622 
G01 X1.0355 Y5.1056 
G01 X1.0651 Y5.0761 
G01 X1.0511 Y5.0739 
G01 X1.0356 Y5.0670 
G01 X1.0191 Y5.0626 
G01 X0.9971 Y5.0499 
G01 X0.9739 Y5.0395 
G01 X0.9607 Y5.0288 
G01 X0.9460 Y5.0203 
G01 X0.9280 Y5.0023 
G01 X0.9082 Y4.9863 
G01 X0.8982 Y4.9726 
G01 X0.8862 Y4.9606 
G01 X0.8735 Y4.9386 
G01 X0.8586 Y4.9180 
G01 X0.8525 Y4.9021 
G01 X0.8440 Y4.8874 
G01 X0.8374 Y4.8628 
G01 X0.8283 Y4.8391 
G01 X0.8265 Y4.8222 
G01 X0.8221 Y4.8058 
G01 X0.8221 Y4.7804 
G01 X0.8194 Y4.7551 
G01 X0.8221 Y4.7383 
G01 X0.8221 Y1.1007 
G01 X0.8440 Y1.0191 
G01 X0.8862 Y0.9460 
G00 Z2.0000  F3000
G00 X4.8360 Y7.9708  F3000
G01 Z-0.2000 F200.00 
G01 X5.0461 Y8.1809 F500.00 
G01 X5.0681 Y8.1277 
G01 X5.1227 Y8.0731 
G01 X5.1939 Y8.0436 
G01 X6.8187 Y8.0436 
G01 X6.8082 Y8.0254 
G01 X6.7863 Y7.9438 
G01 X6.7863 Y7.8593 
G01 X6.7938 Y7.8314 
G01 X5.1939 Y7.8314 
G01 X5.1321 Y7.8058 
G01 X5.1083 Y7.8470 
G01 X5.0485 Y7.9067 
G01 X5.0027 Y7.9332 
G01 X4.9754 Y7.9490 
G01 X4.8937 Y7.9708 
G01 X4.8360 Y7.9708 
G00 Z2.0000  F3000
G00 X8.6533 Y7.9899  F3000
G01 Z-0.2000 F200.00 
G01 X8.6419 Y8.0327 F500.00 
G01 X8.6315 Y8.0716 
G01 X8.6211 Y8.0896 
G01 X8.5892 Y8.1447 
G01 X8.5484 Y8.1856 
G01 X8.6391 Y8.1856 
G01 X8.7747 Y8.2126 
G01 X8.9025 Y8.2655 
G01 X9.0174 Y8.3423 
G01 X9.0199 Y8.3448 
G01 X9.1177 Y8.4426 
G01 X9.1945 Y8.5575 
G01 X9.2474 Y8.6853 
G01 X9.2744 Y8.8209 
G01 X9.2744 Y12.0061 
G01 X9.4811 Y12.0061 
G01 X9.5523 Y12.0356 
G01 X9.6069 Y12.0902 
G01 X9.6364 Y12.1614 
G01 X9.6364 Y12.2765 
G01 X9.6773 Y12.2357 
G01 X9.7231 Y12.2092 
G01 X9.7504 Y12.1934 
G01 X9.8320 Y12.1715 
G01 X9.9165 Y12.1715 
G01 X9.9947 Y12.1925 
G01 X9.9982 Y12.1934 
G01 X10.0486 Y12.2225 
G01 X10.0486 Y11.2114 
G01 X10.0781 Y11.1402 
G01 X10.1327 Y11.0856 
G01 X10.2039 Y11.0561 
G01 X10.2406 Y11.0561 
G01 X10.2406 Y10.8984 
G01 X10.2676 Y10.7628 
G01 X10.3205 Y10.6350 
G01 X10.3973 Y10.5201 
G01 X11.2236 Y9.6938 
G01 X11.2236 Y9.0039 
G01 X11.2531 Y8.9327 
G01 X11.3077 Y8.8781 
G01 X11.3789 Y8.8486 
G01 X12.7561 Y8.8486 
G01 X12.8273 Y8.8781 
G01 X12.8819 Y8.9327 
G01 X12.9114 Y9.0039 
G01 X12.9114 Y10.6494 
G01 X12.9752 Y10.6323 
G01 X13.0597 Y10.6323 
G01 X13.0883 Y10.6399 
G01 X13.1236 Y10.6494 
G01 X13.1236 Y9.0039 
G01 X13.1531 Y8.9327 
G01 X13.2077 Y8.8781 
G01 X13.2656 Y8.8541 
G01 X13.2656 Y7.9734 
G01 X13.2077 Y7.9494 
G01 X13.1531 Y7.8948 
G01 X13.1236 Y7.8236 
G01 X13.1236 Y6.1464 
G01 X13.1531 Y6.0752 
G01 X13.2077 Y6.0206 
G01 X13.2789 Y5.9911 
G01 X14.6561 Y5.9911 
G01 X14.7273 Y6.0206 
G01 X14.7819 Y6.0752 
G01 X14.8114 Y6.1464 
G01 X14.8114 Y7.2303 
G01 X14.8204 Y7.2185 
G01 X14.8373 Y7.2056 
G01 X14.8523 Y7.1906 
G01 X14.8706 Y7.1800 
G01 X14.8875 Y7.1671 
G01 X14.9071 Y7.1590 
G01 X14.9254 Y7.1484 
G01 X14.9459 Y7.1429 
G01 X14.9655 Y7.1347 
G01 X14.9866 Y7.1320 
G01 X15.0070 Y7.1265 
G01 X15.0283 Y7.1265 
G01 X15.0493 Y7.1237 
G01 X15.0703 Y7.1265 
G01 X15.0915 Y7.1265 
G01 X15.1120 Y7.1320 
G01 X15.1331 Y7.1348 
G01 X15.1527 Y7.1429 
G01 X15.1732 Y7.1484 
G01 X15.1915 Y7.1590 
G01 X15.1942 Y7.1601 
G01 X15.1731 Y7.0541 
G01 X15.1731 Y6.0057 
G01 X14.6063 Y5.4389 
G01 X13.2789 Y5.4389 
G01 X13.2077 Y5.4094 
G01 X13.1531 Y5.3548 
G01 X13.1236 Y5.2836 
G01 X13.1236 Y3.6381 
G01 X13.0597 Y3.6552 
G01 X12.9753 Y3.6552 
G01 X12.9467 Y3.6476 
G01 X12.9114 Y3.6381 
G01 X12.9114 Y5.2836 
G01 X12.8819 Y5.3548 
G01 X12.8273 Y5.4094 
G01 X12.7694 Y5.4334 
G01 X12.7694 Y5.9966 
G01 X12.8273 Y6.0206 
G01 X12.8819 Y6.0752 
G01 X12.9114 Y6.1464 
G01 X12.9114 Y7.8236 
G01 X12.8819 Y7.8948 
G01 X12.8273 Y7.9494 
G01 X12.7561 Y7.9789 
G01 X11.3789 Y7.9789 
G01 X11.3077 Y7.9494 
G01 X11.2531 Y7.8948 
G01 X11.2236 Y7.8236 
G01 X11.2236 Y7.6869 
G01 X10.6047 Y7.6869 
G01 X10.5060 Y7.8228 
G01 X10.3628 Y7.9660 
G01 X10.1991 Y8.0850 
G01 X10.0187 Y8.1769 
G01 X9.8262 Y8.2394 
G01 X9.6262 Y8.2711 
G01 X9.4238 Y8.2711 
G01 X9.2238 Y8.2394 
G01 X9.0313 Y8.1769 
G01 X8.8509 Y8.0850 
G01 X8.6872 Y7.9660 
G01 X8.6533 Y7.9322 
G01 X8.6533 Y7.9899 
G00 Z2.0000  F3000
G00 X11.2016 Y6.2831  F3000
G01 Z-0.2000 F200.00 
G01 X11.2236 Y6.2831 F500.00 
G01 X11.2236 Y6.2611 
G01 X11.2016 Y6.2831 
G00 Z2.0000  F3000
G00 X10.3314 Y4.8514  F3000
G01 Z-0.2000 F200.00 
G01 X10.3534 Y4.8294 F500.00 
G01 X10.3314 Y4.8294 
G01 X10.3314 Y4.8514 
G00 Z2.0000  F3000
G00 X10.3314 Y3.4256  F3000
G01 Z-0.2000 F200.00 
G01 X10.3534 Y3.4256 F500.00 
G01 X10.3314 Y3.4036 
G01 X10.3314 Y3.4256 
G00 Z2.0000  F3000
G00 X16.5769 Y6.2737  F3000
G01 Z-0.2000 F200.00 
G01 X16.5769 Y6.6006 F500.00 
G01 X16.5852 Y6.6006 
G01 X16.6457 Y6.5174 
G01 X16.7747 Y6.3884 
G01 X16.7897 Y6.3775 
G01 X16.7725 Y6.3775 
G01 X16.7521 Y6.3720 
G01 X16.7310 Y6.3692 
G01 X16.7114 Y6.3611 
G01 X16.6909 Y6.3556 
G01 X16.6726 Y6.3450 
G01 X16.6530 Y6.3369 
G01 X16.6361 Y6.3240 
G01 X16.6178 Y6.3133 
G01 X16.6028 Y6.2983 
G01 X16.5859 Y6.2854 
G01 X16.5769 Y6.2737 
G00 Z2.0000  F3000
G00 X17.3504 Y8.4176  F3000
G01 Z-0.2000 F200.00 
G01 X17.3669 Y8.4392 F500.00 
G01 X17.3718 Y8.4510 
G01 X17.3787 Y8.4617 
G01 X17.3879 Y8.4899 
G01 X17.3992 Y8.5172 
G01 X17.4009 Y8.5299 
G01 X17.4049 Y8.5420 
G01 X17.4056 Y8.5564 
G01 X19.5844 Y8.5564 
G01 X19.5851 Y8.5420 
G01 X19.5891 Y8.5299 
G01 X19.5907 Y8.5172 
G01 X19.6021 Y8.4899 
G01 X19.6112 Y8.4617 
G01 X19.6182 Y8.4510 
G01 X19.6231 Y8.4392 
G01 X19.6396 Y8.4176 
G01 X19.5514 Y8.4316 
G01 X17.4386 Y8.4316 
G01 X17.3504 Y8.4176 
G00 Z2.0000  F3000
G00 X14.7284 Y10.8058  F3000
G01 Z-0.2000 F200.00 
G01 X14.7273 Y10.8069 F500.00 
G01 X14.6719 Y10.8298 
G01 X14.6719 Y11.0456 
G01 X14.8334 Y11.0456 
G01 X14.7925 Y11.0047 
G01 X14.7503 Y10.9316 
G01 X14.7284 Y10.8499 
G01 X14.7284 Y10.8058 
G00 Z2.0000  F3000
G00 X8.9036 Y13.3939  F3000
G01 Z-0.2000 F200.00 
G01 X8.8519 Y13.3939 F500.00 
G01 X8.8116 Y13.4019 
G01 X8.5457 Y13.4019 
G01 X8.4827 Y13.4649 
G01 X8.3849 Y13.5627 
G01 X8.2746 Y13.6364 
G01 X8.3562 Y13.6364 
G01 X8.5562 Y13.6681 
G01 X8.7487 Y13.7306 
G01 X8.8300 Y13.7720 
G01 X8.8205 Y13.7557 
G01 X8.7987 Y13.6740 
G01 X8.7987 Y13.5895 
G01 X8.7996 Y13.5861 
G01 X8.8205 Y13.5079 
G01 X8.8618 Y13.4364 
G01 X8.9036 Y13.3939 
G00 Z2.0000  F3000
G00 X26.7053 Y11.0456  F3000
G01 Z-0.2000 F200.00 
G01 X27.0143 Y11.0456 F500.00 
G01 X27.1062 Y10.9536 
G01 X27.0849 Y10.9467 
G01 X26.9223 Y10.8638 
G01 X26.8102 Y10.7824 
G01 X26.8102 Y10.8499 
G01 X26.7884 Y10.9316 
G01 X26.7645 Y10.9729 
G01 X26.7461 Y11.0047 
G01 X26.7053 Y11.0456 
G00 Z2.0000  F3000
G00 X0.8222 Y0.8968  F3000
G01 Z-0.2000 F200.00 
G01 X0.8968 Y0.8222 F500.00 
G01 X0.9883 Y0.7694 
G01 X1.0902 Y0.7421 
G01 X16.6580 Y0.7421 
G01 X16.7600 Y0.7694 
G01 X16.8514 Y0.8222 
G01 X16.9249 Y0.8957 
G01 X16.9788 Y0.9883 
G01 X16.9985 Y1.0617 
G01 X17.0062 Y1.0902 
G01 X17.0062 Y1.1958 
G01 X16.9788 Y1.2977 
G01 X16.9261 Y1.3892 
G01 X16.7054 Y1.6098 
G01 X16.4554 Y2.2134 
G01 X16.4554 Y2.8666 
G01 X16.7054 Y3.4702 
G01 X17.1673 Y3.9321 
G01 X17.7709 Y4.1821 
G01 X18.4241 Y4.1821 
G01 X19.0277 Y3.9321 
G01 X19.4896 Y3.4702 
G01 X19.7396 Y2.8666 
G01 X19.7396 Y2.2134 
G01 X19.4896 Y1.6098 
G01 X19.2689 Y1.3892 
G01 X19.2162 Y1.2977 
G01 X19.1888 Y1.1958 
G01 X19.1888 Y1.0902 
G01 X19.1958 Y1.0641 
G01 X19.2161 Y0.9883 
G01 X19.2689 Y0.8968 
G01 X19.3436 Y0.8222 
G01 X19.4350 Y0.7694 
G01 X19.5369 Y0.7421 
G01 X30.0123 Y0.7421 
G01 X30.1142 Y0.7694 
G01 X30.2057 Y0.8222 
G01 X30.2803 Y0.8968 
G01 X30.3331 Y0.9883 
G01 X30.3604 Y1.0902 
G01 X30.3604 Y5.9771 
G01 X30.3626 Y5.9875 
G01 X30.3604 Y6.0297 
G01 X30.3604 Y6.0720 
G01 X30.3576 Y6.0823 
G01 X30.3571 Y6.0930 
G01 X30.3440 Y6.1332 
G01 X30.3331 Y6.1740 
G01 X30.3278 Y6.1832 
G01 X30.3245 Y6.1933 
G01 X30.3014 Y6.2288 
G01 X30.2803 Y6.2654 
G01 X30.2728 Y6.2729 
G01 X30.2670 Y6.2819 
G01 X30.2392 Y6.3069 
G01 X30.2674 Y6.3274 
G01 X30.4053 Y6.4653 
G01 X30.5200 Y6.6231 
G01 X30.6085 Y6.7969 
G01 X30.6688 Y6.9823 
G01 X30.6993 Y7.1750 
G01 X30.6993 Y7.3700 
G01 X30.6688 Y7.5627 
G01 X30.6085 Y7.7481 
G01 X30.5200 Y7.9219 
G01 X30.4053 Y8.0797 
G01 X30.2674 Y8.2176 
G01 X30.1096 Y8.3323 
G01 X29.9358 Y8.4208 
G01 X29.7504 Y8.4811 
G01 X29.5577 Y8.5116 
G01 X29.0722 Y8.5116 
G01 X29.0194 Y8.5385 
G01 X28.8149 Y8.6050 
G01 X28.6353 Y8.6334 
G01 X29.5577 Y8.6334 
G01 X29.7504 Y8.6639 
G01 X29.9358 Y8.7242 
G01 X30.1096 Y8.8127 
G01 X30.2674 Y8.9274 
G01 X30.4053 Y9.0653 
G01 X30.5200 Y9.2231 
G01 X30.6085 Y9.3969 
G01 X30.6688 Y9.5823 
G01 X30.6993 Y9.7750 
G01 X30.6993 Y9.9700 
G01 X30.6688 Y10.1627 
G01 X30.6085 Y10.3481 
G01 X30.5200 Y10.5219 
G01 X30.4053 Y10.6797 
G01 X30.2674 Y10.8176 
G01 X30.1096 Y10.9323 
G01 X29.9358 Y11.0208 
G01 X29.7504 Y11.0811 
G01 X29.5577 Y11.1116 
G01 X29.0467 Y11.1116 
G01 X27.8034 Y12.3548 
G01 X27.6754 Y12.4404 
G01 X27.5331 Y12.4993 
G01 X27.3820 Y12.5294 
G01 X16.8627 Y12.5294 
G01 X16.8645 Y12.5326 
G01 X16.8814 Y12.5956 
G01 X16.8919 Y12.6345 
G01 X16.8919 Y12.7401 
G01 X16.8645 Y12.8420 
G01 X16.8347 Y12.8937 
G01 X16.8118 Y12.9335 
G01 X16.7371 Y13.0081 
G01 X16.7054 Y13.0398 
G01 X16.4554 Y13.6434 
G01 X16.4554 Y14.2966 
G01 X16.7054 Y14.9002 
G01 X16.9161 Y15.1108 
G01 X16.9688 Y15.2023 
G01 X16.9962 Y15.3042 
G01 X16.9962 Y15.4098 
G01 X16.9898 Y15.4336 
G01 X16.9688 Y15.5117 
G01 X16.9161 Y15.6032 
G01 X16.8414 Y15.6778 
G01 X16.7500 Y15.7306 
G01 X16.6480 Y15.7579 
G01 X14.3898 Y15.7579 
G01 X14.3685 Y15.7734 
G01 X14.1769 Y15.8710 
G01 X13.9724 Y15.9375 
G01 X13.7600 Y15.9711 
G01 X13.5450 Y15.9711 
G01 X13.3326 Y15.9375 
G01 X13.1281 Y15.8710 
G01 X12.9365 Y15.7734 
G01 X12.9152 Y15.7579 
G01 X9.7509 Y15.7579 
G01 X9.7246 Y15.7614 
G01 X9.6983 Y15.7579 
G01 X9.6718 Y15.7579 
G01 X9.6462 Y15.7510 
G01 X9.6199 Y15.7476 
G01 X9.5954 Y15.7374 
G01 X9.5698 Y15.7306 
G01 X9.5469 Y15.7173 
G01 X9.5224 Y15.7072 
G01 X9.5014 Y15.6910 
G01 X9.4784 Y15.6778 
G01 X9.4597 Y15.6591 
G01 X9.4387 Y15.6429 
G01 X9.4281 Y15.6292 
G01 X9.4234 Y15.6385 
G01 X9.2970 Y15.8125 
G01 X9.1450 Y15.9645 
G01 X8.9710 Y16.0909 
G01 X8.7794 Y16.1885 
G01 X8.5749 Y16.2550 
G01 X8.3625 Y16.2886 
G01 X8.1475 Y16.2886 
G01 X7.9351 Y16.2550 
G01 X7.7306 Y16.1885 
G01 X7.5390 Y16.0909 
G01 X7.3650 Y15.9645 
G01 X7.2130 Y15.8125 
G01 X7.1345 Y15.7044 
G01 X2.7805 Y15.7044 
G01 X2.6294 Y15.6744 
G01 X2.4871 Y15.6154 
G01 X2.3591 Y15.5298 
G01 X2.0416 Y15.2123 
G01 X1.9327 Y15.1034 
G01 X1.8471 Y14.9754 
G01 X1.7881 Y14.8331 
G01 X1.7581 Y14.6820 
G01 X1.7581 Y11.8309 
G01 X1.6965 Y11.8309 
G01 X1.5354 Y11.8054 
G01 X1.3803 Y11.7550 
G01 X1.2351 Y11.6810 
G01 X1.1032 Y11.5851 
G01 X0.9879 Y11.4698 
G01 X0.8920 Y11.3379 
G01 X0.8180 Y11.1926 
G01 X0.7676 Y11.0376 
G01 X0.7421 Y10.8765 
G01 X0.7421 Y10.7135 
G01 X0.7676 Y10.5524 
G01 X0.8180 Y10.3973 
G01 X0.8920 Y10.2521 
G01 X0.9879 Y10.1202 
G01 X1.1032 Y10.0049 
G01 X1.2351 Y9.9090 
G01 X1.3803 Y9.8350 
G01 X1.5354 Y9.7846 
G01 X1.6965 Y9.7591 
G01 X3.3835 Y9.7591 
G01 X3.5446 Y9.7846 
G01 X3.6996 Y9.8350 
G01 X3.8449 Y9.9090 
G01 X3.9768 Y10.0049 
G01 X4.0094 Y10.0374 
G01 X4.0381 Y10.0431 
G01 X4.1804 Y10.1021 
G01 X4.3084 Y10.1877 
G01 X4.4514 Y10.3306 
G01 X4.9938 Y10.3306 
G01 X5.0133 Y10.2968 
G01 X5.0643 Y10.2458 
G01 X5.1268 Y10.2098 
G01 X5.1964 Y10.1911 
G01 X6.8686 Y10.1911 
G01 X6.9382 Y10.2098 
G01 X7.0007 Y10.2458 
G01 X7.0517 Y10.2968 
G01 X7.0877 Y10.3593 
G01 X7.1064 Y10.4289 
G01 X7.1064 Y11.8011 
G01 X7.0877 Y11.8707 
G01 X7.0517 Y11.9332 
G01 X7.0007 Y11.9842 
G01 X6.9382 Y12.0202 
G01 X6.8686 Y12.0389 
G01 X5.1964 Y12.0389 
G01 X5.1268 Y12.0202 
G01 X5.0643 Y11.9842 
G01 X5.0133 Y11.9332 
G01 X4.9909 Y11.8944 
G01 X4.0505 Y11.8944 
G01 X3.8994 Y11.8643 
G01 X3.7571 Y11.8054 
G01 X3.6876 Y11.7589 
G01 X3.5446 Y11.8054 
G01 X3.3835 Y11.8309 
G01 X3.3219 Y11.8309 
G01 X3.3219 Y14.1406 
G01 X7.1345 Y14.1406 
G01 X7.2130 Y14.0325 
G01 X7.3650 Y13.8805 
G01 X7.4767 Y13.7994 
G01 X7.0712 Y13.7994 
G01 X7.0517 Y13.8332 
G01 X7.0007 Y13.8842 
G01 X6.9382 Y13.9202 
G01 X6.8686 Y13.9389 
G01 X5.1964 Y13.9389 
G01 X5.1268 Y13.9202 
G01 X5.0643 Y13.8842 
G01 X5.0133 Y13.8332 
G01 X4.9773 Y13.7707 
G01 X4.9586 Y13.7011 
G01 X4.9586 Y12.3289 
G01 X4.9773 Y12.2593 
G01 X5.0133 Y12.1968 
G01 X5.0643 Y12.1458 
G01 X5.1268 Y12.1098 
G01 X5.1964 Y12.0911 
G01 X6.8686 Y12.0911 
G01 X6.9382 Y12.1098 
G01 X7.0007 Y12.1458 
G01 X7.0517 Y12.1968 
G01 X7.0741 Y12.2356 
G01 X7.6136 Y12.2356 
G01 X7.7566 Y12.0927 
G01 X7.7906 Y12.0699 
G01 X7.7906 Y9.6694 
G01 X7.0726 Y9.6694 
G01 X7.0517 Y9.7057 
G01 X7.0007 Y9.7567 
G01 X6.9382 Y9.7927 
G01 X6.8686 Y9.8114 
G01 X5.1964 Y9.8114 
G01 X5.1268 Y9.7927 
G01 X5.0643 Y9.7567 
G01 X5.0133 Y9.7057 
G01 X4.9924 Y9.6694 
G01 X4.6830 Y9.6694 
G01 X4.5319 Y9.6394 
G01 X4.3896 Y9.5804 
G01 X4.2616 Y9.4948 
G01 X3.8813 Y9.1146 
G01 X3.8449 Y9.1410 
G01 X3.6996 Y9.2150 
G01 X3.5446 Y9.2654 
G01 X3.3835 Y9.2909 
G01 X1.6965 Y9.2909 
G01 X1.5354 Y9.2654 
G01 X1.3803 Y9.2150 
G01 X1.2351 Y9.1410 
G01 X1.1032 Y9.0451 
G01 X0.9879 Y8.9298 
G01 X0.8920 Y8.7979 
G01 X0.8180 Y8.6526 
G01 X0.7676 Y8.4976 
G01 X0.7421 Y8.3365 
G01 X0.7421 Y8.1735 
G01 X0.7676 Y8.0124 
G01 X0.8180 Y7.8574 
G01 X0.8920 Y7.7121 
G01 X0.9781 Y7.5936 
G01 X0.9653 Y7.5862 
G01 X0.9408 Y7.5761 
G01 X0.9198 Y7.5599 
G01 X0.8968 Y7.5467 
G01 X0.8781 Y7.5279 
G01 X0.8571 Y7.5118 
G01 X0.8409 Y7.4908 
G01 X0.8222 Y7.4720 
G01 X0.8089 Y7.4491 
G01 X0.7928 Y7.4280 
G01 X0.7827 Y7.4036 
G01 X0.7694 Y7.3806 
G01 X0.7626 Y7.3550 
G01 X0.7524 Y7.3305 
G01 X0.7490 Y7.3042 
G01 X0.7421 Y7.2786 
G01 X0.7421 Y7.2521 
G01 X0.7386 Y7.2259 
G01 X0.7421 Y7.1996 
G01 X0.7421 Y6.6980 
G01 X0.7388 Y6.6770 
G01 X0.7421 Y6.6454 
G01 X0.7421 Y6.6137 
G01 X0.7476 Y6.5932 
G01 X0.7498 Y6.5720 
G01 X0.7612 Y6.5424 
G01 X0.7694 Y6.5117 
G01 X0.7800 Y6.4933 
G01 X0.7876 Y6.4735 
G01 X0.8063 Y6.4478 
G01 X0.8222 Y6.4203 
G01 X0.8372 Y6.4053 
G01 X0.8497 Y6.3881 
G01 X0.8744 Y6.3681 
G01 X0.8968 Y6.3457 
G01 X0.9152 Y6.3350 
G01 X0.9317 Y6.3217 
G01 X0.9367 Y6.3195 
G01 X0.8920 Y6.2579 
G01 X0.8180 Y6.1126 
G01 X0.7676 Y5.9576 
G01 X0.7421 Y5.7965 
G01 X0.7421 Y5.6335 
G01 X0.7676 Y5.4724 
G01 X0.8180 Y5.3174 
G01 X0.8920 Y5.1721 
G01 X0.9367 Y5.1105 
G01 X0.9317 Y5.1083 
G01 X0.9152 Y5.0949 
G01 X0.8968 Y5.0843 
G01 X0.8744 Y5.0619 
G01 X0.8497 Y5.0419 
G01 X0.8372 Y5.0247 
G01 X0.8222 Y5.0097 
G01 X0.8063 Y4.9822 
G01 X0.7876 Y4.9565 
G01 X0.7800 Y4.9367 
G01 X0.7694 Y4.9183 
G01 X0.7612 Y4.8876 
G01 X0.7498 Y4.8580 
G01 X0.7476 Y4.8368 
G01 X0.7421 Y4.8163 
G01 X0.7421 Y4.7846 
G01 X0.7388 Y4.7530 
G01 X0.7421 Y4.7320 
G01 X0.7421 Y1.0902 
G01 X0.7694 Y0.9883 
G01 X0.8222 Y0.8968 
G00 Z2.0000  F3000
G00 X5.0027 Y8.0244  F3000
G01 Z-0.2000 F200.00 
G01 X5.0305 Y8.0522 F500.00 
G01 X5.0643 Y8.0183 
G01 X5.1268 Y7.9823 
G01 X5.1964 Y7.9636 
G01 X6.7088 Y7.9636 
G01 X6.7063 Y7.9544 
G01 X6.7063 Y7.9114 
G01 X5.1964 Y7.9114 
G01 X5.1653 Y7.9031 
G01 X5.0988 Y7.9696 
G01 X5.0062 Y8.0235 
G01 X5.0027 Y8.0244 
G00 Z2.0000  F3000
G00 X8.7114 Y8.0825  F3000
G01 Z-0.2000 F200.00 
G01 X8.7060 Y8.1024 F500.00 
G01 X8.6983 Y8.1158 
G01 X8.7795 Y8.1320 
G01 X8.7114 Y8.0825 
G00 Z2.0000  F3000
G00 X9.0477 Y8.2663  F3000
G01 Z-0.2000 F200.00 
G01 X9.0684 Y8.2802 F500.00 
G01 X9.0709 Y8.2827 
G01 X9.1798 Y8.3916 
G01 X9.2654 Y8.5196 
G01 X9.3244 Y8.6619 
G01 X9.3544 Y8.8130 
G01 X9.3544 Y11.9261 
G01 X9.4786 Y11.9261 
G01 X9.5482 Y11.9448 
G01 X9.6107 Y11.9808 
G01 X9.6617 Y12.0318 
G01 X9.6977 Y12.0943 
G01 X9.7064 Y12.1265 
G01 X9.7196 Y12.1189 
G01 X9.7930 Y12.0992 
G01 X9.8215 Y12.0915 
G01 X9.9271 Y12.0915 
G01 X9.9686 Y12.1027 
G01 X9.9686 Y11.2139 
G01 X9.9873 Y11.1443 
G01 X10.0233 Y11.0818 
G01 X10.0743 Y11.0308 
G01 X10.1368 Y10.9948 
G01 X10.1606 Y10.9884 
G01 X10.1606 Y10.8905 
G01 X10.1906 Y10.7394 
G01 X10.2496 Y10.5971 
G01 X10.3352 Y10.4691 
G01 X11.1436 Y9.6606 
G01 X11.1436 Y9.0064 
G01 X11.1623 Y8.9368 
G01 X11.1983 Y8.8743 
G01 X11.2493 Y8.8233 
G01 X11.3118 Y8.7873 
G01 X11.3814 Y8.7686 
G01 X12.7536 Y8.7686 
G01 X12.8232 Y8.7873 
G01 X12.8857 Y8.8233 
G01 X12.9367 Y8.8743 
G01 X12.9727 Y8.9368 
G01 X12.9914 Y9.0064 
G01 X12.9914 Y10.5523 
G01 X13.0436 Y10.5523 
G01 X13.0436 Y9.0064 
G01 X13.0623 Y8.9368 
G01 X13.0983 Y8.8743 
G01 X13.1493 Y8.8233 
G01 X13.1856 Y8.8024 
G01 X13.1856 Y8.0251 
G01 X13.1493 Y8.0042 
G01 X13.0983 Y7.9532 
G01 X13.0623 Y7.8907 
G01 X13.0436 Y7.8211 
G01 X13.0436 Y6.1489 
G01 X13.0623 Y6.0793 
G01 X13.0983 Y6.0168 
G01 X13.1493 Y5.9658 
G01 X13.2118 Y5.9298 
G01 X13.2814 Y5.9111 
G01 X14.6536 Y5.9111 
G01 X14.7232 Y5.9298 
G01 X14.7857 Y5.9658 
G01 X14.8367 Y6.0168 
G01 X14.8727 Y6.0793 
G01 X14.8914 Y6.1489 
G01 X14.8914 Y7.0756 
G01 X14.8946 Y7.0738 
G01 X14.9201 Y7.0670 
G01 X14.9446 Y7.0568 
G01 X14.9709 Y7.0533 
G01 X14.9965 Y7.0465 
G01 X15.0230 Y7.0465 
G01 X15.0493 Y7.0430 
G01 X15.0756 Y7.0465 
G01 X15.0931 Y7.0465 
G01 X15.0931 Y6.0389 
G01 X14.5731 Y5.5189 
G01 X13.2814 Y5.5189 
G01 X13.2118 Y5.5002 
G01 X13.1493 Y5.4642 
G01 X13.0983 Y5.4132 
G01 X13.0623 Y5.3507 
G01 X13.0436 Y5.2811 
G01 X13.0436 Y3.7352 
G01 X12.9914 Y3.7352 
G01 X12.9914 Y5.2811 
G01 X12.9727 Y5.3507 
G01 X12.9367 Y5.4132 
G01 X12.8857 Y5.4642 
G01 X12.8494 Y5.4851 
G01 X12.8494 Y5.9449 
G01 X12.8857 Y5.9658 
G01 X12.9367 Y6.0168 
G01 X12.9727 Y6.0793 
G01 X12.9914 Y6.1489 
G01 X12.9914 Y7.8211 
G01 X12.9727 Y7.8907 
G01 X12.9367 Y7.9532 
G01 X12.8857 Y8.0042 
G01 X12.8232 Y8.0402 
G01 X12.7536 Y8.0589 
G01 X11.3814 Y8.0589 
G01 X11.3118 Y8.0402 
G01 X11.2493 Y8.0042 
G01 X11.1983 Y7.9532 
G01 X11.1623 Y7.8907 
G01 X11.1436 Y7.8211 
G01 X11.1436 Y7.7669 
G01 X10.6455 Y7.7669 
G01 X10.5670 Y7.8750 
G01 X10.4150 Y8.0270 
G01 X10.2410 Y8.1534 
G01 X10.0494 Y8.2510 
G01 X9.8449 Y8.3175 
G01 X9.6325 Y8.3511 
G01 X9.4175 Y8.3511 
G01 X9.2051 Y8.3175 
G01 X9.0477 Y8.2663 
G00 Z2.0000  F3000
G00 X8.7447 Y13.4819  F3000
G01 Z-0.2000 F200.00 
G01 X8.5789 Y13.4819 F500.00 
G01 X8.5448 Y13.5159 
G01 X8.4850 Y13.5758 
G01 X8.5749 Y13.5900 
G01 X8.7187 Y13.6367 
G01 X8.7187 Y13.5790 
G01 X8.7447 Y13.4819 
G00 Z2.0000  F3000
G00 X26.8611 Y10.9656  F3000
G01 Z-0.2000 F200.00 
G01 X26.9458 Y10.9656 F500.00 
G01 X26.8804 Y10.9323 
G01 X26.8725 Y10.9266 
G01 X26.8629 Y10.9624 
G01 X26.8611 Y10.9656 
G00 Z2.0000  F3000
G00 X0.7582 Y0.8477  F3000
G01 Z-0.2000 F200.00 
G01 X0.8477 Y0.7582 F500.00 
G01 X0.9574 Y0.6949 
G01 X1.0797 Y0.6621 
G01 X16.6686 Y0.6621 
G01 X16.7000 Y0.6705 
G01 X16.7909 Y0.6949 
G01 X16.8386 Y0.7224 
G01 X16.9005 Y0.7582 
G01 X16.9887 Y0.8463 
G01 X17.0160 Y0.8927 
G01 X17.0534 Y0.9574 
G01 X17.0862 Y1.0797 
G01 X17.0862 Y1.2063 
G01 X17.0778 Y1.2377 
G01 X17.0534 Y1.3286 
G01 X17.0258 Y1.3764 
G01 X16.9901 Y1.4383 
G01 X16.7732 Y1.6551 
G01 X16.5354 Y2.2293 
G01 X16.5354 Y2.8507 
G01 X16.7732 Y3.4249 
G01 X17.2126 Y3.8643 
G01 X17.7868 Y4.1021 
G01 X18.4082 Y4.1021 
G01 X18.9824 Y3.8643 
G01 X19.4218 Y3.4249 
G01 X19.6596 Y2.8507 
G01 X19.6596 Y2.2293 
G01 X19.4218 Y1.6551 
G01 X19.2049 Y1.4383 
G01 X19.1676 Y1.3736 
G01 X19.1416 Y1.3286 
G01 X19.1180 Y1.2405 
G01 X19.1088 Y1.2063 
G01 X19.1088 Y1.0797 
G01 X19.1416 Y0.9574 
G01 X19.1774 Y0.8955 
G01 X19.2049 Y0.8477 
G01 X19.2944 Y0.7582 
G01 X19.3592 Y0.7208 
G01 X19.4041 Y0.6949 
G01 X19.4922 Y0.6713 
G01 X19.5264 Y0.6621 
G01 X30.0228 Y0.6621 
G01 X30.1451 Y0.6949 
G01 X30.2548 Y0.7582 
G01 X30.3443 Y0.8477 
G01 X30.4076 Y0.9574 
G01 X30.4404 Y1.0797 
G01 X30.4404 Y5.9687 
G01 X30.4431 Y5.9812 
G01 X30.4404 Y6.0319 
G01 X30.4404 Y6.0826 
G01 X30.4371 Y6.0949 
G01 X30.4364 Y6.1077 
G01 X30.4208 Y6.1559 
G01 X30.4076 Y6.2049 
G01 X30.4012 Y6.2159 
G01 X30.3973 Y6.2281 
G01 X30.3697 Y6.2706 
G01 X30.3529 Y6.2997 
G01 X30.4663 Y6.4132 
G01 X30.5884 Y6.5811 
G01 X30.6827 Y6.7661 
G01 X30.7468 Y6.9636 
G01 X30.7793 Y7.1687 
G01 X30.7793 Y7.3763 
G01 X30.7468 Y7.5814 
G01 X30.6827 Y7.7789 
G01 X30.5884 Y7.9639 
G01 X30.4663 Y8.1318 
G01 X30.3195 Y8.2787 
G01 X30.1516 Y8.4007 
G01 X29.9666 Y8.4950 
G01 X29.7691 Y8.5591 
G01 X29.6846 Y8.5725 
G01 X29.7691 Y8.5859 
G01 X29.9666 Y8.6500 
G01 X30.1516 Y8.7443 
G01 X30.3195 Y8.8663 
G01 X30.4663 Y9.0132 
G01 X30.5884 Y9.1811 
G01 X30.6827 Y9.3661 
G01 X30.7468 Y9.5636 
G01 X30.7793 Y9.7687 
G01 X30.7793 Y9.9763 
G01 X30.7468 Y10.1814 
G01 X30.6827 Y10.3789 
G01 X30.5884 Y10.5639 
G01 X30.4663 Y10.7318 
G01 X30.3195 Y10.8787 
G01 X30.1516 Y11.0007 
G01 X29.9666 Y11.0950 
G01 X29.7691 Y11.1591 
G01 X29.5640 Y11.1916 
G01 X29.0798 Y11.1916 
G01 X27.8544 Y12.4170 
G01 X27.7133 Y12.5113 
G01 X27.5564 Y12.5763 
G01 X27.3899 Y12.6094 
G01 X16.9680 Y12.6094 
G01 X16.9719 Y12.6240 
G01 X16.9719 Y12.7506 
G01 X16.9547 Y12.8148 
G01 X16.9391 Y12.8729 
G01 X16.9235 Y12.8999 
G01 X16.8758 Y12.9826 
G01 X16.7862 Y13.0721 
G01 X16.7732 Y13.0851 
G01 X16.5354 Y13.6593 
G01 X16.5354 Y14.2807 
G01 X16.7732 Y14.8549 
G01 X16.9801 Y15.0617 
G01 X17.0191 Y15.1292 
G01 X17.0434 Y15.1714 
G01 X17.0663 Y15.2567 
G01 X17.0762 Y15.2937 
G01 X17.0762 Y15.4203 
G01 X17.0434 Y15.5426 
G01 X17.0093 Y15.6017 
G01 X16.9801 Y15.6523 
G01 X16.8905 Y15.7418 
G01 X16.8230 Y15.7808 
G01 X16.7809 Y15.8051 
G01 X16.6955 Y15.8280 
G01 X16.6586 Y15.8379 
G01 X14.4158 Y15.8379 
G01 X14.4104 Y15.8418 
G01 X14.2076 Y15.9451 
G01 X13.9911 Y16.0155 
G01 X13.7663 Y16.0511 
G01 X13.5387 Y16.0511 
G01 X13.3139 Y16.0155 
G01 X13.0974 Y15.9451 
G01 X12.8946 Y15.8418 
G01 X12.8892 Y15.8379 
G01 X9.7561 Y15.8379 
G01 X9.7246 Y15.8420 
G01 X9.6931 Y15.8379 
G01 X9.6613 Y15.8379 
G01 X9.6306 Y15.8297 
G01 X9.5990 Y15.8255 
G01 X9.5697 Y15.8133 
G01 X9.5390 Y15.8051 
G01 X9.5114 Y15.7892 
G01 X9.4821 Y15.7771 
G01 X9.4568 Y15.7577 
G01 X9.4419 Y15.7491 
G01 X9.3580 Y15.8646 
G01 X9.1971 Y16.0255 
G01 X9.0129 Y16.1593 
G01 X8.8101 Y16.2627 
G01 X8.5936 Y16.3330 
G01 X8.3688 Y16.3686 
G01 X8.1412 Y16.3686 
G01 X7.9164 Y16.3330 
G01 X7.6999 Y16.2627 
G01 X7.4971 Y16.1593 
G01 X7.3129 Y16.0255 
G01 X7.1520 Y15.8646 
G01 X7.0937 Y15.7844 
G01 X2.7726 Y15.7844 
G01 X2.6061 Y15.7513 
G01 X2.4492 Y15.6863 
G01 X2.3081 Y15.5920 
G01 X1.9906 Y15.2745 
G01 X1.8705 Y15.1544 
G01 X1.7762 Y15.0133 
G01 X1.7112 Y14.8564 
G01 X1.6781 Y14.6899 
G01 X1.6781 Y11.9090 
G01 X1.5167 Y11.8834 
G01 X1.3496 Y11.8291 
G01 X1.1931 Y11.7494 
G01 X1.0510 Y11.6462 
G01 X0.9268 Y11.5220 
G01 X0.8236 Y11.3799 
G01 X0.7439 Y11.2234 
G01 X0.6896 Y11.0563 
G01 X0.6621 Y10.8828 
G01 X0.6621 Y10.7072 
G01 X0.6896 Y10.5337 
G01 X0.7439 Y10.3666 
G01 X0.8236 Y10.2101 
G01 X0.9268 Y10.0680 
G01 X1.0510 Y9.9438 
G01 X1.1931 Y9.8406 
G01 X1.3496 Y9.7609 
G01 X1.5167 Y9.7066 
G01 X1.6902 Y9.6791 
G01 X3.3898 Y9.6791 
G01 X3.5633 Y9.7066 
G01 X3.7304 Y9.7609 
G01 X3.8869 Y9.8406 
G01 X4.0290 Y9.9438 
G01 X4.0488 Y9.9637 
G01 X4.0614 Y9.9662 
G01 X4.2183 Y10.0312 
G01 X4.3594 Y10.1255 
G01 X4.4845 Y10.2506 
G01 X4.9476 Y10.2506 
G01 X4.9493 Y10.2477 
G01 X5.0152 Y10.1818 
G01 X5.0959 Y10.1352 
G01 X5.1859 Y10.1111 
G01 X6.8791 Y10.1111 
G01 X6.9691 Y10.1352 
G01 X7.0498 Y10.1818 
G01 X7.1157 Y10.2477 
G01 X7.1623 Y10.3284 
G01 X7.1864 Y10.4184 
G01 X7.1864 Y11.8116 
G01 X7.1623 Y11.9016 
G01 X7.1157 Y11.9823 
G01 X7.0498 Y12.0482 
G01 X7.0207 Y12.0650 
G01 X7.0498 Y12.0818 
G01 X7.1157 Y12.1477 
G01 X7.1202 Y12.1556 
G01 X7.5805 Y12.1556 
G01 X7.7056 Y12.0305 
G01 X7.7106 Y12.0272 
G01 X7.7106 Y9.7494 
G01 X7.1188 Y9.7494 
G01 X7.1157 Y9.7548 
G01 X7.0498 Y9.8207 
G01 X6.9691 Y9.8673 
G01 X6.8791 Y9.8914 
G01 X5.1859 Y9.8914 
G01 X5.0959 Y9.8673 
G01 X5.0152 Y9.8207 
G01 X4.9493 Y9.7548 
G01 X4.9462 Y9.7494 
G01 X4.6751 Y9.7494 
G01 X4.5086 Y9.7163 
G01 X4.3517 Y9.6513 
G01 X4.2106 Y9.5570 
G01 X3.8710 Y9.2175 
G01 X3.7304 Y9.2891 
G01 X3.5633 Y9.3434 
G01 X3.3898 Y9.3709 
G01 X1.6902 Y9.3709 
G01 X1.5167 Y9.3434 
G01 X1.3496 Y9.2891 
G01 X1.1931 Y9.2094 
G01 X1.0510 Y9.1062 
G01 X0.9268 Y8.9820 
G01 X0.8236 Y8.8399 
G01 X0.7439 Y8.6834 
G01 X0.6896 Y8.5163 
G01 X0.6621 Y8.3428 
G01 X0.6621 Y8.1672 
G01 X0.6896 Y7.9937 
G01 X0.7439 Y7.8266 
G01 X0.8236 Y7.6701 
G01 X0.8612 Y7.6184 
G01 X0.8477 Y7.6107 
G01 X0.8252 Y7.5882 
G01 X0.8000 Y7.5688 
G01 X0.7807 Y7.5436 
G01 X0.7582 Y7.5211 
G01 X0.7423 Y7.4936 
G01 X0.7229 Y7.4684 
G01 X0.7108 Y7.4390 
G01 X0.6949 Y7.4115 
G01 X0.6866 Y7.3808 
G01 X0.6745 Y7.3514 
G01 X0.6703 Y7.3199 
G01 X0.6621 Y7.2892 
G01 X0.6621 Y7.2574 
G01 X0.6579 Y7.2259 
G01 X0.6621 Y7.1943 
G01 X0.6621 Y6.7043 
G01 X0.6581 Y6.6791 
G01 X0.6621 Y6.6412 
G01 X0.6621 Y6.6031 
G01 X0.6687 Y6.5785 
G01 X0.6714 Y6.5532 
G01 X0.6850 Y6.5176 
G01 X0.6949 Y6.4808 
G01 X0.7076 Y6.4588 
G01 X0.7167 Y6.4350 
G01 X0.7391 Y6.4042 
G01 X0.7582 Y6.3712 
G01 X0.7762 Y6.3532 
G01 X0.7912 Y6.3326 
G01 X0.8208 Y6.3086 
G01 X0.8261 Y6.3033 
G01 X0.8236 Y6.2999 
G01 X0.7439 Y6.1434 
G01 X0.6896 Y5.9763 
G01 X0.6621 Y5.8028 
G01 X0.6621 Y5.6272 
G01 X0.6896 Y5.4537 
G01 X0.7439 Y5.2866 
G01 X0.8236 Y5.1301 
G01 X0.8261 Y5.1267 
G01 X0.8208 Y5.1214 
G01 X0.7912 Y5.0974 
G01 X0.7762 Y5.0768 
G01 X0.7582 Y5.0588 
G01 X0.7391 Y5.0258 
G01 X0.7167 Y4.9950 
G01 X0.7076 Y4.9712 
G01 X0.6949 Y4.9492 
G01 X0.6850 Y4.9123 
G01 X0.6714 Y4.8768 
G01 X0.6687 Y4.8515 
G01 X0.6621 Y4.8268 
G01 X0.6621 Y4.7888 
G01 X0.6581 Y4.7509 
G01 X0.6621 Y4.7257 
G01 X0.6621 Y1.0797 
G01 X0.6949 Y0.9574 
G01 X0.7582 Y0.8477 
G00 Z2.0000  F3000
G00 X3.4019 Y11.9090  F3000
G01 Z-0.2000 F200.00 
G01 X3.4019 Y14.0606 F500.00 
G01 X7.0937 Y14.0606 
G01 X7.1520 Y13.9804 
G01 X7.2530 Y13.8794 
G01 X7.1174 Y13.8794 
G01 X7.1157 Y13.8823 
G01 X7.0498 Y13.9482 
G01 X6.9691 Y13.9948 
G01 X6.8791 Y14.0189 
G01 X5.1859 Y14.0189 
G01 X5.0959 Y13.9948 
G01 X5.0152 Y13.9482 
G01 X4.9493 Y13.8823 
G01 X4.9027 Y13.8016 
G01 X4.8786 Y13.7116 
G01 X4.8786 Y12.3184 
G01 X4.9027 Y12.2284 
G01 X4.9493 Y12.1477 
G01 X5.0152 Y12.0818 
G01 X5.0443 Y12.0650 
G01 X5.0152 Y12.0482 
G01 X4.9493 Y11.9823 
G01 X4.9447 Y11.9744 
G01 X4.0426 Y11.9744 
G01 X3.8761 Y11.9413 
G01 X3.7192 Y11.8763 
G01 X3.6754 Y11.8470 
G01 X3.5633 Y11.8834 
G01 X3.4019 Y11.9090 
G00 Z2.0000  F3000
G00 X9.4344 Y11.8461  F3000
G01 Z-0.2000 F200.00 
G01 X9.4891 Y11.8461 F500.00 
G01 X9.5791 Y11.8702 
G01 X9.6598 Y11.9168 
G01 X9.7257 Y11.9827 
G01 X9.7515 Y12.0275 
G01 X9.8110 Y12.0115 
G01 X9.8886 Y12.0115 
G01 X9.8886 Y11.2034 
G01 X9.9127 Y11.1134 
G01 X9.9593 Y11.0327 
G01 X10.0252 Y10.9668 
G01 X10.0806 Y10.9348 
G01 X10.0806 Y10.8826 
G01 X10.1137 Y10.7161 
G01 X10.1787 Y10.5592 
G01 X10.2730 Y10.4181 
G01 X11.0636 Y9.6275 
G01 X11.0636 Y8.9959 
G01 X11.0877 Y8.9059 
G01 X11.1343 Y8.8252 
G01 X11.2002 Y8.7593 
G01 X11.2809 Y8.7127 
G01 X11.3709 Y8.6886 
G01 X12.7641 Y8.6886 
G01 X12.8541 Y8.7127 
G01 X12.9348 Y8.7593 
G01 X13.0007 Y8.8252 
G01 X13.0175 Y8.8543 
G01 X13.0343 Y8.8252 
G01 X13.1002 Y8.7593 
G01 X13.1056 Y8.7562 
G01 X13.1056 Y8.0713 
G01 X13.1002 Y8.0682 
G01 X13.0343 Y8.0023 
G01 X13.0175 Y7.9732 
G01 X13.0007 Y8.0023 
G01 X12.9348 Y8.0682 
G01 X12.8541 Y8.1148 
G01 X12.7641 Y8.1389 
G01 X11.3709 Y8.1389 
G01 X11.2809 Y8.1148 
G01 X11.2002 Y8.0682 
G01 X11.1343 Y8.0023 
G01 X11.0877 Y7.9216 
G01 X11.0677 Y7.8469 
G01 X10.6863 Y7.8469 
G01 X10.6280 Y7.9271 
G01 X10.4671 Y8.0880 
G01 X10.2829 Y8.2218 
G01 X10.0801 Y8.3252 
G01 X9.8636 Y8.3955 
G01 X9.6388 Y8.4311 
G01 X9.4112 Y8.4311 
G01 X9.2896 Y8.4118 
G01 X9.3363 Y8.4817 
G01 X9.4013 Y8.6386 
G01 X9.4344 Y8.8051 
G01 X9.4344 Y11.8461 
G00 Z2.0000  F3000
G00 X13.0175 Y5.9968  F3000
G01 Z-0.2000 F200.00 
G01 X13.0343 Y5.9677 F500.00 
G01 X13.1002 Y5.9018 
G01 X13.1809 Y5.8552 
G01 X13.2709 Y5.8311 
G01 X14.6641 Y5.8311 
G01 X14.7541 Y5.8552 
G01 X14.8348 Y5.9018 
G01 X14.9007 Y5.9677 
G01 X14.9473 Y6.0484 
G01 X14.9714 Y6.1384 
G01 X14.9714 Y6.9704 
G01 X14.9860 Y6.9665 
G01 X15.0131 Y6.9665 
G01 X15.0131 Y6.0720 
G01 X14.5400 Y5.5989 
G01 X13.2709 Y5.5989 
G01 X13.1809 Y5.5748 
G01 X13.1002 Y5.5282 
G01 X13.0343 Y5.4623 
G01 X13.0175 Y5.4332 
G01 X13.0007 Y5.4623 
G01 X12.9348 Y5.5282 
G01 X12.9294 Y5.5313 
G01 X12.9294 Y5.8987 
G01 X12.9348 Y5.9018 
G01 X13.0007 Y5.9677 
G01 X13.0175 Y5.9968 
G00 Z2.0000  F3000
G00 X0.6942 Y0.7986  F3000
G01 Z-0.2000 F200.00 
G01 X0.7986 Y0.6942 F500.00 
G01 X0.9265 Y0.6203 
G01 X1.0692 Y0.5821 
G01 X16.6791 Y0.5821 
G01 X16.8218 Y0.6203 
G01 X16.9497 Y0.6942 
G01 X17.0525 Y0.7970 
G01 X17.1279 Y0.9265 
G01 X17.1555 Y1.0293 
G01 X17.1662 Y1.0692 
G01 X17.1662 Y1.2168 
G01 X17.1279 Y1.3595 
G01 X17.0541 Y1.4874 
G01 X16.8410 Y1.7005 
G01 X16.6154 Y2.2452 
G01 X16.6154 Y2.8348 
G01 X16.8410 Y3.3795 
G01 X17.2580 Y3.7965 
G01 X17.8027 Y4.0221 
G01 X18.3923 Y4.0221 
G01 X18.9370 Y3.7965 
G01 X19.3540 Y3.3795 
G01 X19.5796 Y2.8348 
G01 X19.5796 Y2.2452 
G01 X19.3540 Y1.7005 
G01 X19.1409 Y1.4874 
G01 X19.0671 Y1.3595 
G01 X19.0288 Y1.2168 
G01 X19.0288 Y1.0692 
G01 X19.0386 Y1.0326 
G01 X19.0671 Y0.9265 
G01 X19.1409 Y0.7986 
G01 X19.2453 Y0.6942 
G01 X19.3732 Y0.6203 
G01 X19.5159 Y0.5821 
G01 X30.0333 Y0.5821 
G01 X30.1760 Y0.6203 
G01 X30.3039 Y0.6942 
G01 X30.4083 Y0.7986 
G01 X30.4822 Y0.9265 
G01 X30.5204 Y1.0692 
G01 X30.5204 Y5.9603 
G01 X30.5235 Y5.9749 
G01 X30.5204 Y6.0340 
G01 X30.5204 Y6.0931 
G01 X30.5165 Y6.1075 
G01 X30.5158 Y6.1224 
G01 X30.4975 Y6.1786 
G01 X30.4822 Y6.2358 
G01 X30.4747 Y6.2486 
G01 X30.4701 Y6.2628 
G01 X30.4540 Y6.2877 
G01 X30.5274 Y6.3610 
G01 X30.6568 Y6.5392 
G01 X30.7568 Y6.7354 
G01 X30.8248 Y6.9449 
G01 X30.8593 Y7.1624 
G01 X30.8593 Y7.3826 
G01 X30.8248 Y7.6001 
G01 X30.7568 Y7.8096 
G01 X30.6568 Y8.0058 
G01 X30.5274 Y8.1839 
G01 X30.3716 Y8.3397 
G01 X30.1935 Y8.4691 
G01 X29.9973 Y8.5691 
G01 X29.9868 Y8.5725 
G01 X29.9973 Y8.5759 
G01 X30.1935 Y8.6759 
G01 X30.3716 Y8.8053 
G01 X30.5274 Y8.9610 
G01 X30.6568 Y9.1392 
G01 X30.7568 Y9.3354 
G01 X30.8248 Y9.5449 
G01 X30.8593 Y9.7624 
G01 X30.8593 Y9.9826 
G01 X30.8248 Y10.2001 
G01 X30.7568 Y10.4096 
G01 X30.6568 Y10.6058 
G01 X30.5274 Y10.7840 
G01 X30.3716 Y10.9397 
G01 X30.1935 Y11.0691 
G01 X29.9973 Y11.1691 
G01 X29.7878 Y11.2371 
G01 X29.5703 Y11.2716 
G01 X29.1129 Y11.2716 
G01 X27.9054 Y12.4791 
G01 X27.7512 Y12.5822 
G01 X27.5797 Y12.6532 
G01 X27.3978 Y12.6894 
G01 X17.0519 Y12.6894 
G01 X17.0519 Y12.7611 
G01 X17.0318 Y12.8360 
G01 X17.0136 Y12.9038 
G01 X16.9955 Y12.9352 
G01 X16.9398 Y13.0317 
G01 X16.8410 Y13.1305 
G01 X16.6154 Y13.6752 
G01 X16.6154 Y14.2648 
G01 X16.8410 Y14.8095 
G01 X17.0441 Y15.0126 
G01 X17.1179 Y15.1405 
G01 X17.1562 Y15.2831 
G01 X17.1562 Y15.4308 
G01 X17.1472 Y15.4642 
G01 X17.1179 Y15.5735 
G01 X17.0441 Y15.7014 
G01 X16.9397 Y15.8058 
G01 X16.8118 Y15.8797 
G01 X16.6691 Y15.9179 
G01 X14.4373 Y15.9179 
G01 X14.2383 Y16.0193 
G01 X14.0099 Y16.0935 
G01 X13.7726 Y16.1311 
G01 X13.5324 Y16.1311 
G01 X13.2951 Y16.0935 
G01 X13.0667 Y16.0193 
G01 X12.8677 Y15.9179 
G01 X9.7614 Y15.9179 
G01 X9.7246 Y15.9227 
G01 X9.6878 Y15.9179 
G01 X9.6507 Y15.9179 
G01 X9.6149 Y15.9083 
G01 X9.5782 Y15.9035 
G01 X9.5439 Y15.8893 
G01 X9.5081 Y15.8797 
G01 X9.4760 Y15.8611 
G01 X9.4632 Y15.8559 
G01 X9.4190 Y15.9167 
G01 X9.2492 Y16.0865 
G01 X9.0549 Y16.2277 
G01 X8.8408 Y16.3368 
G01 X8.6124 Y16.4110 
G01 X8.3751 Y16.4486 
G01 X8.1349 Y16.4486 
G01 X7.8976 Y16.4110 
G01 X7.6692 Y16.3368 
G01 X7.4551 Y16.2277 
G01 X7.2608 Y16.0865 
G01 X7.0910 Y15.9167 
G01 X7.0530 Y15.8644 
G01 X2.7647 Y15.8644 
G01 X2.5828 Y15.8282 
G01 X2.4113 Y15.7572 
G01 X2.2571 Y15.6541 
G01 X1.9396 Y15.3366 
G01 X1.8084 Y15.2054 
G01 X1.7053 Y15.0512 
G01 X1.6343 Y14.8797 
G01 X1.5981 Y14.6978 
G01 X1.5981 Y11.9773 
G01 X1.4980 Y11.9614 
G01 X1.3189 Y11.9033 
G01 X1.1512 Y11.8178 
G01 X0.9989 Y11.7072 
G01 X0.8658 Y11.5741 
G01 X0.7552 Y11.4218 
G01 X0.6697 Y11.2541 
G01 X0.6115 Y11.0750 
G01 X0.5821 Y10.8891 
G01 X0.5821 Y10.7009 
G01 X0.6115 Y10.5150 
G01 X0.6697 Y10.3359 
G01 X0.7552 Y10.1682 
G01 X0.8658 Y10.0159 
G01 X0.9989 Y9.8828 
G01 X1.1512 Y9.7722 
G01 X1.3189 Y9.6867 
G01 X1.4980 Y9.6285 
G01 X1.6839 Y9.5991 
G01 X3.3961 Y9.5991 
G01 X3.5820 Y9.6285 
G01 X3.7611 Y9.6867 
G01 X3.9288 Y9.7722 
G01 X4.0811 Y9.8828 
G01 X4.0895 Y9.8913 
G01 X4.2562 Y9.9603 
G01 X4.4104 Y10.0634 
G01 X4.5176 Y10.1706 
G01 X4.9133 Y10.1706 
G01 X4.9661 Y10.1178 
G01 X5.0650 Y10.0607 
G01 X5.1754 Y10.0311 
G01 X6.8896 Y10.0311 
G01 X7.0000 Y10.0607 
G01 X7.0989 Y10.1178 
G01 X7.1797 Y10.1986 
G01 X7.2368 Y10.2975 
G01 X7.2664 Y10.4079 
G01 X7.2664 Y11.8221 
G01 X7.2368 Y11.9325 
G01 X7.1797 Y12.0314 
G01 X7.1461 Y12.0650 
G01 X7.1567 Y12.0756 
G01 X7.5473 Y12.0756 
G01 X7.6306 Y11.9924 
G01 X7.6306 Y9.8294 
G01 X7.1542 Y9.8294 
G01 X7.0989 Y9.8847 
G01 X7.0000 Y9.9418 
G01 X6.8896 Y9.9714 
G01 X5.1754 Y9.9714 
G01 X5.0650 Y9.9418 
G01 X4.9661 Y9.8847 
G01 X4.9108 Y9.8294 
G01 X4.6672 Y9.8294 
G01 X4.4853 Y9.7932 
G01 X4.3138 Y9.7222 
G01 X4.1596 Y9.6191 
G01 X3.8556 Y9.3151 
G01 X3.7611 Y9.3633 
G01 X3.5820 Y9.4215 
G01 X3.3961 Y9.4509 
G01 X1.6839 Y9.4509 
G01 X1.4980 Y9.4215 
G01 X1.3189 Y9.3633 
G01 X1.1512 Y9.2778 
G01 X0.9989 Y9.1672 
G01 X0.8658 Y9.0341 
G01 X0.7552 Y8.8818 
G01 X0.6697 Y8.7141 
G01 X0.6115 Y8.5350 
G01 X0.5821 Y8.3491 
G01 X0.5821 Y8.1609 
G01 X0.6115 Y7.9750 
G01 X0.6697 Y7.7959 
G01 X0.7526 Y7.6333 
G01 X0.7430 Y7.6259 
G01 X0.7204 Y7.5965 
G01 X0.6942 Y7.5703 
G01 X0.6756 Y7.5382 
G01 X0.6531 Y7.5087 
G01 X0.6389 Y7.4745 
G01 X0.6203 Y7.4424 
G01 X0.6107 Y7.4066 
G01 X0.5965 Y7.3723 
G01 X0.5917 Y7.3355 
G01 X0.5821 Y7.2997 
G01 X0.5821 Y7.2626 
G01 X0.5773 Y7.2259 
G01 X0.5821 Y7.1891 
G01 X0.5821 Y6.7106 
G01 X0.5775 Y6.6812 
G01 X0.5821 Y6.6371 
G01 X0.5821 Y6.5926 
G01 X0.5898 Y6.5639 
G01 X0.5929 Y6.5344 
G01 X0.6088 Y6.4929 
G01 X0.6203 Y6.4500 
G01 X0.6352 Y6.4242 
G01 X0.6458 Y6.3965 
G01 X0.6720 Y6.3605 
G01 X0.6942 Y6.3221 
G01 X0.7152 Y6.3010 
G01 X0.7265 Y6.2855 
G01 X0.6697 Y6.1741 
G01 X0.6115 Y5.9950 
G01 X0.5821 Y5.8091 
G01 X0.5821 Y5.6209 
G01 X0.6115 Y5.4350 
G01 X0.6697 Y5.2559 
G01 X0.7265 Y5.1445 
G01 X0.7152 Y5.1289 
G01 X0.6942 Y5.1079 
G01 X0.6720 Y5.0695 
G01 X0.6458 Y5.0335 
G01 X0.6352 Y5.0058 
G01 X0.6203 Y4.9800 
G01 X0.6088 Y4.9371 
G01 X0.5929 Y4.8956 
G01 X0.5898 Y4.8661 
G01 X0.5821 Y4.8374 
G01 X0.5821 Y4.7929 
G01 X0.5775 Y4.7488 
G01 X0.5821 Y4.7194 
G01 X0.5821 Y1.0692 
G01 X0.6203 Y0.9265 
G01 X0.6942 Y0.7986 
G00 Z2.0000  F3000
G00 X3.4819 Y11.9773  F3000
G01 Z-0.2000 F200.00 
G01 X3.4819 Y13.9806 F500.00 
G01 X4.9345 Y13.9806 
G01 X4.8853 Y13.9314 
G01 X4.8282 Y13.8325 
G01 X4.7986 Y13.7221 
G01 X4.7986 Y12.3079 
G01 X4.8282 Y12.1975 
G01 X4.8853 Y12.0986 
G01 X4.9189 Y12.0650 
G01 X4.9083 Y12.0544 
G01 X4.0347 Y12.0544 
G01 X3.8528 Y12.0182 
G01 X3.6813 Y11.9472 
G01 X3.6632 Y11.9351 
G01 X3.5820 Y11.9614 
G01 X3.4819 Y11.9773 
G00 Z2.0000  F3000
G00 X9.5144 Y11.7701  F3000
G01 Z-0.2000 F200.00 
G01 X9.6100 Y11.7957 F500.00 
G01 X9.7089 Y11.8528 
G01 X9.7897 Y11.9336 
G01 X9.8004 Y11.9315 
G01 X9.8086 Y11.9315 
G01 X9.8086 Y11.1929 
G01 X9.8382 Y11.0825 
G01 X9.8953 Y10.9836 
G01 X9.9761 Y10.9028 
G01 X10.0006 Y10.8886 
G01 X10.0006 Y10.8747 
G01 X10.0368 Y10.6928 
G01 X10.1078 Y10.5213 
G01 X10.2109 Y10.3671 
G01 X10.9836 Y9.5944 
G01 X10.9836 Y8.9854 
G01 X11.0132 Y8.8750 
G01 X11.0703 Y8.7761 
G01 X11.1511 Y8.6953 
G01 X11.2500 Y8.6382 
G01 X11.3604 Y8.6086 
G01 X12.7746 Y8.6086 
G01 X12.8850 Y8.6382 
G01 X12.9839 Y8.6953 
G01 X13.0175 Y8.7289 
G01 X13.0256 Y8.7208 
G01 X13.0256 Y8.1067 
G01 X13.0175 Y8.0986 
G01 X12.9839 Y8.1322 
G01 X12.8850 Y8.1893 
G01 X12.7746 Y8.2189 
G01 X11.3604 Y8.2189 
G01 X11.2500 Y8.1893 
G01 X11.1511 Y8.1322 
G01 X11.0703 Y8.0514 
G01 X11.0132 Y7.9525 
G01 X11.0063 Y7.9269 
G01 X10.7270 Y7.9269 
G01 X10.6890 Y7.9792 
G01 X10.5192 Y8.1490 
G01 X10.3248 Y8.2902 
G01 X10.1108 Y8.3993 
G01 X9.8824 Y8.4735 
G01 X9.6451 Y8.5111 
G01 X9.4351 Y8.5111 
G01 X9.4782 Y8.6153 
G01 X9.5144 Y8.7972 
G01 X9.5144 Y11.7701 
G00 Z2.0000  F3000
G00 X13.0094 Y5.8633  F3000
G01 Z-0.2000 F200.00 
G01 X13.0175 Y5.8714 F500.00 
G01 X13.0511 Y5.8378 
G01 X13.1500 Y5.7807 
G01 X13.2604 Y5.7511 
G01 X14.5791 Y5.7511 
G01 X14.5069 Y5.6789 
G01 X13.2604 Y5.6789 
G01 X13.1500 Y5.6493 
G01 X13.0511 Y5.5922 
G01 X13.0175 Y5.5586 
G01 X13.0094 Y5.5667 
G01 X13.0094 Y5.8633 
G00 Z2.0000  F3000
G00 X0.6452 Y0.7344  F3000
G01 Z-0.2000 F200.00 
G01 X0.7344 Y0.6452 F500.00 
G01 X0.8394 Y0.5750 
G01 X0.9560 Y0.5267 
G01 X1.0799 Y0.5021 
G01 X16.6684 Y0.5021 
G01 X16.7083 Y0.5100 
G01 X16.7922 Y0.5267 
G01 X16.9088 Y0.5750 
G01 X16.9451 Y0.5992 
G01 X17.0138 Y0.6452 
G01 X17.1017 Y0.7331 
G01 X17.1254 Y0.7679 
G01 X17.1732 Y0.8394 
G01 X17.2215 Y0.9560 
G01 X17.2462 Y1.0799 
G01 X17.2462 Y1.2061 
G01 X17.2382 Y1.2460 
G01 X17.2215 Y1.3299 
G01 X17.1732 Y1.4466 
G01 X17.1490 Y1.4828 
G01 X17.1031 Y1.5515 
G01 X16.9089 Y1.7458 
G01 X16.6954 Y2.2611 
G01 X16.6954 Y2.8189 
G01 X16.9089 Y3.3342 
G01 X17.3033 Y3.7286 
G01 X17.8186 Y3.9421 
G01 X18.3764 Y3.9421 
G01 X18.8917 Y3.7286 
G01 X19.2861 Y3.3342 
G01 X19.4996 Y2.8189 
G01 X19.4996 Y2.2611 
G01 X19.2861 Y1.7458 
G01 X19.0919 Y1.5515 
G01 X19.0441 Y1.4800 
G01 X19.0218 Y1.4466 
G01 X18.9735 Y1.3299 
G01 X18.9572 Y1.2484 
G01 X18.9488 Y1.2061 
G01 X18.9488 Y1.0799 
G01 X18.9735 Y0.9560 
G01 X19.0218 Y0.8394 
G01 X19.0677 Y0.7707 
G01 X19.0919 Y0.7345 
G01 X19.1812 Y0.6452 
G01 X19.2527 Y0.5974 
G01 X19.2861 Y0.5750 
G01 X19.4028 Y0.5267 
G01 X19.4844 Y0.5105 
G01 X19.5266 Y0.5021 
G01 X30.0226 Y0.5021 
G01 X30.1464 Y0.5267 
G01 X30.2631 Y0.5750 
G01 X30.3680 Y0.6452 
G01 X30.4573 Y0.7344 
G01 X30.5275 Y0.8394 
G01 X30.5758 Y0.9560 
G01 X30.6004 Y1.0799 
G01 X30.6004 Y5.9941 
G01 X30.6034 Y6.0319 
G01 X30.6004 Y6.0571 
G01 X30.6004 Y6.0824 
G01 X30.5930 Y6.1196 
G01 X30.5885 Y6.1573 
G01 X30.5807 Y6.1814 
G01 X30.5758 Y6.2062 
G01 X30.5612 Y6.2413 
G01 X30.5513 Y6.2718 
G01 X30.5884 Y6.3089 
G01 X30.7252 Y6.4973 
G01 X30.8309 Y6.7047 
G01 X30.9029 Y6.9261 
G01 X30.9393 Y7.1561 
G01 X30.9393 Y7.3889 
G01 X30.9029 Y7.6189 
G01 X30.8309 Y7.8403 
G01 X30.7252 Y8.0477 
G01 X30.5884 Y8.2361 
G01 X30.4238 Y8.4007 
G01 X30.2354 Y8.5375 
G01 X30.1668 Y8.5725 
G01 X30.2354 Y8.6075 
G01 X30.4238 Y8.7443 
G01 X30.5884 Y8.9089 
G01 X30.7252 Y9.0973 
G01 X30.8309 Y9.3047 
G01 X30.9029 Y9.5261 
G01 X30.9393 Y9.7561 
G01 X30.9393 Y9.9889 
G01 X30.9029 Y10.2189 
G01 X30.8309 Y10.4403 
G01 X30.7252 Y10.6477 
G01 X30.5884 Y10.8361 
G01 X30.4238 Y11.0007 
G01 X30.2354 Y11.1375 
G01 X30.0280 Y11.2432 
G01 X29.8066 Y11.3152 
G01 X29.5766 Y11.3516 
G01 X29.1461 Y11.3516 
G01 X27.9564 Y12.5413 
G01 X27.7890 Y12.6531 
G01 X27.6031 Y12.7301 
G01 X27.4056 Y12.7694 
G01 X17.1281 Y12.7694 
G01 X17.1198 Y12.8109 
G01 X17.1072 Y12.8742 
G01 X17.0589 Y12.9909 
G01 X16.9888 Y13.0959 
G01 X16.9089 Y13.1758 
G01 X16.6954 Y13.6911 
G01 X16.6954 Y14.2489 
G01 X16.9089 Y14.7642 
G01 X17.0931 Y14.9484 
G01 X17.1427 Y15.0228 
G01 X17.1632 Y15.0534 
G01 X17.2115 Y15.1701 
G01 X17.2273 Y15.2493 
G01 X17.2362 Y15.2939 
G01 X17.2362 Y15.4201 
G01 X17.2115 Y15.5439 
G01 X17.1632 Y15.6606 
G01 X17.1192 Y15.7265 
G01 X17.0931 Y15.7655 
G01 X17.0038 Y15.8548 
G01 X16.9295 Y15.9045 
G01 X16.8988 Y15.9250 
G01 X16.7822 Y15.9733 
G01 X16.7030 Y15.9890 
G01 X16.6584 Y15.9979 
G01 X14.4565 Y15.9979 
G01 X14.2690 Y16.0934 
G01 X14.0286 Y16.1715 
G01 X13.7789 Y16.2111 
G01 X13.5261 Y16.2111 
G01 X13.2764 Y16.1715 
G01 X13.0360 Y16.0934 
G01 X12.8485 Y15.9979 
G01 X9.6615 Y15.9979 
G01 X9.6010 Y15.9859 
G01 X9.5376 Y15.9733 
G01 X9.4909 Y15.9539 
G01 X9.4801 Y15.9688 
G01 X9.3013 Y16.1476 
G01 X9.0968 Y16.2962 
G01 X8.8715 Y16.4109 
G01 X8.6311 Y16.4890 
G01 X8.3814 Y16.5286 
G01 X8.1286 Y16.5286 
G01 X7.8789 Y16.4890 
G01 X7.6385 Y16.4109 
G01 X7.4132 Y16.2962 
G01 X7.2087 Y16.1476 
G01 X7.0299 Y15.9688 
G01 X7.0122 Y15.9444 
G01 X2.7569 Y15.9444 
G01 X2.5594 Y15.9051 
G01 X2.3734 Y15.8281 
G01 X2.2061 Y15.7163 
G01 X1.8886 Y15.3988 
G01 X1.7462 Y15.2564 
G01 X1.6344 Y15.0891 
G01 X1.5574 Y14.9031 
G01 X1.5181 Y14.7056 
G01 X1.5181 Y12.0456 
G01 X1.4792 Y12.0395 
G01 X1.2882 Y11.9774 
G01 X1.1093 Y11.8862 
G01 X0.9468 Y11.7682 
G01 X0.8048 Y11.6262 
G01 X0.6868 Y11.4637 
G01 X0.5956 Y11.2848 
G01 X0.5335 Y11.0938 
G01 X0.5021 Y10.8954 
G01 X0.5021 Y10.6946 
G01 X0.5335 Y10.4962 
G01 X0.5956 Y10.3052 
G01 X0.6868 Y10.1263 
G01 X0.8048 Y9.9638 
G01 X0.9468 Y9.8218 
G01 X1.1093 Y9.7038 
G01 X1.2882 Y9.6126 
G01 X1.4792 Y9.5505 
G01 X1.6403 Y9.5250 
G01 X1.4792 Y9.4995 
G01 X1.2882 Y9.4374 
G01 X1.1093 Y9.3462 
G01 X0.9468 Y9.2282 
G01 X0.8048 Y9.0862 
G01 X0.6868 Y8.9237 
G01 X0.5956 Y8.7448 
G01 X0.5335 Y8.5538 
G01 X0.5021 Y8.3554 
G01 X0.5021 Y8.1546 
G01 X0.5335 Y7.9562 
G01 X0.5956 Y7.7652 
G01 X0.6565 Y7.6457 
G01 X0.6452 Y7.6344 
G01 X0.5750 Y7.5294 
G01 X0.5267 Y7.4128 
G01 X0.5021 Y7.2890 
G01 X0.5021 Y6.7169 
G01 X0.5001 Y6.7043 
G01 X0.5021 Y6.6538 
G01 X0.5021 Y6.6033 
G01 X0.5046 Y6.5909 
G01 X0.5051 Y6.5782 
G01 X0.5169 Y6.5291 
G01 X0.5267 Y6.4795 
G01 X0.5316 Y6.4678 
G01 X0.5346 Y6.4554 
G01 X0.5557 Y6.4096 
G01 X0.5750 Y6.3629 
G01 X0.5821 Y6.3523 
G01 X0.5874 Y6.3408 
G01 X0.6171 Y6.2999 
G01 X0.6324 Y6.2770 
G01 X0.5956 Y6.2048 
G01 X0.5335 Y6.0138 
G01 X0.5021 Y5.8154 
G01 X0.5021 Y5.6146 
G01 X0.5335 Y5.4162 
G01 X0.5956 Y5.2252 
G01 X0.6324 Y5.1530 
G01 X0.6171 Y5.1301 
G01 X0.5874 Y5.0892 
G01 X0.5821 Y5.0777 
G01 X0.5750 Y5.0671 
G01 X0.5557 Y5.0204 
G01 X0.5346 Y4.9746 
G01 X0.5316 Y4.9622 
G01 X0.5267 Y4.9505 
G01 X0.5169 Y4.9009 
G01 X0.5051 Y4.8518 
G01 X0.5046 Y4.8391 
G01 X0.5021 Y4.8267 
G01 X0.5021 Y4.7762 
G01 X0.5001 Y4.7257 
G01 X0.5021 Y4.7131 
G01 X0.5021 Y1.0799 
G01 X0.5267 Y0.9560 
G01 X0.5750 Y0.8394 
G01 X0.6452 Y0.7344 
G00 Z2.0000  F3000
G00 X3.4396 Y9.5250  F3000
G01 Z-0.2000 F200.00 
G01 X3.6008 Y9.5505 F500.00 
G01 X3.7918 Y9.6126 
G01 X3.9707 Y9.7038 
G01 X4.1332 Y9.8218 
G01 X4.2941 Y9.8894 
G01 X4.4614 Y10.0012 
G01 X4.5508 Y10.0906 
G01 X4.8801 Y10.0906 
G01 X4.9170 Y10.0538 
G01 X5.0079 Y10.0013 
G01 X4.9170 Y9.9487 
G01 X4.8776 Y9.9094 
G01 X4.6593 Y9.9094 
G01 X4.4619 Y9.8701 
G01 X4.2759 Y9.7931 
G01 X4.1086 Y9.6813 
G01 X3.8401 Y9.4128 
G01 X3.7918 Y9.4374 
G01 X3.6008 Y9.4995 
G01 X3.4396 Y9.5250 
G00 Z2.0000  F3000
G00 X3.5619 Y12.0456  F3000
G01 Z-0.2000 F200.00 
G01 X3.5619 Y13.9006 F500.00 
G01 X4.7751 Y13.9006 
G01 X4.7536 Y13.8634 
G01 X4.7186 Y13.7327 
G01 X4.7186 Y12.2973 
G01 X4.7536 Y12.1666 
G01 X4.7722 Y12.1344 
G01 X4.0268 Y12.1344 
G01 X3.8294 Y12.0951 
G01 X3.6536 Y12.0223 
G01 X3.6008 Y12.0395 
G01 X3.5619 Y12.0456 
G00 Z2.0000  F3000
G00 X7.2928 Y11.9956  F3000
G01 Z-0.2000 F200.00 
G01 X7.5142 Y11.9956 F500.00 
G01 X7.5506 Y11.9592 
G01 X7.5506 Y9.9094 
G01 X7.1874 Y9.9094 
G01 X7.1480 Y9.9487 
G01 X7.0571 Y10.0013 
G01 X7.1480 Y10.0538 
G01 X7.2437 Y10.1495 
G01 X7.3114 Y10.2666 
G01 X7.3464 Y10.3973 
G01 X7.3464 Y11.8327 
G01 X7.3114 Y11.9634 
G01 X7.2928 Y11.9956 
G00 Z2.0000  F3000
G00 X9.5944 Y11.7087  F3000
G01 Z-0.2000 F200.00 
G01 X9.6409 Y11.7211 F500.00 
G01 X9.7286 Y11.7718 
G01 X9.7286 Y11.1823 
G01 X9.7636 Y11.0516 
G01 X9.8313 Y10.9345 
G01 X9.9260 Y10.8397 
G01 X9.9599 Y10.6694 
G01 X10.0369 Y10.4834 
G01 X10.1487 Y10.3161 
G01 X10.9036 Y9.5612 
G01 X10.9036 Y8.9748 
G01 X10.9386 Y8.8441 
G01 X11.0063 Y8.7270 
G01 X11.1020 Y8.6313 
G01 X11.2191 Y8.5636 
G01 X11.3498 Y8.5286 
G01 X12.7852 Y8.5286 
G01 X12.9159 Y8.5636 
G01 X12.9456 Y8.5808 
G01 X12.9456 Y8.2467 
G01 X12.9159 Y8.2639 
G01 X12.7852 Y8.2989 
G01 X11.3498 Y8.2989 
G01 X11.2191 Y8.2639 
G01 X11.1020 Y8.1962 
G01 X11.0063 Y8.1005 
G01 X10.9522 Y8.0069 
G01 X10.7678 Y8.0069 
G01 X10.7501 Y8.0313 
G01 X10.5713 Y8.2101 
G01 X10.3668 Y8.3587 
G01 X10.1415 Y8.4734 
G01 X9.9011 Y8.5516 
G01 X9.6514 Y8.5911 
G01 X9.5548 Y8.5911 
G01 X9.5944 Y8.7894 
G01 X9.5944 Y11.7087 
G00 Z2.0000  F3000
G00 X13.0894 Y5.7233  F3000
G01 Z-0.2000 F200.00 
G01 X13.1038 Y5.7150 F500.00 
G01 X13.0894 Y5.7067 
G01 X13.0894 Y5.7233 
G00 Z2.0000  F3000
G00 X0.5830 Y0.6835  F3000
G01 Z-0.2000 F200.00 
G01 X0.6835 Y0.5830 F500.00 
G01 X0.8015 Y0.5041 
G01 X0.9327 Y0.4498 
G01 X1.0720 Y0.4221 
G01 X16.6763 Y0.4221 
G01 X16.7024 Y0.4273 
G01 X16.8155 Y0.4498 
G01 X16.9467 Y0.5041 
G01 X17.0648 Y0.5830 
G01 X17.1637 Y0.6819 
G01 X17.2441 Y0.8015 
G01 X17.2662 Y0.8548 
G01 X17.2985 Y0.9327 
G01 X17.3262 Y1.0720 
G01 X17.3262 Y1.2140 
G01 X17.3210 Y1.2401 
G01 X17.2985 Y1.3533 
G01 X17.2441 Y1.4845 
G01 X17.1652 Y1.6025 
G01 X16.9767 Y1.7911 
G01 X16.7754 Y2.2770 
G01 X16.7754 Y2.8030 
G01 X16.9767 Y3.2889 
G01 X17.3486 Y3.6608 
G01 X17.8345 Y3.8621 
G01 X18.3605 Y3.8621 
G01 X18.8464 Y3.6608 
G01 X19.2183 Y3.2889 
G01 X19.4196 Y2.8030 
G01 X19.4196 Y2.2770 
G01 X19.2183 Y1.7911 
G01 X19.0298 Y1.6025 
G01 X18.9509 Y1.4845 
G01 X18.8965 Y1.3533 
G01 X18.8747 Y1.2433 
G01 X18.8688 Y1.2140 
G01 X18.8688 Y1.0720 
G01 X18.8965 Y0.9327 
G01 X18.9279 Y0.8570 
G01 X18.9509 Y0.8015 
G01 X19.0298 Y0.6835 
G01 X19.1302 Y0.5830 
G01 X19.2482 Y0.5041 
G01 X19.3794 Y0.4498 
G01 X19.4895 Y0.4279 
G01 X19.5187 Y0.4221 
G01 X30.0305 Y0.4221 
G01 X30.1698 Y0.4498 
G01 X30.3010 Y0.5041 
G01 X30.4190 Y0.5830 
G01 X30.5195 Y0.6835 
G01 X30.5983 Y0.8015 
G01 X30.6527 Y0.9327 
G01 X30.6804 Y1.0720 
G01 X30.6804 Y5.9909 
G01 X30.6837 Y6.0335 
G01 X30.6804 Y6.0618 
G01 X30.6804 Y6.0903 
G01 X30.6721 Y6.1321 
G01 X30.6671 Y6.1745 
G01 X30.6582 Y6.2016 
G01 X30.6527 Y6.2295 
G01 X30.6437 Y6.2511 
G01 X30.6494 Y6.2568 
G01 X30.7937 Y6.4554 
G01 X30.9051 Y6.6740 
G01 X30.9809 Y6.9074 
G01 X31.0193 Y7.1498 
G01 X31.0193 Y7.3952 
G01 X30.9809 Y7.6376 
G01 X30.9051 Y7.8710 
G01 X30.7937 Y8.0896 
G01 X30.6494 Y8.2882 
G01 X30.4759 Y8.4617 
G01 X30.3234 Y8.5725 
G01 X30.4759 Y8.6833 
G01 X30.6494 Y8.8568 
G01 X30.7937 Y9.0554 
G01 X30.9051 Y9.2740 
G01 X30.9809 Y9.5074 
G01 X31.0193 Y9.7498 
G01 X31.0193 Y9.9952 
G01 X30.9809 Y10.2376 
G01 X30.9051 Y10.4710 
G01 X30.7937 Y10.6896 
G01 X30.6494 Y10.8882 
G01 X30.4759 Y11.0617 
G01 X30.2773 Y11.2060 
G01 X30.0587 Y11.3174 
G01 X29.8253 Y11.3932 
G01 X29.5829 Y11.4316 
G01 X29.1792 Y11.4316 
G01 X28.0228 Y12.5880 
G01 X27.8825 Y12.6899 
G01 X27.7280 Y12.7687 
G01 X27.5630 Y12.8223 
G01 X27.3917 Y12.8494 
G01 X17.1937 Y12.8494 
G01 X17.1842 Y12.8976 
G01 X17.1298 Y13.0288 
G01 X17.0516 Y13.1458 
G01 X16.9767 Y13.2211 
G01 X16.7754 Y13.7070 
G01 X16.7754 Y14.2330 
G01 X16.9767 Y14.7189 
G01 X17.1552 Y14.8974 
G01 X17.2341 Y15.0155 
G01 X17.2885 Y15.1467 
G01 X17.3097 Y15.2536 
G01 X17.3162 Y15.2860 
G01 X17.3162 Y15.4280 
G01 X17.2885 Y15.5673 
G01 X17.2580 Y15.6408 
G01 X17.2341 Y15.6985 
G01 X17.1552 Y15.8165 
G01 X17.0548 Y15.9170 
G01 X16.9367 Y15.9958 
G01 X16.8055 Y16.0502 
G01 X16.6987 Y16.0714 
G01 X16.6663 Y16.0779 
G01 X14.4736 Y16.0779 
G01 X14.3998 Y16.1205 
G01 X14.1956 Y16.2050 
G01 X13.9821 Y16.2622 
G01 X13.7630 Y16.2911 
G01 X13.5420 Y16.2911 
G01 X13.3229 Y16.2622 
G01 X13.1094 Y16.2050 
G01 X12.9052 Y16.1205 
G01 X12.8314 Y16.0779 
G01 X9.6536 Y16.0779 
G01 X9.5997 Y16.0672 
G01 X9.5143 Y16.0502 
G01 X9.3691 Y16.1929 
G01 X9.1938 Y16.3274 
G01 X9.0023 Y16.4380 
G01 X8.7981 Y16.5225 
G01 X8.5846 Y16.5797 
G01 X8.3655 Y16.6086 
G01 X8.1445 Y16.6086 
G01 X7.9253 Y16.5797 
G01 X7.7119 Y16.5225 
G01 X7.5077 Y16.4380 
G01 X7.3162 Y16.3274 
G01 X7.1409 Y16.1929 
G01 X6.9846 Y16.0366 
G01 X6.9752 Y16.0244 
G01 X2.7708 Y16.0244 
G01 X2.5995 Y15.9973 
G01 X2.4345 Y15.9437 
G01 X2.2800 Y15.8649 
G01 X2.1397 Y15.7630 
G01 X1.8222 Y15.4455 
G01 X1.6995 Y15.3228 
G01 X1.5976 Y15.1825 
G01 X1.5188 Y15.0280 
G01 X1.4652 Y14.8630 
G01 X1.4381 Y14.6917 
G01 X1.4381 Y12.1102 
G01 X1.2575 Y12.0516 
G01 X1.0674 Y11.9547 
G01 X0.8947 Y11.8292 
G01 X0.7438 Y11.6783 
G01 X0.6183 Y11.5056 
G01 X0.5214 Y11.3155 
G01 X0.4555 Y11.1125 
G01 X0.4221 Y10.9017 
G01 X0.4221 Y10.6883 
G01 X0.4555 Y10.4775 
G01 X0.5214 Y10.2745 
G01 X0.6183 Y10.0844 
G01 X0.7438 Y9.9117 
G01 X0.8947 Y9.7608 
G01 X1.0674 Y9.6353 
G01 X1.2575 Y9.5384 
G01 X1.2989 Y9.5250 
G01 X1.2575 Y9.5116 
G01 X1.0674 Y9.4147 
G01 X0.8947 Y9.2892 
G01 X0.7438 Y9.1383 
G01 X0.6183 Y8.9656 
G01 X0.5214 Y8.7755 
G01 X0.4555 Y8.5725 
G01 X0.4221 Y8.3617 
G01 X0.4221 Y8.1483 
G01 X0.4555 Y7.9375 
G01 X0.5214 Y7.7345 
G01 X0.5623 Y7.6543 
G01 X0.5041 Y7.5673 
G01 X0.4498 Y7.4361 
G01 X0.4221 Y7.2969 
G01 X0.4221 Y6.7232 
G01 X0.4199 Y6.7091 
G01 X0.4221 Y6.6523 
G01 X0.4221 Y6.5955 
G01 X0.4249 Y6.5814 
G01 X0.4254 Y6.5672 
G01 X0.4387 Y6.5119 
G01 X0.4498 Y6.4562 
G01 X0.4553 Y6.4430 
G01 X0.4586 Y6.4291 
G01 X0.4824 Y6.3774 
G01 X0.5041 Y6.3250 
G01 X0.5121 Y6.3131 
G01 X0.5181 Y6.3001 
G01 X0.5394 Y6.2708 
G01 X0.5214 Y6.2355 
G01 X0.4555 Y6.0325 
G01 X0.4221 Y5.8217 
G01 X0.4221 Y5.6083 
G01 X0.4555 Y5.3975 
G01 X0.5214 Y5.1945 
G01 X0.5394 Y5.1592 
G01 X0.5181 Y5.1299 
G01 X0.5121 Y5.1169 
G01 X0.5041 Y5.1050 
G01 X0.4824 Y5.0525 
G01 X0.4586 Y5.0009 
G01 X0.4553 Y4.9870 
G01 X0.4498 Y4.9738 
G01 X0.4387 Y4.9181 
G01 X0.4254 Y4.8628 
G01 X0.4249 Y4.8486 
G01 X0.4221 Y4.8345 
G01 X0.4221 Y4.7777 
G01 X0.4199 Y4.7209 
G01 X0.4221 Y4.7068 
G01 X0.4221 Y1.0720 
G01 X0.4498 Y0.9327 
G01 X0.5041 Y0.8015 
G01 X0.5830 Y0.6835 
G00 Z2.0000  F3000
G00 X3.7811 Y9.5250  F3000
G01 Z-0.2000 F200.00 
G01 X3.8225 Y9.5384 F500.00 
G01 X3.8839 Y9.5697 
G01 X3.8246 Y9.5105 
G01 X3.8225 Y9.5116 
G01 X3.7811 Y9.5250 
G00 Z2.0000  F3000
G00 X4.5419 Y9.9686  F3000
G01 Z-0.2000 F200.00 
G01 X4.5839 Y10.0106 F500.00 
G01 X4.8470 Y10.0106 
G01 X4.8539 Y10.0037 
G01 X4.8576 Y10.0013 
G01 X4.8539 Y9.9988 
G01 X4.8445 Y9.9894 
G01 X4.6733 Y9.9894 
G01 X4.5419 Y9.9686 
G00 Z2.0000  F3000
G00 X4.6569 Y12.2144  F3000
G01 Z-0.2000 F200.00 
G01 X4.0408 Y12.2144 F500.00 
G01 X3.8695 Y12.1873 
G01 X3.7045 Y12.1337 
G01 X3.6521 Y12.1069 
G01 X3.6419 Y12.1102 
G01 X3.6419 Y13.8206 
G01 X4.6579 Y13.8206 
G01 X4.6386 Y13.7235 
G01 X4.6386 Y12.3065 
G01 X4.6569 Y12.2144 
G00 Z2.0000  F3000
G00 X7.4081 Y11.9156  F3000
G01 Z-0.2000 F200.00 
G01 X7.4706 Y11.9156 F500.00 
G01 X7.4706 Y9.9894 
G01 X7.2205 Y9.9894 
G01 X7.2111 Y9.9988 
G01 X7.2074 Y10.0013 
G01 X7.2111 Y10.0037 
G01 X7.2938 Y10.0864 
G01 X7.3588 Y10.1837 
G01 X7.4036 Y10.2918 
G01 X7.4264 Y10.4065 
G01 X7.4264 Y11.8235 
G01 X7.4081 Y11.9156 
G00 Z2.0000  F3000
G00 X9.6744 Y11.0696  F3000
G01 Z-0.2000 F200.00 
G01 X9.7162 Y10.9687 F500.00 
G01 X9.7812 Y10.8714 
G01 X9.8535 Y10.7991 
G01 X9.8677 Y10.7095 
G01 X9.9213 Y10.5445 
G01 X10.0001 Y10.3900 
G01 X10.1020 Y10.2497 
G01 X10.8236 Y9.5281 
G01 X10.8236 Y8.9840 
G01 X10.8464 Y8.8693 
G01 X10.8912 Y8.7612 
G01 X10.9562 Y8.6639 
G01 X11.0389 Y8.5812 
G01 X11.1362 Y8.5162 
G01 X11.2443 Y8.4714 
G01 X11.3590 Y8.4486 
G01 X12.7760 Y8.4486 
G01 X12.8656 Y8.4664 
G01 X12.8656 Y8.3611 
G01 X12.7760 Y8.3789 
G01 X11.3590 Y8.3789 
G01 X11.2443 Y8.3561 
G01 X11.1362 Y8.3113 
G01 X11.0389 Y8.2463 
G01 X10.9562 Y8.1636 
G01 X10.9049 Y8.0869 
G01 X10.8048 Y8.0869 
G01 X10.7954 Y8.0991 
G01 X10.6391 Y8.2554 
G01 X10.4638 Y8.3899 
G01 X10.2723 Y8.5005 
G01 X10.0681 Y8.5850 
G01 X9.8546 Y8.6422 
G01 X9.6531 Y8.6688 
G01 X9.6744 Y8.8033 
G01 X9.6744 Y11.0696 
G00 Z2.0000  F3000
G00 Z5.0000  F3000
;M03 S0
M0
