;(.../Electronics/Eagle/pcb-gcode/pcb-gcode.ulp)
;(Copyright 2005 - 2012 by John Johnson)
;(See readme.txt for licensing terms.)
;(This file generated from the board:)
;(.../Electronics/wheel-opto-sensor.brd)
;(Current profile is .../pcb-gcode/profiles/generic.pp  )
;(This file generated 09/01/2018 16:01)
;(Settings from pcb-machine.h)
;(spindle on time = 1000.0000)
;(  Tool Size)
;(0.1778 )
;(spindle speed = 30000.0000)
;(tool change at 0.0000 0.0000 5.0000 )
;(feed rate xy = F500.00 )
;(feed rate z  = F200.00 )
;(Z Axis Settings)
;(  High     Up        Down     Drill)
;(5.0000 	2.0000 	-0.2000 	-2.0000 )
;(Settings from pcb-defaults.h)
;(isolate min = 0.0250)
;(isolate max = 0.5000)
;(isolate step = 0.0800)
;(Generated top outlines, top drill, )
;(Unit of measure: mm)
;(Metric Mode)
G21
;(Absolute Coordinates)
G90
;S30000
G00 Z5.0000  F3000
G00 X0.0000 Y0.0000  F3000
;M03 S1
G04 P1000.000000
G00 Z2.0000  F3000
G00 X0.9388 Y2.8016  F3000
G01 Z-0.2000 F200.00 
G01 X1.0065 Y2.7338 F500.00 
G01 X1.0951 Y2.6972 
G01 X1.1909 Y2.6972 
G01 X1.2795 Y2.7338 
G01 X1.3472 Y2.8016 
G01 X1.3839 Y2.8901 
G01 X1.5209 Y3.2209 
G01 X1.8591 Y3.5591 
G01 X2.3009 Y3.7421 
G01 X2.7791 Y3.7421 
G01 X3.2209 Y3.5591 
G01 X3.5591 Y3.2209 
G01 X3.7421 Y2.7791 
G01 X3.7421 Y2.3009 
G01 X3.5591 Y1.8591 
G01 X3.2209 Y1.5209 
G01 X2.8902 Y1.3839 
G01 X2.8035 Y1.3480 
G01 X2.7338 Y1.2795 
G01 X2.6972 Y1.1909 
G01 X2.6972 Y1.0951 
G01 X2.7328 Y1.0091 
G01 X2.7338 Y1.0065 
G01 X2.8016 Y0.9388 
G01 X2.8901 Y0.9021 
G01 X22.7049 Y0.9021 
G01 X22.7935 Y0.9388 
G01 X22.8612 Y1.0065 
G01 X22.8979 Y1.0951 
G01 X22.8979 Y6.7281 
G01 X22.8612 Y6.8167 
G01 X22.7935 Y6.8844 
G01 X22.7049 Y6.9211 
G01 X21.7826 Y6.9211 
G01 X21.7217 Y6.8959 
G01 X21.6940 Y6.8844 
G01 X21.6218 Y6.8122 
G01 X21.2715 Y6.6671 
G01 X19.3684 Y6.6671 
G01 X19.0182 Y6.8122 
G01 X18.7502 Y7.0802 
G01 X18.6051 Y7.4305 
G01 X18.6051 Y7.8095 
G01 X18.7502 Y8.1598 
G01 X19.0182 Y8.4278 
G01 X19.3684 Y8.5729 
G01 X21.2715 Y8.5729 
G01 X21.6218 Y8.4278 
G01 X21.6263 Y8.4233 
G01 X21.6618 Y8.3878 
G01 X21.6940 Y8.3556 
G01 X21.7824 Y8.3190 
G01 X21.9681 Y8.3189 
G01 X22.0567 Y8.3556 
G01 X22.1244 Y8.4233 
G01 X22.1611 Y8.5119 
G01 X22.1611 Y9.3578 
G01 X22.1601 Y9.3604 
G01 X22.1244 Y9.4464 
G01 X22.0567 Y9.5141 
G01 X21.9948 Y9.5398 
G01 X21.9681 Y9.5508 
G01 X21.8723 Y9.5508 
G01 X21.8698 Y9.5498 
G01 X21.7837 Y9.5141 
G01 X21.6218 Y9.3522 
G01 X21.2715 Y9.2071 
G01 X19.3684 Y9.2071 
G01 X19.0182 Y9.3522 
G01 X18.8670 Y9.5034 
G01 X18.8559 Y9.5211 
G01 X18.8334 Y9.5370 
G01 X18.8139 Y9.5565 
G01 X18.7947 Y9.5644 
G01 X18.7777 Y9.5765 
G01 X18.7508 Y9.5826 
G01 X18.7254 Y9.5931 
G01 X18.7046 Y9.5931 
G01 X18.6843 Y9.5978 
G01 X18.6571 Y9.5931 
G01 X18.6295 Y9.5931 
G01 X18.6103 Y9.5852 
G01 X18.5898 Y9.5817 
G01 X18.5665 Y9.5670 
G01 X18.5410 Y9.5565 
G01 X18.5263 Y9.5418 
G01 X18.5086 Y9.5307 
G01 X18.4927 Y9.5082 
G01 X18.4732 Y9.4887 
G01 X18.4653 Y9.4695 
G01 X16.3870 Y6.5382 
G01 X16.3676 Y6.5187 
G01 X16.3596 Y6.4995 
G01 X16.3476 Y6.4825 
G01 X16.3414 Y6.4556 
G01 X16.3309 Y6.4302 
G01 X16.3309 Y6.4093 
G01 X16.3263 Y6.3890 
G01 X16.3309 Y6.3619 
G01 X16.3309 Y5.9791 
G01 X16.3319 Y5.9766 
G01 X16.3676 Y5.8906 
G01 X16.4343 Y5.8239 
G01 X16.5239 Y5.7862 
G01 X16.6197 Y5.7862 
G01 X16.6222 Y5.7872 
G01 X16.7083 Y5.8228 
G01 X17.0532 Y6.1678 
G01 X17.5248 Y6.3631 
G01 X18.0352 Y6.3631 
G01 X18.5068 Y6.1678 
G01 X18.7068 Y5.9677 
G01 X18.7256 Y5.9490 
G01 X18.7746 Y5.9000 
G01 X18.8631 Y5.8633 
G01 X18.9590 Y5.8633 
G01 X19.3685 Y6.0329 
G01 X21.2715 Y6.0329 
G01 X21.6218 Y5.8878 
G01 X21.8898 Y5.6198 
G01 X22.0349 Y5.2695 
G01 X22.0349 Y4.8904 
G01 X21.8898 Y4.5402 
G01 X21.6218 Y4.2722 
G01 X21.2715 Y4.1271 
G01 X19.3685 Y4.1271 
G01 X18.9590 Y4.2967 
G01 X18.8631 Y4.2967 
G01 X18.7746 Y4.2600 
G01 X18.7271 Y4.2125 
G01 X18.7068 Y4.1923 
G01 X18.5068 Y3.9922 
G01 X18.0352 Y3.7969 
G01 X17.5248 Y3.7969 
G01 X17.0532 Y3.9922 
G01 X16.6575 Y4.3880 
G01 X16.5689 Y4.4246 
G01 X16.4731 Y4.4246 
G01 X16.3871 Y4.3890 
G01 X16.3845 Y4.3880 
G01 X16.3168 Y4.3202 
G01 X16.2801 Y4.2317 
G01 X16.2801 Y4.0479 
G01 X16.2539 Y4.0479 
G01 X16.2539 Y4.5027 
G01 X16.2366 Y4.5445 
G01 X16.2045 Y4.5766 
G01 X16.1627 Y4.5939 
G01 X15.6079 Y4.5939 
G01 X15.6079 Y4.6201 
G01 X16.1584 Y4.6201 
G01 X16.1784 Y4.6147 
G01 X16.2081 Y4.6025 
G01 X16.2243 Y4.6025 
G01 X16.2399 Y4.5983 
G01 X16.2718 Y4.6025 
G01 X16.3039 Y4.6025 
G01 X16.3189 Y4.6087 
G01 X16.3349 Y4.6108 
G01 X16.3628 Y4.6268 
G01 X16.3925 Y4.6391 
G01 X16.4039 Y4.6506 
G01 X16.4179 Y4.6587 
G01 X16.4375 Y4.6842 
G01 X16.4602 Y4.7069 
G01 X16.4664 Y4.7219 
G01 X16.4763 Y4.7347 
G01 X16.4846 Y4.7658 
G01 X16.4969 Y4.7954 
G01 X16.4969 Y4.8116 
G01 X16.5011 Y4.8273 
G01 X16.4969 Y4.8591 
G01 X16.4969 Y5.2961 
G01 X16.4602 Y5.3847 
G01 X16.3925 Y5.4524 
G01 X16.3039 Y5.4891 
G01 X15.0972 Y5.4891 
G01 X15.0638 Y5.4931 
G01 X15.0497 Y5.4891 
G01 X15.0351 Y5.4891 
G01 X15.0040 Y5.4762 
G01 X14.0252 Y5.2003 
G01 X14.0019 Y5.1986 
G01 X13.9795 Y5.1874 
G01 X13.9553 Y5.1806 
G01 X13.9371 Y5.1662 
G01 X13.0307 Y4.7130 
G01 X12.9878 Y4.6916 
G01 X12.9463 Y4.6708 
G01 X12.8259 Y4.6106 
G01 X12.7809 Y4.5881 
G01 X12.7402 Y4.5678 
G01 X12.6255 Y4.5104 
G01 X12.5824 Y4.4890 
G01 X12.5402 Y4.4680 
G01 X10.1867 Y3.2921 
G01 X10.1503 Y3.2770 
G01 X10.1441 Y3.2708 
G01 X10.1363 Y3.2668 
G01 X10.1104 Y3.2371 
G01 X10.0826 Y3.2092 
G01 X10.0792 Y3.2011 
G01 X10.0734 Y3.1945 
G01 X10.0610 Y3.1571 
G01 X10.0459 Y3.1207 
G01 X10.0459 Y3.1119 
G01 X10.0431 Y3.1036 
G01 X10.0459 Y3.0642 
G01 X10.0459 Y2.9309 
G01 X9.9341 Y2.8191 
G01 X8.4759 Y2.8191 
G01 X8.4592 Y2.8358 
G01 X8.3925 Y2.9025 
G01 X8.3406 Y2.9246 
G01 X8.3029 Y2.9402 
G01 X8.2071 Y2.9402 
G01 X8.1185 Y2.9036 
G01 X8.0341 Y2.8191 
G01 X6.5759 Y2.8191 
G01 X6.4641 Y2.9309 
G01 X6.4641 Y3.2911 
G01 X6.4669 Y3.3304 
G01 X6.4641 Y3.3387 
G01 X6.4641 Y3.3474 
G01 X6.4490 Y3.3839 
G01 X6.4365 Y3.4213 
G01 X6.4308 Y3.4279 
G01 X6.4274 Y3.4360 
G01 X6.3995 Y3.4639 
G01 X6.3736 Y3.4937 
G01 X6.3658 Y3.4976 
G01 X6.3597 Y3.5037 
G01 X6.3232 Y3.5188 
G01 X5.9296 Y3.7152 
G01 X5.8868 Y3.7366 
G01 X5.8445 Y3.7577 
G01 X5.7631 Y3.7983 
G01 X5.7214 Y3.8191 
G01 X5.6775 Y3.8411 
G01 X5.5961 Y3.8817 
G01 X5.5535 Y3.9031 
G01 X5.5112 Y3.9245 
G01 X3.8794 Y4.7402 
G01 X3.8733 Y4.7463 
G01 X3.8368 Y4.7614 
G01 X3.8015 Y4.7791 
G01 X3.7928 Y4.7797 
G01 X3.7342 Y4.8041 
G01 X3.7209 Y4.8194 
G01 X3.7131 Y4.8233 
G01 X3.7070 Y4.8294 
G01 X3.6883 Y4.8372 
G01 X3.6467 Y4.8851 
G01 X3.6434 Y4.8932 
G01 X3.6155 Y4.9211 
G01 X3.5896 Y4.9510 
G01 X3.5818 Y4.9549 
G01 X3.5370 Y4.9998 
G01 X3.5306 Y5.0190 
G01 X3.5249 Y5.0256 
G01 X3.5216 Y5.0336 
G01 X3.5073 Y5.0479 
G01 X3.4872 Y5.1081 
G01 X3.4873 Y5.1168 
G01 X3.4722 Y5.1533 
G01 X3.4597 Y5.1908 
G01 X3.4540 Y5.1974 
G01 X3.4298 Y5.2560 
G01 X3.4312 Y5.2762 
G01 X3.4285 Y5.2845 
G01 X3.4285 Y5.2931 
G01 X3.4207 Y5.3119 
G01 X3.4252 Y5.3752 
G01 X3.4286 Y5.3832 
G01 X3.4286 Y5.4227 
G01 X3.4314 Y5.4621 
G01 X3.4287 Y5.4703 
G01 X3.4298 Y6.4524 
G01 X3.4298 Y6.5008 
G01 X3.4299 Y6.5480 
G01 X3.4113 Y6.5931 
G01 X3.3933 Y6.6366 
G01 X3.3590 Y6.6710 
G01 X3.3256 Y6.7045 
G01 X3.2792 Y6.7508 
G01 X3.2700 Y6.7720 
G01 X3.2524 Y6.8146 
G01 X3.2503 Y6.8177 
G01 X3.2172 Y6.8498 
G01 X3.1847 Y6.8823 
G01 X3.1815 Y6.8844 
G01 X3.1386 Y6.9014 
G01 X3.0961 Y6.9190 
G01 X3.0924 Y6.9197 
G01 X3.0484 Y6.9191 
G01 X3.0435 Y6.9211 
G01 X3.0398 Y6.9218 
G01 X3.0345 Y6.9217 
G01 X2.9567 Y6.9539 
G01 X2.9124 Y6.9723 
G01 X2.8699 Y6.9899 
G01 X2.7898 Y7.0209 
G01 X2.7860 Y7.0246 
G01 X2.7829 Y7.0267 
G01 X2.7780 Y7.0286 
G01 X2.7183 Y7.0883 
G01 X2.6845 Y7.1221 
G01 X2.6519 Y7.1547 
G01 X2.5899 Y7.2138 
G01 X2.5878 Y7.2188 
G01 X2.5857 Y7.2219 
G01 X2.5819 Y7.2256 
G01 X2.5496 Y7.3034 
G01 X2.5313 Y7.3477 
G01 X2.5137 Y7.3902 
G01 X2.4790 Y7.4687 
G01 X2.4790 Y7.4740 
G01 X2.4782 Y7.4777 
G01 X2.4761 Y7.4826 
G01 X2.4761 Y7.5668 
G01 X2.4761 Y7.6146 
G01 X2.4761 Y7.6607 
G01 X2.4418 Y9.8296 
G01 X2.4418 Y9.8756 
G01 X2.4411 Y9.8793 
G01 X2.4228 Y9.9216 
G01 X2.4052 Y9.9641 
G01 X2.4030 Y9.9673 
G01 X2.3891 Y9.9808 
G01 X2.3891 Y11.0798 
G01 X2.5285 Y11.2192 
G01 X2.5413 Y11.2209 
G01 X2.5734 Y11.2209 
G01 X2.5884 Y11.2271 
G01 X2.6045 Y11.2292 
G01 X2.6323 Y11.2453 
G01 X2.6620 Y11.2576 
G01 X2.6734 Y11.2690 
G01 X2.6875 Y11.2771 
G01 X2.7070 Y11.3026 
G01 X2.7297 Y11.3253 
G01 X2.7359 Y11.3403 
G01 X2.7458 Y11.3532 
G01 X2.7541 Y11.3842 
G01 X2.7664 Y11.4139 
G01 X2.7664 Y11.4301 
G01 X2.7706 Y11.4457 
G01 X2.7664 Y11.4776 
G01 X2.7664 Y11.5097 
G01 X2.7602 Y11.5247 
G01 X2.7581 Y11.5408 
G01 X2.7420 Y11.5686 
G01 X2.7297 Y11.5983 
G01 X2.7183 Y11.6097 
G01 X2.7102 Y11.6237 
G01 X2.6847 Y11.6433 
G01 X2.6620 Y11.6660 
G01 X2.6470 Y11.6722 
G01 X2.6341 Y11.6821 
G01 X2.6031 Y11.6904 
G01 X2.5734 Y11.7027 
G01 X2.5572 Y11.7027 
G01 X2.5133 Y11.7279 
G01 X2.4779 Y11.7633 
G01 X2.4529 Y11.8066 
G01 X2.4399 Y11.8550 
G01 X2.4399 Y11.9661 
G01 X2.4661 Y11.9661 
G01 X2.4661 Y11.8474 
G01 X2.4911 Y11.7872 
G01 X2.5372 Y11.7411 
G01 X2.5974 Y11.7161 
G01 X3.6626 Y11.7161 
G01 X3.7228 Y11.7411 
G01 X3.7689 Y11.7872 
G01 X3.7939 Y11.8474 
G01 X3.7939 Y11.9661 
G01 X3.8201 Y11.9661 
G01 X3.8201 Y11.8550 
G01 X3.8071 Y11.8066 
G01 X3.7821 Y11.7633 
G01 X3.7467 Y11.7279 
G01 X3.7034 Y11.7029 
G01 X3.6866 Y11.7027 
G01 X3.6569 Y11.6904 
G01 X3.6259 Y11.6821 
G01 X3.6130 Y11.6722 
G01 X3.5980 Y11.6660 
G01 X3.5753 Y11.6433 
G01 X3.5498 Y11.6237 
G01 X3.5417 Y11.6097 
G01 X3.5303 Y11.5983 
G01 X3.5180 Y11.5686 
G01 X3.5019 Y11.5408 
G01 X3.4998 Y11.5247 
G01 X3.4936 Y11.5097 
G01 X3.4936 Y11.4776 
G01 X3.4894 Y11.4457 
G01 X3.4936 Y11.4301 
G01 X3.4936 Y11.4139 
G01 X3.5059 Y11.3842 
G01 X3.5142 Y11.3532 
G01 X3.5241 Y11.3403 
G01 X3.5303 Y11.3253 
G01 X3.5530 Y11.3026 
G01 X3.5725 Y11.2771 
G01 X3.5866 Y11.2690 
G01 X3.5980 Y11.2576 
G01 X3.6277 Y11.2453 
G01 X3.6555 Y11.2292 
G01 X3.6716 Y11.2271 
G01 X3.6866 Y11.2209 
G01 X3.7187 Y11.2209 
G01 X3.7315 Y11.2192 
G01 X3.8709 Y11.0798 
G01 X3.8709 Y9.9742 
G01 X3.8571 Y9.9395 
G01 X3.8395 Y9.8970 
G01 X3.8388 Y9.8933 
G01 X3.8395 Y9.8472 
G01 X3.8395 Y9.8012 
G01 X3.8550 Y8.8499 
G01 X3.8550 Y8.8039 
G01 X3.8557 Y8.8002 
G01 X3.8740 Y8.7578 
G01 X3.8916 Y8.7153 
G01 X3.8938 Y8.7122 
G01 X3.9269 Y8.6800 
G01 X3.9594 Y8.6476 
G01 X3.9626 Y8.6455 
G01 X4.0055 Y8.6285 
G01 X4.0479 Y8.6109 
G01 X4.0517 Y8.6102 
G01 X4.0978 Y8.6109 
G01 X4.8591 Y8.6109 
G01 X4.8758 Y8.5942 
G01 X4.9425 Y8.5275 
G01 X4.9944 Y8.5054 
G01 X5.0321 Y8.4898 
G01 X5.1279 Y8.4898 
G01 X5.2165 Y8.5264 
G01 X5.3009 Y8.6109 
G01 X6.1879 Y8.6109 
G01 X6.2090 Y8.6062 
G01 X6.2354 Y8.6109 
G01 X6.2622 Y8.6109 
G01 X6.2821 Y8.6191 
G01 X6.3034 Y8.6229 
G01 X6.3260 Y8.6373 
G01 X6.3508 Y8.6476 
G01 X6.3660 Y8.6628 
G01 X7.5772 Y9.4345 
G01 X7.6020 Y9.4448 
G01 X7.6172 Y9.4600 
G01 X7.6354 Y9.4716 
G01 X7.6508 Y9.4936 
G01 X7.6697 Y9.5125 
G01 X7.6780 Y9.5324 
G01 X7.6903 Y9.5501 
G01 X7.6961 Y9.5763 
G01 X7.7064 Y9.6011 
G01 X7.7064 Y9.6226 
G01 X7.7111 Y9.6437 
G01 X7.7064 Y9.6701 
G01 X7.7064 Y9.6969 
G01 X7.6982 Y9.7168 
G01 X7.6944 Y9.7380 
G01 X7.6800 Y9.7607 
G01 X7.6697 Y9.7855 
G01 X7.6545 Y9.8007 
G01 X7.6429 Y9.8189 
G01 X7.6209 Y9.8343 
G01 X7.6020 Y9.8532 
G01 X7.5821 Y9.8615 
G01 X7.5644 Y9.8738 
G01 X7.5382 Y9.8796 
G01 X7.5134 Y9.8899 
G01 X7.4919 Y9.8899 
G01 X7.4708 Y9.8946 
G01 X7.4444 Y9.8899 
G01 X7.3939 Y9.8899 
G01 X7.3939 Y9.9161 
G01 X7.5626 Y9.9161 
G01 X7.6228 Y9.9411 
G01 X7.6689 Y9.9872 
G01 X7.6939 Y10.0474 
G01 X7.6939 Y10.1661 
G01 X7.7201 Y10.1661 
G01 X7.7201 Y10.0556 
G01 X7.7173 Y10.0516 
G01 X7.7080 Y10.0099 
G01 X7.6970 Y9.9687 
G01 X7.6977 Y9.9633 
G01 X7.6965 Y9.9580 
G01 X7.7039 Y9.9160 
G01 X7.7095 Y9.8737 
G01 X7.7122 Y9.8690 
G01 X7.7132 Y9.8636 
G01 X7.7361 Y9.8277 
G01 X7.7574 Y9.7907 
G01 X7.7617 Y9.7874 
G01 X7.7647 Y9.7828 
G01 X7.7996 Y9.7583 
G01 X7.8334 Y9.7324 
G01 X7.8387 Y9.7310 
G01 X7.8432 Y9.7278 
G01 X7.8848 Y9.7186 
G01 X7.9260 Y9.7076 
G01 X7.9314 Y9.7083 
G01 X7.9367 Y9.7071 
G01 X7.9787 Y9.7145 
G01 X8.0210 Y9.7201 
G01 X8.0257 Y9.7228 
G01 X8.0311 Y9.7237 
G01 X8.0670 Y9.7466 
G01 X8.1040 Y9.7680 
G01 X8.1073 Y9.7723 
G01 X8.9924 Y10.3362 
G01 X9.0172 Y10.3465 
G01 X9.0324 Y10.3617 
G01 X9.0506 Y10.3733 
G01 X9.0660 Y10.3953 
G01 X9.0849 Y10.4143 
G01 X9.0932 Y10.4342 
G01 X9.1055 Y10.4518 
G01 X9.1113 Y10.4780 
G01 X9.1216 Y10.5028 
G01 X9.1216 Y10.5243 
G01 X9.1263 Y10.5454 
G01 X9.1216 Y10.5718 
G01 X9.1216 Y10.7366 
G01 X9.2334 Y10.8484 
G01 X9.8585 Y10.8484 
G01 X9.8795 Y10.8437 
G01 X9.9060 Y10.8484 
G01 X9.9328 Y10.8484 
G01 X9.9527 Y10.8566 
G01 X10.0280 Y10.8699 
G01 X10.0788 Y10.8587 
G01 X10.1036 Y10.8484 
G01 X10.1251 Y10.8484 
G01 X10.1461 Y10.8437 
G01 X10.1726 Y10.8484 
G01 X10.7916 Y10.8484 
G01 X10.9034 Y10.7366 
G01 X10.9034 Y9.9020 
G01 X10.9044 Y9.8995 
G01 X10.9401 Y9.8135 
G01 X11.0078 Y9.7457 
G01 X11.0697 Y9.7201 
G01 X11.0964 Y9.7090 
G01 X11.1922 Y9.7090 
G01 X11.1947 Y9.7101 
G01 X11.2808 Y9.7457 
G01 X11.4334 Y9.8984 
G01 X12.0504 Y9.8984 
G01 X12.0530 Y9.8994 
G01 X12.1390 Y9.9351 
G01 X12.2068 Y10.0028 
G01 X12.2425 Y10.0891 
G01 X12.2434 Y10.0914 
G01 X12.2690 Y10.1532 
G01 X12.6300 Y10.5141 
G01 X13.1016 Y10.7095 
G01 X13.6120 Y10.7095 
G01 X14.0681 Y10.5206 
G01 X14.1214 Y10.4985 
G01 X14.1566 Y10.4839 
G01 X14.2525 Y10.4839 
G01 X14.3410 Y10.5206 
G01 X14.4088 Y10.5883 
G01 X14.4344 Y10.6502 
G01 X14.4455 Y10.6769 
G01 X14.4455 Y10.7727 
G01 X14.4088 Y10.8612 
G01 X14.2491 Y11.0209 
G01 X14.2491 Y12.4791 
G01 X14.3336 Y12.5635 
G01 X14.3702 Y12.6521 
G01 X14.3702 Y12.7479 
G01 X14.3555 Y12.7835 
G01 X14.3336 Y12.8364 
G01 X14.2658 Y12.9042 
G01 X14.2491 Y12.9209 
G01 X14.2491 Y14.3791 
G01 X14.3513 Y14.4812 
G01 X14.3879 Y14.5698 
G01 X14.3879 Y14.6656 
G01 X14.3775 Y14.6908 
G01 X14.3513 Y14.7542 
G01 X14.2835 Y14.8219 
G01 X14.1950 Y14.8586 
G01 X10.2934 Y14.8586 
G01 X10.2636 Y14.8630 
G01 X10.2459 Y14.8586 
G01 X10.2276 Y14.8586 
G01 X10.1998 Y14.8471 
G01 X9.9397 Y14.7822 
G01 X9.9214 Y14.7822 
G01 X9.8936 Y14.7707 
G01 X9.8645 Y14.7634 
G01 X9.8498 Y14.7525 
G01 X9.8328 Y14.7455 
G01 X9.8116 Y14.7243 
G01 X9.7875 Y14.7064 
G01 X9.7780 Y14.6907 
G01 X9.7651 Y14.6778 
G01 X9.7536 Y14.6500 
G01 X9.7381 Y14.6243 
G01 X9.7354 Y14.6061 
G01 X9.7284 Y14.5892 
G01 X9.7284 Y14.5592 
G01 X9.7240 Y14.5295 
G01 X9.7284 Y14.5117 
G01 X9.7284 Y14.3609 
G01 X9.6166 Y14.2491 
G01 X8.1584 Y14.2491 
G01 X8.1466 Y14.2609 
G01 X8.1128 Y14.2947 
G01 X8.0802 Y14.3274 
G01 X8.0772 Y14.3293 
G01 X8.0343 Y14.3463 
G01 X7.9916 Y14.3640 
G01 X7.9881 Y14.3647 
G01 X7.9419 Y14.3640 
G01 X7.8958 Y14.3640 
G01 X7.8923 Y14.3633 
G01 X7.8498 Y14.3450 
G01 X7.8072 Y14.3274 
G01 X7.8043 Y14.3253 
G01 X7.7721 Y14.2922 
G01 X7.7395 Y14.2596 
G01 X7.7375 Y14.2566 
G01 X7.7205 Y14.2137 
G01 X7.7028 Y14.1711 
G01 X7.7021 Y14.1675 
G01 X7.7028 Y14.1213 
G01 X7.7028 Y14.0752 
G01 X7.7187 Y13.0299 
G01 X7.7187 Y12.9838 
G01 X7.7195 Y12.9803 
G01 X7.7378 Y12.9378 
G01 X7.7554 Y12.8953 
G01 X7.7574 Y12.8923 
G01 X7.7709 Y12.8792 
G01 X7.7709 Y11.7802 
G01 X7.6315 Y11.6408 
G01 X7.6187 Y11.6391 
G01 X7.5866 Y11.6391 
G01 X7.5716 Y11.6329 
G01 X7.5555 Y11.6308 
G01 X7.5277 Y11.6147 
G01 X7.4980 Y11.6024 
G01 X7.4866 Y11.5910 
G01 X7.4725 Y11.5829 
G01 X7.4530 Y11.5574 
G01 X7.4303 Y11.5347 
G01 X7.4241 Y11.5197 
G01 X7.4142 Y11.5068 
G01 X7.4059 Y11.4758 
G01 X7.3936 Y11.4461 
G01 X7.3936 Y11.4299 
G01 X7.3894 Y11.4143 
G01 X7.3936 Y11.3824 
G01 X7.3936 Y11.3503 
G01 X7.3998 Y11.3353 
G01 X7.4019 Y11.3192 
G01 X7.4180 Y11.2914 
G01 X7.4303 Y11.2617 
G01 X7.4417 Y11.2503 
G01 X7.4498 Y11.2362 
G01 X7.4753 Y11.2167 
G01 X7.4980 Y11.1940 
G01 X7.5130 Y11.1878 
G01 X7.5259 Y11.1779 
G01 X7.5569 Y11.1696 
G01 X7.5866 Y11.1573 
G01 X7.6028 Y11.1573 
G01 X7.6467 Y11.1321 
G01 X7.6821 Y11.0967 
G01 X7.7071 Y11.0534 
G01 X7.7201 Y11.0050 
G01 X7.7201 Y10.8939 
G01 X7.6939 Y10.8939 
G01 X7.6939 Y11.0126 
G01 X7.6689 Y11.0728 
G01 X7.6228 Y11.1189 
G01 X7.5626 Y11.1439 
G01 X6.4974 Y11.1439 
G01 X6.4372 Y11.1189 
G01 X6.3911 Y11.0728 
G01 X6.3661 Y11.0126 
G01 X6.3661 Y10.8939 
G01 X6.3399 Y10.8939 
G01 X6.3399 Y11.0050 
G01 X6.3529 Y11.0534 
G01 X6.3779 Y11.0967 
G01 X6.4133 Y11.1321 
G01 X6.4566 Y11.1571 
G01 X6.4734 Y11.1573 
G01 X6.5031 Y11.1696 
G01 X6.5341 Y11.1779 
G01 X6.5470 Y11.1878 
G01 X6.5620 Y11.1940 
G01 X6.5847 Y11.2167 
G01 X6.6102 Y11.2362 
G01 X6.6183 Y11.2503 
G01 X6.6297 Y11.2617 
G01 X6.6420 Y11.2914 
G01 X6.6581 Y11.3192 
G01 X6.6602 Y11.3353 
G01 X6.6664 Y11.3503 
G01 X6.6664 Y11.3824 
G01 X6.6706 Y11.4143 
G01 X6.6664 Y11.4299 
G01 X6.6664 Y11.4461 
G01 X6.6541 Y11.4758 
G01 X6.6458 Y11.5068 
G01 X6.6359 Y11.5197 
G01 X6.6297 Y11.5347 
G01 X6.6070 Y11.5574 
G01 X6.5875 Y11.5829 
G01 X6.5734 Y11.5910 
G01 X6.5620 Y11.6024 
G01 X6.5323 Y11.6147 
G01 X6.5045 Y11.6308 
G01 X6.4884 Y11.6329 
G01 X6.4734 Y11.6391 
G01 X6.4413 Y11.6391 
G01 X6.4285 Y11.6408 
G01 X6.2891 Y11.7802 
G01 X6.2891 Y12.8850 
G01 X6.3034 Y12.9210 
G01 X6.3210 Y12.9636 
G01 X6.3217 Y12.9671 
G01 X6.3210 Y13.0133 
G01 X6.3210 Y13.0594 
G01 X6.3051 Y14.1044 
G01 X6.3051 Y14.1506 
G01 X6.3044 Y14.1541 
G01 X6.2861 Y14.1964 
G01 X6.2684 Y14.2391 
G01 X6.2664 Y14.2421 
G01 X6.2334 Y14.2741 
G01 X6.1466 Y14.3609 
G01 X6.1466 Y15.4049 
G01 X6.1099 Y15.4935 
G01 X6.0422 Y15.5612 
G01 X5.9536 Y15.5979 
G01 X1.0951 Y15.5979 
G01 X1.0065 Y15.5612 
G01 X0.9388 Y15.4935 
G01 X0.9021 Y15.4049 
G01 X0.9021 Y2.8901 
G01 X0.9388 Y2.8016 
G00 Z2.0000  F3000
G00 X3.6978 Y4.9438  F3000
G01 Z-0.2000 F200.00 
G01 X3.7151 Y4.9304 F500.00 
G01 X3.7305 Y4.9149 
G01 X3.7634 Y4.8929 
G01 X3.7946 Y4.8686 
G01 X3.8141 Y4.8589 
G01 X3.8323 Y4.8467 
G01 X3.8688 Y4.8315 
G01 X5.6998 Y3.9160 
G01 X5.7541 Y3.8889 
G01 X5.8092 Y3.8614 
G01 X6.5411 Y3.4962 
G01 X6.5411 Y2.9873 
G01 X6.5584 Y2.9455 
G01 X6.5905 Y2.9134 
G01 X6.6323 Y2.8961 
G01 X7.9777 Y2.8961 
G01 X8.0195 Y2.9134 
G01 X8.0516 Y2.9455 
G01 X8.0689 Y2.9873 
G01 X8.0689 Y4.6327 
G01 X8.0516 Y4.6745 
G01 X8.0195 Y4.7066 
G01 X7.9777 Y4.7239 
G01 X6.8664 Y4.7239 
G01 X6.3111 Y5.0010 
G01 X4.7498 Y5.7816 
G01 X4.7509 Y6.7061 
G01 X4.8027 Y6.7061 
G01 X4.8445 Y6.7234 
G01 X4.8766 Y6.7555 
G01 X4.8939 Y6.7973 
G01 X4.8939 Y8.4427 
G01 X4.8766 Y8.4845 
G01 X4.8445 Y8.5166 
G01 X4.8027 Y8.5339 
G01 X3.7828 Y8.5339 
G01 X3.7605 Y9.9787 
G01 X3.7689 Y9.9872 
G01 X3.7939 Y10.0474 
G01 X3.7939 Y11.0126 
G01 X3.7689 Y11.0728 
G01 X3.7228 Y11.1189 
G01 X3.6626 Y11.1439 
G01 X3.2301 Y11.1439 
G01 X3.1816 Y11.1528 
G01 X3.0591 Y11.1509 
G01 X3.0267 Y11.1439 
G01 X2.5974 Y11.1439 
G01 X2.5372 Y11.1189 
G01 X2.4911 Y11.0728 
G01 X2.4661 Y11.0126 
G01 X2.4661 Y10.0474 
G01 X2.4911 Y9.9872 
G01 X2.5168 Y9.9614 
G01 X2.5531 Y7.6152 
G01 X2.5531 Y7.5587 
G01 X2.5540 Y7.5540 
G01 X2.5541 Y7.5491 
G01 X2.5660 Y7.4939 
G01 X2.5770 Y7.4386 
G01 X2.5789 Y7.4341 
G01 X2.5799 Y7.4294 
G01 X2.6023 Y7.3776 
G01 X2.6239 Y7.3254 
G01 X2.6266 Y7.3214 
G01 X2.6285 Y7.3169 
G01 X2.6606 Y7.2705 
G01 X2.6919 Y7.2236 
G01 X2.6954 Y7.2201 
G01 X2.6981 Y7.2161 
G01 X2.7386 Y7.1769 
G01 X2.7786 Y7.1369 
G01 X2.7826 Y7.1342 
G01 X2.7861 Y7.1309 
G01 X2.8334 Y7.1003 
G01 X2.8804 Y7.0689 
G01 X2.8849 Y7.0670 
G01 X2.8890 Y7.0644 
G01 X2.9414 Y7.0436 
G01 X2.9936 Y7.0220 
G01 X2.9984 Y7.0211 
G01 X3.0029 Y7.0193 
G01 X3.0584 Y7.0091 
G01 X3.1137 Y6.9981 
G01 X3.1186 Y6.9981 
G01 X3.1234 Y6.9972 
G01 X3.1798 Y6.9981 
G01 X3.3661 Y6.9981 
G01 X3.3661 Y6.7973 
G01 X3.3834 Y6.7555 
G01 X3.4155 Y6.7234 
G01 X3.4573 Y6.7061 
G01 X3.5071 Y6.7061 
G01 X3.5056 Y5.4199 
G01 X3.5028 Y5.3805 
G01 X3.5056 Y5.3588 
G01 X3.5055 Y5.3369 
G01 X3.5132 Y5.2982 
G01 X3.5181 Y5.2589 
G01 X3.5251 Y5.2382 
G01 X3.5293 Y5.2168 
G01 X3.5444 Y5.1802 
G01 X3.5569 Y5.1427 
G01 X3.5677 Y5.1238 
G01 X3.5760 Y5.1035 
G01 X3.5980 Y5.0706 
G01 X3.6176 Y5.0363 
G01 X3.6319 Y5.0198 
G01 X3.6440 Y5.0016 
G01 X3.6719 Y4.9736 
G01 X3.6978 Y4.9438 
G00 Z2.0000  F3000
G00 X4.9174 Y5.7840  F3000
G01 Z-0.2000 F200.00 
G01 X4.9251 Y5.7801 F500.00 
G01 X4.9313 Y5.7739 
G01 X4.9678 Y5.7588 
G01 X6.3014 Y5.0919 
G01 X6.3428 Y5.0712 
G01 X6.3870 Y5.0491 
G01 X6.7987 Y4.8437 
G01 X6.8049 Y4.8376 
G01 X6.8413 Y4.8225 
G01 X6.8766 Y4.8048 
G01 X6.8853 Y4.8042 
G01 X6.8934 Y4.8009 
G01 X6.9329 Y4.8009 
G01 X6.9722 Y4.7981 
G01 X6.9805 Y4.8009 
G01 X8.0341 Y4.8009 
G01 X8.1185 Y4.7164 
G01 X8.2071 Y4.6798 
G01 X8.3029 Y4.6798 
G01 X8.3385 Y4.6945 
G01 X8.3915 Y4.7164 
G01 X8.4592 Y4.7842 
G01 X8.4759 Y4.8009 
G01 X9.0740 Y4.8009 
G01 X9.0823 Y4.7981 
G01 X9.1216 Y4.8009 
G01 X9.1610 Y4.8009 
G01 X9.1691 Y4.8043 
G01 X9.1779 Y4.8049 
G01 X9.2132 Y4.8225 
G01 X9.2496 Y4.8376 
G01 X9.2558 Y4.8438 
G01 X11.9340 Y6.1819 
G01 X11.9721 Y6.2009 
G01 X12.0197 Y6.2247 
G01 X13.1241 Y6.7769 
G01 X13.1483 Y6.7837 
G01 X13.1666 Y6.7981 
G01 X13.1874 Y6.8085 
G01 X13.2038 Y6.8275 
G01 X13.2350 Y6.8521 
G01 X13.2798 Y6.8647 
G01 X13.3031 Y6.8663 
G01 X13.3255 Y6.8776 
G01 X13.3497 Y6.8844 
G01 X13.3679 Y6.8988 
G01 X13.4096 Y6.9196 
G01 X13.4492 Y6.9224 
G01 X13.4741 Y6.9195 
G01 X13.4965 Y6.9258 
G01 X13.5198 Y6.9274 
G01 X13.5422 Y6.9387 
G01 X13.9415 Y7.0512 
G01 X13.9561 Y7.0512 
G01 X13.9873 Y7.0641 
G01 X14.0197 Y7.0733 
G01 X14.0312 Y7.0823 
G01 X14.0447 Y7.0879 
G01 X14.0685 Y7.1117 
G01 X14.0949 Y7.1326 
G01 X14.1021 Y7.1453 
G01 X14.1124 Y7.1557 
G01 X14.1253 Y7.1868 
G01 X14.1418 Y7.2162 
G01 X14.1435 Y7.2307 
G01 X14.1491 Y7.2442 
G01 X14.1491 Y7.2779 
G01 X14.1531 Y7.3114 
G01 X14.1491 Y7.3254 
G01 X14.1491 Y7.3591 
G01 X14.2609 Y7.4709 
G01 X14.6851 Y7.4709 
G01 X14.7054 Y7.4663 
G01 X14.7326 Y7.4709 
G01 X14.7601 Y7.4709 
G01 X14.7793 Y7.4789 
G01 X14.7999 Y7.4824 
G01 X14.8232 Y7.4970 
G01 X14.8486 Y7.5076 
G01 X14.8634 Y7.5223 
G01 X14.8810 Y7.5334 
G01 X14.8969 Y7.5559 
G01 X14.9164 Y7.5753 
G01 X14.9244 Y7.5946 
G01 X15.7686 Y8.7853 
G01 X15.7736 Y8.7888 
G01 X15.7962 Y8.8242 
G01 X15.8205 Y8.8585 
G01 X15.8218 Y8.8644 
G01 X15.8251 Y8.8696 
G01 X15.8324 Y8.9110 
G01 X15.8418 Y8.9520 
G01 X15.8407 Y8.9579 
G01 X15.8418 Y8.9639 
G01 X15.8327 Y9.0050 
G01 X15.8257 Y9.0464 
G01 X15.8224 Y9.0516 
G01 X15.8211 Y9.0575 
G01 X15.7970 Y9.0920 
G01 X15.7747 Y9.1276 
G01 X15.7697 Y9.1311 
G01 X15.7662 Y9.1361 
G01 X15.7308 Y9.1587 
G01 X15.6965 Y9.1830 
G01 X15.6906 Y9.1843 
G01 X15.6854 Y9.1876 
G01 X15.6440 Y9.1949 
G01 X15.6030 Y9.2043 
G01 X15.5971 Y9.2033 
G01 X15.5911 Y9.2043 
G01 X15.5500 Y9.1952 
G01 X15.5086 Y9.1882 
G01 X15.5034 Y9.1849 
G01 X15.4971 Y9.1835 
G01 X15.4755 Y9.1835 
G01 X15.4507 Y9.1733 
G01 X15.4246 Y9.1675 
G01 X15.4069 Y9.1551 
G01 X15.3790 Y9.1436 
G01 X15.3637 Y9.1436 
G01 X15.3374 Y9.1483 
G01 X15.3163 Y9.1436 
G01 X15.2947 Y9.1436 
G01 X15.2700 Y9.1334 
G01 X14.7074 Y9.0091 
G01 X14.6858 Y9.0091 
G01 X14.6611 Y8.9988 
G01 X14.6349 Y8.9930 
G01 X14.6172 Y8.9807 
G01 X14.5972 Y8.9724 
G01 X14.5783 Y8.9535 
G01 X14.5564 Y8.9381 
G01 X14.5448 Y8.9199 
G01 X14.5295 Y8.9046 
G01 X14.5192 Y8.8799 
G01 X14.5049 Y8.8573 
G01 X14.5011 Y8.8360 
G01 X14.4445 Y8.6996 
G01 X14.0836 Y8.3386 
G01 X13.6120 Y8.1433 
G01 X13.1016 Y8.1433 
G01 X12.6300 Y8.3386 
G01 X12.4887 Y8.4799 
G01 X12.4405 Y8.4999 
G01 X12.4369 Y8.5014 
G01 X12.4001 Y8.5166 
G01 X12.3669 Y8.5166 
G01 X12.3453 Y8.5213 
G01 X12.3194 Y8.5166 
G01 X12.2931 Y8.5166 
G01 X12.2727 Y8.5082 
G01 X12.1999 Y8.4950 
G01 X12.1470 Y8.5065 
G01 X12.1227 Y8.5166 
G01 X12.1006 Y8.5166 
G01 X12.0791 Y8.5213 
G01 X12.0532 Y8.5166 
G01 X11.4334 Y8.5166 
G01 X11.2300 Y8.7201 
G01 X11.1414 Y8.7567 
G01 X11.0456 Y8.7567 
G01 X10.9596 Y8.7211 
G01 X10.9570 Y8.7201 
G01 X10.8893 Y8.6523 
G01 X10.8765 Y8.6214 
G01 X10.8264 Y8.6214 
G01 X10.8264 Y8.7802 
G01 X10.8091 Y8.8220 
G01 X10.7770 Y8.8541 
G01 X10.7352 Y8.8714 
G01 X10.1121 Y8.8714 
G01 X10.0582 Y8.8807 
G01 X9.9357 Y8.8777 
G01 X9.9078 Y8.8714 
G01 X9.2898 Y8.8714 
G01 X9.2480 Y8.8541 
G01 X9.2159 Y8.8220 
G01 X9.1986 Y8.7802 
G01 X9.1986 Y8.6214 
G01 X8.9989 Y8.6214 
G01 X8.9778 Y8.6261 
G01 X8.9514 Y8.6214 
G01 X8.9246 Y8.6214 
G01 X8.9047 Y8.6131 
G01 X8.8835 Y8.6094 
G01 X8.8608 Y8.5950 
G01 X8.8360 Y8.5847 
G01 X8.8208 Y8.5695 
G01 X7.0001 Y7.4094 
G01 X6.9753 Y7.3991 
G01 X6.9601 Y7.3839 
G01 X6.9419 Y7.3723 
G01 X6.9265 Y7.3503 
G01 X6.9076 Y7.3314 
G01 X6.8993 Y7.3115 
G01 X6.8870 Y7.2938 
G01 X6.8812 Y7.2676 
G01 X6.8709 Y7.2428 
G01 X6.8709 Y7.2213 
G01 X6.8662 Y7.2003 
G01 X6.8709 Y7.1738 
G01 X6.8709 Y6.7409 
G01 X6.7591 Y6.6291 
G01 X5.3009 Y6.6291 
G01 X5.2491 Y6.6810 
G01 X5.2165 Y6.7135 
G01 X5.1709 Y6.7324 
G01 X5.1280 Y6.7502 
G01 X5.0892 Y6.7502 
G01 X5.0321 Y6.7502 
G01 X4.9921 Y6.7337 
G01 X4.9436 Y6.7136 
G01 X4.9101 Y6.6802 
G01 X4.8992 Y6.6692 
G01 X4.8645 Y6.6346 
G01 X4.8463 Y6.5909 
G01 X4.8277 Y6.5461 
G01 X4.8276 Y6.4988 
G01 X4.8271 Y5.9867 
G01 X4.8243 Y5.9473 
G01 X4.8270 Y5.9390 
G01 X4.8270 Y5.9303 
G01 X4.8421 Y5.8938 
G01 X4.8546 Y5.8564 
G01 X4.8603 Y5.8498 
G01 X4.8636 Y5.8418 
G01 X4.8915 Y5.8138 
G01 X4.9174 Y5.7840 
G00 Z2.0000  F3000
G00 X5.2834 Y6.7555  F3000
G01 Z-0.2000 F200.00 
G01 X5.3155 Y6.7234 F500.00 
G01 X5.3573 Y6.7061 
G01 X6.7027 Y6.7061 
G01 X6.7445 Y6.7234 
G01 X6.7766 Y6.7555 
G01 X6.7939 Y6.7973 
G01 X6.7939 Y7.3693 
G01 X10.2063 Y9.5436 
G01 X10.7352 Y9.5436 
G01 X10.7770 Y9.5609 
G01 X10.8091 Y9.5930 
G01 X10.8264 Y9.6348 
G01 X10.8264 Y10.6802 
G01 X10.8091 Y10.7220 
G01 X10.7770 Y10.7541 
G01 X10.7352 Y10.7714 
G01 X10.1167 Y10.7714 
G01 X10.0873 Y10.7779 
G01 X9.9648 Y10.7806 
G01 X9.9127 Y10.7714 
G01 X9.2898 Y10.7714 
G01 X9.2480 Y10.7541 
G01 X9.2159 Y10.7220 
G01 X9.1986 Y10.6802 
G01 X9.1986 Y10.3763 
G01 X6.3070 Y8.5339 
G01 X5.3573 Y8.5339 
G01 X5.3155 Y8.5166 
G01 X5.2834 Y8.4845 
G01 X5.2661 Y8.4427 
G01 X5.2661 Y6.7973 
G01 X5.2834 Y6.7555 
G00 Z2.0000  F3000
G00 X6.4133 Y9.9279  F3000
G01 Z-0.2000 F200.00 
G01 X6.3779 Y9.9633 F500.00 
G01 X6.3529 Y10.0066 
G01 X6.3399 Y10.0550 
G01 X6.3399 Y10.1661 
G01 X6.3661 Y10.1661 
G01 X6.3661 Y10.0474 
G01 X6.3911 Y9.9872 
G01 X6.4372 Y9.9411 
G01 X6.4974 Y9.9161 
G01 X6.6661 Y9.9161 
G01 X6.6661 Y9.8899 
G01 X6.5050 Y9.8899 
G01 X6.4566 Y9.9029 
G01 X6.4133 Y9.9279 
G00 Z2.0000  F3000
G00 X6.4372 Y11.7411  F3000
G01 Z-0.2000 F200.00 
G01 X6.4974 Y11.7161 F500.00 
G01 X6.9298 Y11.7161 
G01 X6.9778 Y11.7073 
G01 X7.1003 Y11.7091 
G01 X7.1332 Y11.7161 
G01 X7.5626 Y11.7161 
G01 X7.6228 Y11.7411 
G01 X7.6689 Y11.7872 
G01 X7.6939 Y11.8474 
G01 X7.6939 Y12.8126 
G01 X7.6689 Y12.8728 
G01 X7.6437 Y12.8981 
G01 X7.6228 Y14.3261 
G01 X7.6602 Y14.3261 
G01 X7.7020 Y14.3434 
G01 X7.7341 Y14.3755 
G01 X7.7514 Y14.4173 
G01 X7.7514 Y16.0627 
G01 X7.7341 Y16.1045 
G01 X7.7020 Y16.1366 
G01 X7.6602 Y16.1539 
G01 X6.3148 Y16.1539 
G01 X6.2730 Y16.1366 
G01 X6.2409 Y16.1045 
G01 X6.2236 Y16.0627 
G01 X6.2236 Y14.4173 
G01 X6.2409 Y14.3755 
G01 X6.2730 Y14.3434 
G01 X6.3148 Y14.3261 
G01 X6.3789 Y14.3261 
G01 X6.4000 Y12.8818 
G01 X6.3911 Y12.8728 
G01 X6.3661 Y12.8126 
G01 X6.3661 Y11.8474 
G01 X6.3911 Y11.7872 
G01 X6.4372 Y11.7411 
G00 Z2.0000  F3000
G00 X3.8201 Y12.6939  F3000
G01 Z-0.2000 F200.00 
G01 X3.7939 Y12.6939 F500.00 
G01 X3.7939 Y12.8126 
G01 X3.7689 Y12.8728 
G01 X3.7228 Y12.9189 
G01 X3.6626 Y12.9439 
G01 X3.4939 Y12.9439 
G01 X3.4939 Y12.9701 
G01 X3.6550 Y12.9701 
G01 X3.7034 Y12.9571 
G01 X3.7467 Y12.9321 
G01 X3.7821 Y12.8967 
G01 X3.8071 Y12.8534 
G01 X3.8201 Y12.8050 
G01 X3.8201 Y12.6939 
G00 Z2.0000  F3000
G00 X2.7661 Y12.9439  F3000
G01 Z-0.2000 F200.00 
G01 X2.5974 Y12.9439 F500.00 
G01 X2.5372 Y12.9189 
G01 X2.4911 Y12.8728 
G01 X2.4661 Y12.8126 
G01 X2.4661 Y12.6939 
G01 X2.4399 Y12.6939 
G01 X2.4399 Y12.8050 
G01 X2.4529 Y12.8534 
G01 X2.4779 Y12.8967 
G01 X2.5133 Y12.9321 
G01 X2.5566 Y12.9571 
G01 X2.6050 Y12.9701 
G01 X2.7661 Y12.9701 
G01 X2.7661 Y12.9439 
G00 Z2.0000  F3000
G00 X8.1409 Y14.3755  F3000
G01 Z-0.2000 F200.00 
G01 X8.1730 Y14.3434 F500.00 
G01 X8.2148 Y14.3261 
G01 X9.5602 Y14.3261 
G01 X9.6020 Y14.3434 
G01 X9.6341 Y14.3755 
G01 X9.6514 Y14.4173 
G01 X9.6514 Y14.7896 
G01 X10.2364 Y14.9356 
G01 X22.2381 Y14.9356 
G01 X22.2381 Y8.2419 
G01 X21.6988 Y8.2419 
G01 X21.6404 Y8.3004 
G01 X21.4969 Y8.3962 
G01 X21.3375 Y8.4622 
G01 X21.1683 Y8.4959 
G01 X19.4717 Y8.4959 
G01 X19.3025 Y8.4622 
G01 X19.1431 Y8.3962 
G01 X18.9996 Y8.3004 
G01 X18.8776 Y8.1784 
G01 X18.7818 Y8.0349 
G01 X18.7158 Y7.8755 
G01 X18.6821 Y7.7063 
G01 X18.6821 Y7.5337 
G01 X18.7158 Y7.3645 
G01 X18.7818 Y7.2051 
G01 X18.8776 Y7.0616 
G01 X18.9996 Y6.9396 
G01 X19.1431 Y6.8438 
G01 X19.3025 Y6.7778 
G01 X19.4717 Y6.7441 
G01 X21.1683 Y6.7441 
G01 X21.3375 Y6.7778 
G01 X21.4969 Y6.8438 
G01 X21.6404 Y6.9396 
G01 X21.6988 Y6.9981 
G01 X22.9213 Y6.9981 
G01 X23.0414 Y7.0220 
G01 X23.1546 Y7.0689 
G01 X23.2564 Y7.1369 
G01 X23.3431 Y7.2236 
G01 X23.4111 Y7.3254 
G01 X23.4580 Y7.4386 
G01 X23.4819 Y7.5587 
G01 X23.4819 Y15.6188 
G01 X23.4580 Y15.7389 
G01 X23.4111 Y15.8521 
G01 X23.3431 Y15.9539 
G01 X23.2564 Y16.0406 
G01 X23.1546 Y16.1086 
G01 X23.0414 Y16.1555 
G01 X22.9213 Y16.1794 
G01 X10.2062 Y16.1794 
G01 X10.1912 Y16.1816 
G01 X10.1450 Y16.1794 
G01 X10.0987 Y16.1794 
G01 X10.0839 Y16.1764 
G01 X10.0689 Y16.1757 
G01 X10.0240 Y16.1645 
G01 X9.9786 Y16.1555 
G01 X9.9647 Y16.1497 
G01 X9.6481 Y16.0707 
G01 X9.6341 Y16.1045 
G01 X9.6020 Y16.1366 
G01 X9.5602 Y16.1539 
G01 X8.2148 Y16.1539 
G01 X8.1730 Y16.1366 
G01 X8.1409 Y16.1045 
G01 X8.1236 Y16.0627 
G01 X8.1236 Y14.4173 
G01 X8.1409 Y14.3755 
G00 Z2.0000  F3000
G00 X14.3434 Y14.3645  F3000
G01 Z-0.2000 F200.00 
G01 X14.3261 Y14.3227 F500.00 
G01 X14.3261 Y12.9773 
G01 X14.3434 Y12.9355 
G01 X14.3755 Y12.9034 
G01 X14.4173 Y12.8861 
G01 X14.9281 Y12.8861 
G01 X15.0001 Y12.8564 
G01 X15.1595 Y12.8248 
G01 X17.0416 Y12.8267 
G01 X17.2686 Y10.7831 
G01 X17.2699 Y10.7697 
G01 X14.8765 Y7.3939 
G01 X14.3173 Y7.3939 
G01 X14.2755 Y7.3766 
G01 X14.2434 Y7.3445 
G01 X14.2261 Y7.3027 
G01 X14.2261 Y7.0514 
G01 X13.4314 Y6.8274 
G01 X13.3562 Y6.8068 
G01 X13.3534 Y6.8054 
G01 X13.3504 Y6.8046 
G01 X13.2807 Y6.7691 
G01 X12.0112 Y6.1343 
G01 X9.1881 Y4.7239 
G01 X8.5323 Y4.7239 
G01 X8.4905 Y4.7066 
G01 X8.4584 Y4.6745 
G01 X8.4411 Y4.6327 
G01 X8.4411 Y4.1274 
G01 X8.3966 Y3.9941 
G01 X8.3762 Y3.8328 
G01 X8.3877 Y3.6707 
G01 X8.4306 Y3.5139 
G01 X8.4411 Y3.4929 
G01 X8.4411 Y2.9873 
G01 X8.4584 Y2.9455 
G01 X8.4905 Y2.9134 
G01 X8.5323 Y2.8961 
G01 X9.8777 Y2.8961 
G01 X9.9195 Y2.9134 
G01 X9.9516 Y2.9455 
G01 X9.9689 Y2.9873 
G01 X9.9689 Y3.2693 
G01 X12.6787 Y4.6231 
G01 X12.7525 Y4.6600 
G01 X12.8240 Y4.6957 
G01 X13.9516 Y5.2596 
G01 X15.0391 Y5.5661 
G01 X16.1627 Y5.5661 
G01 X16.2045 Y5.5834 
G01 X16.2366 Y5.6155 
G01 X16.2539 Y5.6573 
G01 X16.2539 Y6.4835 
G01 X18.6004 Y9.7932 
G01 X18.7849 Y9.7405 
G01 X18.8776 Y9.6016 
G01 X18.9996 Y9.4796 
G01 X19.1431 Y9.3838 
G01 X19.3025 Y9.3178 
G01 X19.4717 Y9.2841 
G01 X21.1683 Y9.2841 
G01 X21.3375 Y9.3178 
G01 X21.4969 Y9.3838 
G01 X21.6404 Y9.4796 
G01 X21.7624 Y9.6016 
G01 X21.8582 Y9.7451 
G01 X21.9242 Y9.9045 
G01 X21.9579 Y10.0737 
G01 X21.9579 Y10.2463 
G01 X21.9242 Y10.4155 
G01 X21.8582 Y10.5749 
G01 X21.7624 Y10.7184 
G01 X21.6404 Y10.8404 
G01 X21.4969 Y10.9362 
G01 X21.3375 Y11.0022 
G01 X21.1683 Y11.0359 
G01 X20.2578 Y11.0359 
G01 X18.8564 Y11.4363 
G01 X18.6050 Y13.6986 
G01 X18.6050 Y13.7346 
G01 X18.5961 Y13.7792 
G01 X18.5911 Y13.8244 
G01 X18.5802 Y13.8587 
G01 X18.5732 Y13.8940 
G01 X18.5557 Y13.9360 
G01 X18.5420 Y13.9793 
G01 X18.5246 Y14.0108 
G01 X18.5108 Y14.0441 
G01 X18.4855 Y14.0818 
G01 X18.4636 Y14.1217 
G01 X18.4404 Y14.1492 
G01 X18.4204 Y14.1791 
G01 X18.3882 Y14.2112 
G01 X18.3589 Y14.2460 
G01 X18.3308 Y14.2685 
G01 X18.3053 Y14.2939 
G01 X18.2675 Y14.3191 
G01 X18.2320 Y14.3476 
G01 X18.2000 Y14.3641 
G01 X18.1701 Y14.3841 
G01 X18.1281 Y14.4014 
G01 X18.0877 Y14.4224 
G01 X18.0531 Y14.4324 
G01 X18.0199 Y14.4461 
G01 X17.9753 Y14.4550 
G01 X17.9316 Y14.4676 
G01 X17.8957 Y14.4707 
G01 X17.8605 Y14.4777 
G01 X17.8150 Y14.4776 
G01 X17.7696 Y14.4815 
G01 X17.7339 Y14.4776 
G01 X15.1579 Y14.4750 
G01 X14.9985 Y14.4432 
G01 X14.9281 Y14.4139 
G01 X14.4173 Y14.4139 
G01 X14.3755 Y14.3966 
G01 X14.3434 Y14.3645 
G00 Z2.0000  F3000
G00 X14.3755 Y12.4966  F3000
G01 Z-0.2000 F200.00 
G01 X14.3434 Y12.4645 F500.00 
G01 X14.3261 Y12.4227 
G01 X14.3261 Y11.0773 
G01 X14.3434 Y11.0355 
G01 X14.3755 Y11.0034 
G01 X14.4173 Y10.9861 
G01 X14.6181 Y10.9861 
G01 X14.6181 Y10.3420 
G01 X14.2321 Y10.2567 
G01 X14.1425 Y10.3463 
G01 X13.9889 Y10.4579 
G01 X13.8198 Y10.5441 
G01 X13.6392 Y10.6028 
G01 X13.4517 Y10.6325 
G01 X13.2619 Y10.6325 
G01 X13.0744 Y10.6028 
G01 X12.8938 Y10.5441 
G01 X12.7247 Y10.4579 
G01 X12.5711 Y10.3463 
G01 X12.4368 Y10.2121 
G01 X12.3252 Y10.0585 
G01 X12.2391 Y9.8894 
G01 X12.2235 Y9.8414 
G01 X12.1125 Y9.8214 
G01 X11.4898 Y9.8214 
G01 X11.4480 Y9.8041 
G01 X11.4159 Y9.7720 
G01 X11.3986 Y9.7302 
G01 X11.3986 Y8.6848 
G01 X11.4159 Y8.6430 
G01 X11.4480 Y8.6109 
G01 X11.4898 Y8.5936 
G01 X12.1089 Y8.5936 
G01 X12.1403 Y8.5868 
G01 X12.2628 Y8.5846 
G01 X12.3125 Y8.5936 
G01 X12.4839 Y8.5936 
G01 X12.5711 Y8.5064 
G01 X12.7247 Y8.3948 
G01 X12.8938 Y8.3086 
G01 X13.0744 Y8.2500 
G01 X13.2619 Y8.2203 
G01 X13.4517 Y8.2203 
G01 X13.6392 Y8.2500 
G01 X13.8198 Y8.3086 
G01 X13.9889 Y8.3948 
G01 X14.1425 Y8.5064 
G01 X14.2767 Y8.6407 
G01 X14.3883 Y8.7942 
G01 X14.4745 Y8.9634 
G01 X14.5001 Y9.0421 
G01 X15.3679 Y9.2339 
G01 X15.4214 Y9.2445 
G01 X15.4275 Y9.2470 
G01 X15.4340 Y9.2485 
G01 X15.4841 Y9.2705 
G01 X15.5346 Y9.2914 
G01 X15.5401 Y9.2951 
G01 X15.5462 Y9.2977 
G01 X15.5910 Y9.3291 
G01 X15.6364 Y9.3594 
G01 X15.6411 Y9.3641 
G01 X15.6465 Y9.3679 
G01 X15.6843 Y9.4073 
G01 X15.7231 Y9.4461 
G01 X15.7267 Y9.4516 
G01 X15.7313 Y9.4564 
G01 X15.7607 Y9.5024 
G01 X15.7911 Y9.5479 
G01 X15.7937 Y9.5540 
G01 X15.7972 Y9.5596 
G01 X15.8171 Y9.6106 
G01 X15.8380 Y9.6611 
G01 X15.8393 Y9.6676 
G01 X15.8417 Y9.6738 
G01 X15.8512 Y9.7276 
G01 X15.8619 Y9.7812 
G01 X15.8619 Y9.7879 
G01 X15.8631 Y9.7944 
G01 X15.8619 Y9.8491 
G01 X15.8619 Y10.9861 
G01 X16.0627 Y10.9861 
G01 X16.1045 Y11.0034 
G01 X16.1366 Y11.0355 
G01 X16.1539 Y11.0773 
G01 X16.1539 Y12.4227 
G01 X16.1366 Y12.4645 
G01 X16.1045 Y12.4966 
G01 X16.0627 Y12.5139 
G01 X14.4173 Y12.5139 
G01 X14.3755 Y12.4966 
G00 Z2.0000  F3000
G00 X14.3216 Y4.6201  F3000
G01 Z-0.2000 F200.00 
G01 X14.8721 Y4.6201 F500.00 
G01 X14.8721 Y4.5939 
G01 X14.3173 Y4.5939 
G01 X14.2755 Y4.5766 
G01 X14.2434 Y4.5445 
G01 X14.2261 Y4.5027 
G01 X14.2261 Y4.0479 
G01 X14.1999 Y4.0479 
G01 X14.1999 Y4.4984 
G01 X14.2094 Y4.5341 
G01 X14.2279 Y4.5660 
G01 X14.2540 Y4.5921 
G01 X14.2859 Y4.6105 
G01 X14.3216 Y4.6201 
G00 Z2.0000  F3000
G00 X14.3555 Y2.7399  F3000
G01 Z-0.2000 F200.00 
G01 X14.4364 Y2.7661 F500.00 
G01 X14.8721 Y2.7661 
G01 X14.8721 Y2.7399 
G01 X14.3555 Y2.7399 
G00 Z2.0000  F3000
G00 X15.6079 Y2.7399  F3000
G01 Z-0.2000 F200.00 
G01 X15.6079 Y2.7661 F500.00 
G01 X16.1627 Y2.7661 
G01 X16.2045 Y2.7834 
G01 X16.2366 Y2.8155 
G01 X16.2539 Y2.8573 
G01 X16.2539 Y3.3121 
G01 X16.2801 Y3.3121 
G01 X16.2801 Y2.8616 
G01 X16.2706 Y2.8259 
G01 X16.2521 Y2.7940 
G01 X16.2260 Y2.7679 
G01 X16.1941 Y2.7494 
G01 X16.1584 Y2.7399 
G01 X15.6079 Y2.7399 
G00 Z2.0000  F3000
G00 X16.8600 Y4.2943  F3000
G01 Z-0.2000 F200.00 
G01 X16.9943 Y4.1600 F500.00 
G01 X17.1479 Y4.0484 
G01 X17.3170 Y3.9623 
G01 X17.4976 Y3.9036 
G01 X17.6851 Y3.8739 
G01 X17.8749 Y3.8739 
G01 X18.0624 Y3.9036 
G01 X18.2430 Y3.9623 
G01 X18.4121 Y4.0484 
G01 X18.5657 Y4.1600 
G01 X18.7000 Y4.2943 
G01 X18.8115 Y4.4479 
G01 X18.8168 Y4.4581 
G01 X18.9412 Y4.4581 
G01 X18.9996 Y4.3996 
G01 X19.1431 Y4.3038 
G01 X19.3025 Y4.2378 
G01 X19.4717 Y4.2041 
G01 X21.1683 Y4.2041 
G01 X21.3375 Y4.2378 
G01 X21.4969 Y4.3038 
G01 X21.6404 Y4.3996 
G01 X21.7624 Y4.5216 
G01 X21.8582 Y4.6651 
G01 X21.9242 Y4.8245 
G01 X21.9579 Y4.9937 
G01 X21.9579 Y5.1663 
G01 X21.9242 Y5.3355 
G01 X21.8582 Y5.4949 
G01 X21.7624 Y5.6384 
G01 X21.6404 Y5.7604 
G01 X21.4969 Y5.8562 
G01 X21.3375 Y5.9222 
G01 X21.1683 Y5.9559 
G01 X19.4717 Y5.9559 
G01 X19.3025 Y5.9222 
G01 X19.1431 Y5.8562 
G01 X18.9996 Y5.7604 
G01 X18.9412 Y5.7019 
G01 X18.8168 Y5.7019 
G01 X18.8115 Y5.7121 
G01 X18.7000 Y5.8657 
G01 X18.5657 Y6.0000 
G01 X18.4121 Y6.1115 
G01 X18.2430 Y6.1977 
G01 X18.0624 Y6.2564 
G01 X17.8749 Y6.2861 
G01 X17.6851 Y6.2861 
G01 X17.4976 Y6.2564 
G01 X17.3170 Y6.1977 
G01 X17.1479 Y6.1115 
G01 X16.9943 Y6.0000 
G01 X16.8600 Y5.8657 
G01 X16.7484 Y5.7121 
G01 X16.6623 Y5.5430 
G01 X16.6036 Y5.3624 
G01 X16.5739 Y5.1749 
G01 X16.5739 Y4.9851 
G01 X16.6036 Y4.7976 
G01 X16.6623 Y4.6170 
G01 X16.7484 Y4.4479 
G01 X16.8600 Y4.2943 
G00 Z2.0000  F3000
G00 X18.8699 Y3.1277  F3000
G01 Z-0.2000 F200.00 
G01 X18.9703 Y3.2281 F500.00 
G01 X19.0852 Y3.3115 
G01 X19.2117 Y3.3760 
G01 X19.3468 Y3.4199 
G01 X19.4870 Y3.4421 
G01 X19.9521 Y3.4421 
G01 X19.9521 Y3.4159 
G01 X19.4717 Y3.4159 
G01 X19.3025 Y3.3822 
G01 X19.1431 Y3.3162 
G01 X18.9996 Y3.2204 
G01 X18.8776 Y3.0984 
G01 X18.7818 Y2.9549 
G01 X18.7623 Y2.9079 
G01 X18.7330 Y2.9079 
G01 X18.7864 Y3.0128 
G01 X18.8699 Y3.1277 
G00 Z2.0000  F3000
G00 X18.7623 Y2.1721  F3000
G01 Z-0.2000 F200.00 
G01 X18.7818 Y2.1251 F500.00 
G01 X18.8776 Y1.9816 
G01 X18.9996 Y1.8596 
G01 X19.1431 Y1.7638 
G01 X19.3025 Y1.6978 
G01 X19.4717 Y1.6641 
G01 X19.9521 Y1.6641 
G01 X19.9521 Y1.6379 
G01 X19.4870 Y1.6379 
G01 X19.3468 Y1.6601 
G01 X19.2117 Y1.7040 
G01 X19.0852 Y1.7684 
G01 X18.9703 Y1.8519 
G01 X18.8699 Y1.9523 
G01 X18.7864 Y2.0672 
G01 X18.7330 Y2.1721 
G01 X18.7623 Y2.1721 
G00 Z2.0000  F3000
G00 X20.6879 Y1.6641  F3000
G01 Z-0.2000 F200.00 
G01 X21.1683 Y1.6641 F500.00 
G01 X21.3375 Y1.6978 
G01 X21.4969 Y1.7638 
G01 X21.6404 Y1.8596 
G01 X21.7624 Y1.9816 
G01 X21.8582 Y2.1251 
G01 X21.8777 Y2.1721 
G01 X21.9070 Y2.1721 
G01 X21.8535 Y2.0672 
G01 X21.7701 Y1.9523 
G01 X21.6697 Y1.8519 
G01 X21.5548 Y1.7684 
G01 X21.4283 Y1.7040 
G01 X21.2932 Y1.6601 
G01 X21.1530 Y1.6379 
G01 X20.6879 Y1.6379 
G01 X20.6879 Y1.6641 
G00 Z2.0000  F3000
G00 X20.6879 Y3.4159  F3000
G01 Z-0.2000 F200.00 
G01 X20.6879 Y3.4421 F500.00 
G01 X21.1530 Y3.4421 
G01 X21.2932 Y3.4199 
G01 X21.4283 Y3.3760 
G01 X21.5548 Y3.3115 
G01 X21.6697 Y3.2281 
G01 X21.7701 Y3.1277 
G01 X21.8535 Y3.0128 
G01 X21.9070 Y2.9079 
G01 X21.8777 Y2.9079 
G01 X21.8582 Y2.9549 
G01 X21.7624 Y3.0984 
G01 X21.6404 Y3.2204 
G01 X21.4969 Y3.3162 
G01 X21.3375 Y3.3822 
G01 X21.1683 Y3.4159 
G01 X20.6879 Y3.4159 
G00 Z2.0000  F3000
G00 X10.8246 Y7.6715  F3000
G01 Z-0.2000 F200.00 
G01 X10.7985 Y7.6454 F500.00 
G01 X10.7666 Y7.6269 
G01 X10.7309 Y7.6174 
G01 X10.3764 Y7.6174 
G01 X10.3764 Y7.6436 
G01 X10.7352 Y7.6436 
G01 X10.7770 Y7.6609 
G01 X10.8091 Y7.6930 
G01 X10.8264 Y7.7348 
G01 X10.8264 Y7.8936 
G01 X10.8526 Y7.8936 
G01 X10.8526 Y7.7391 
G01 X10.8430 Y7.7034 
G01 X10.8246 Y7.6715 
G00 Z2.0000  F3000
G00 X0.9141 Y2.7092  F3000
G01 Z-0.2000 F200.00 
G01 X0.9310 Y2.6963 F500.00 
G01 X0.9460 Y2.6813 
G01 X0.9643 Y2.6707 
G01 X0.9812 Y2.6578 
G01 X1.0008 Y2.6496 
G01 X1.0191 Y2.6390 
G01 X1.0396 Y2.6335 
G01 X1.0592 Y2.6254 
G01 X1.0803 Y2.6227 
G01 X1.1007 Y2.6172 
G01 X1.1220 Y2.6172 
G01 X1.1430 Y2.6144 
G01 X1.1640 Y2.6172 
G01 X1.1852 Y2.6172 
G01 X1.2057 Y2.6227 
G01 X1.2268 Y2.6254 
G01 X1.2464 Y2.6336 
G01 X1.2669 Y2.6390 
G01 X1.2852 Y2.6496 
G01 X1.3048 Y2.6578 
G01 X1.3217 Y2.6707 
G01 X1.3400 Y2.6813 
G01 X1.3550 Y2.6963 
G01 X1.3719 Y2.7092 
G01 X1.3848 Y2.7260 
G01 X1.3998 Y2.7410 
G01 X1.4104 Y2.7594 
G01 X1.4233 Y2.7762 
G01 X1.4314 Y2.7958 
G01 X1.4420 Y2.8142 
G01 X1.4475 Y2.8347 
G01 X1.5887 Y3.1756 
G01 X1.9044 Y3.4913 
G01 X2.3168 Y3.6621 
G01 X2.7632 Y3.6621 
G01 X3.1756 Y3.4913 
G01 X3.4913 Y3.1756 
G01 X3.6621 Y2.7632 
G01 X3.6621 Y2.3168 
G01 X3.4913 Y1.9044 
G01 X3.1756 Y1.5887 
G01 X2.8347 Y1.4475 
G01 X2.8142 Y1.4420 
G01 X2.7958 Y1.4314 
G01 X2.7762 Y1.4233 
G01 X2.7594 Y1.4104 
G01 X2.7410 Y1.3998 
G01 X2.7260 Y1.3848 
G01 X2.7092 Y1.3719 
G01 X2.6963 Y1.3550 
G01 X2.6813 Y1.3400 
G01 X2.6707 Y1.3217 
G01 X2.6578 Y1.3048 
G01 X2.6496 Y1.2852 
G01 X2.6390 Y1.2669 
G01 X2.6336 Y1.2464 
G01 X2.6254 Y1.2268 
G01 X2.6227 Y1.2057 
G01 X2.6172 Y1.1852 
G01 X2.6172 Y1.1640 
G01 X2.6144 Y1.1430 
G01 X2.6172 Y1.1220 
G01 X2.6172 Y1.1007 
G01 X2.6227 Y1.0803 
G01 X2.6254 Y1.0592 
G01 X2.6335 Y1.0396 
G01 X2.6390 Y1.0191 
G01 X2.6496 Y1.0008 
G01 X2.6578 Y0.9812 
G01 X2.6707 Y0.9643 
G01 X2.6813 Y0.9460 
G01 X2.6963 Y0.9310 
G01 X2.7092 Y0.9141 
G01 X2.7260 Y0.9012 
G01 X2.7410 Y0.8862 
G01 X2.7594 Y0.8756 
G01 X2.7762 Y0.8627 
G01 X2.7958 Y0.8546 
G01 X2.8142 Y0.8440 
G01 X2.8347 Y0.8385 
G01 X2.8543 Y0.8304 
G01 X2.8753 Y0.8276 
G01 X2.8958 Y0.8221 
G01 X2.9170 Y0.8221 
G01 X2.9381 Y0.8193 
G01 X2.9591 Y0.8221 
G01 X22.6992 Y0.8221 
G01 X22.7809 Y0.8440 
G01 X22.8540 Y0.8862 
G01 X22.9138 Y0.9460 
G01 X22.9560 Y1.0191 
G01 X22.9779 Y1.1007 
G01 X22.9779 Y6.7224 
G01 X22.9560 Y6.8041 
G01 X22.9138 Y6.8772 
G01 X22.8729 Y6.9181 
G01 X22.9291 Y6.9181 
G01 X23.0647 Y6.9451 
G01 X23.1925 Y6.9980 
G01 X23.3074 Y7.0748 
G01 X23.4052 Y7.1726 
G01 X23.4820 Y7.2875 
G01 X23.5349 Y7.4153 
G01 X23.5619 Y7.5509 
G01 X23.5619 Y15.6266 
G01 X23.5349 Y15.7622 
G01 X23.4820 Y15.8900 
G01 X23.4052 Y16.0049 
G01 X23.3074 Y16.1027 
G01 X23.1925 Y16.1795 
G01 X23.0647 Y16.2324 
G01 X22.9291 Y16.2594 
G01 X10.2121 Y16.2594 
G01 X10.1953 Y16.2619 
G01 X10.1431 Y16.2594 
G01 X10.0909 Y16.2594 
G01 X10.0742 Y16.2561 
G01 X10.0572 Y16.2553 
G01 X10.0065 Y16.2426 
G01 X9.9553 Y16.2324 
G01 X9.9395 Y16.2259 
G01 X9.6885 Y16.1633 
G01 X9.6473 Y16.2044 
G01 X9.5761 Y16.2339 
G01 X8.1989 Y16.2339 
G01 X8.1277 Y16.2044 
G01 X8.0731 Y16.1498 
G01 X8.0436 Y16.0786 
G01 X8.0436 Y14.4289 
G01 X8.0246 Y14.4337 
G01 X7.9860 Y14.4440 
G01 X7.9836 Y14.4440 
G01 X7.9813 Y14.4446 
G01 X7.9414 Y14.4440 
G01 X7.9015 Y14.4440 
G01 X7.8992 Y14.4434 
G01 X7.8968 Y14.4434 
G01 X7.8584 Y14.4325 
G01 X7.8314 Y14.4253 
G01 X7.8314 Y16.0786 
G01 X7.8019 Y16.1498 
G01 X7.7473 Y16.2044 
G01 X7.6761 Y16.2339 
G01 X6.2989 Y16.2339 
G01 X6.2277 Y16.2044 
G01 X6.1731 Y16.1498 
G01 X6.1436 Y16.0786 
G01 X6.1436 Y15.5729 
G01 X6.1027 Y15.6138 
G01 X6.0296 Y15.6560 
G01 X5.9479 Y15.6779 
G01 X1.1007 Y15.6779 
G01 X1.0191 Y15.6560 
G01 X0.9460 Y15.6138 
G01 X0.8862 Y15.5540 
G01 X0.8440 Y15.4809 
G01 X0.8221 Y15.3992 
G01 X0.8221 Y2.9591 
G01 X0.8193 Y2.9381 
G01 X0.8221 Y2.9170 
G01 X0.8221 Y2.8958 
G01 X0.8276 Y2.8753 
G01 X0.8304 Y2.8543 
G01 X0.8385 Y2.8347 
G01 X0.8440 Y2.8142 
G01 X0.8546 Y2.7958 
G01 X0.8627 Y2.7762 
G01 X0.8756 Y2.7594 
G01 X0.8862 Y2.7410 
G01 X0.9012 Y2.7260 
G01 X0.9141 Y2.7092 
G00 Z2.0000  F3000
G00 X3.2733 Y6.9069  F3000
G01 Z-0.2000 F200.00 
G01 X3.2620 Y6.9181 F500.00 
G01 X3.2861 Y6.9181 
G01 X3.2861 Y6.8944 
G01 X3.2733 Y6.9069 
G00 Z2.0000  F3000
G00 X4.9739 Y6.8131  F3000
G01 Z-0.2000 F200.00 
G01 X4.9739 Y8.4269 F500.00 
G01 X5.0066 Y8.4181 
G01 X5.0377 Y8.4098 
G01 X5.1223 Y8.4098 
G01 X5.1861 Y8.4269 
G01 X5.1861 Y6.8131 
G01 X5.1693 Y6.8176 
G01 X5.1223 Y6.8302 
G01 X5.0882 Y6.8302 
G01 X5.0378 Y6.8302 
G01 X5.0029 Y6.8209 
G01 X4.9739 Y6.8131 
G00 Z2.0000  F3000
G00 X3.8799 Y8.6139  F3000
G01 Z-0.2000 F200.00 
G01 X3.8616 Y8.6139 F500.00 
G01 X3.8613 Y8.6322 
G01 X3.8707 Y8.6231 
G01 X3.8799 Y8.6139 
G00 Z2.0000  F3000
G00 X3.5186 Y11.2239  F3000
G01 Z-0.2000 F200.00 
G01 X3.2374 Y11.2239 F500.00 
G01 X3.1883 Y11.2329 
G01 X3.0500 Y11.2307 
G01 X3.0182 Y11.2239 
G01 X2.7414 Y11.2239 
G01 X2.7814 Y11.2638 
G01 X2.8046 Y11.3034 
G01 X2.8245 Y11.3379 
G01 X2.8286 Y11.3530 
G01 X2.8464 Y11.4195 
G01 X2.8464 Y11.5041 
G01 X2.8327 Y11.5551 
G01 X2.8245 Y11.5857 
G01 X2.8103 Y11.6103 
G01 X2.7954 Y11.6361 
G01 X3.4646 Y11.6361 
G01 X3.4522 Y11.6147 
G01 X3.4355 Y11.5857 
G01 X3.4277 Y11.5565 
G01 X3.4136 Y11.5041 
G01 X3.4136 Y11.4195 
G01 X3.4309 Y11.3549 
G01 X3.4355 Y11.3379 
G01 X3.4547 Y11.3046 
G01 X3.4777 Y11.2648 
G01 X3.5186 Y11.2239 
G00 Z2.0000  F3000
G00 X6.6954 Y11.2239  F3000
G01 Z-0.2000 F200.00 
G01 X6.7078 Y11.2453 F500.00 
G01 X6.7245 Y11.2743 
G01 X6.7323 Y11.3035 
G01 X6.7464 Y11.3559 
G01 X6.7464 Y11.4404 
G01 X6.7291 Y11.5051 
G01 X6.7245 Y11.5221 
G01 X6.7053 Y11.5554 
G01 X6.6823 Y11.5952 
G01 X6.6414 Y11.6361 
G01 X6.9225 Y11.6361 
G01 X6.9711 Y11.6272 
G01 X7.1094 Y11.6292 
G01 X7.1417 Y11.6361 
G01 X7.4186 Y11.6361 
G01 X7.3786 Y11.5962 
G01 X7.3554 Y11.5566 
G01 X7.3355 Y11.5221 
G01 X7.3314 Y11.5070 
G01 X7.3136 Y11.4404 
G01 X7.3136 Y11.3559 
G01 X7.3273 Y11.3049 
G01 X7.3355 Y11.2743 
G01 X7.3497 Y11.2497 
G01 X7.3646 Y11.2239 
G01 X6.6954 Y11.2239 
G00 Z2.0000  F3000
G00 X7.7864 Y9.6719  F3000
G01 Z-0.2000 F200.00 
G01 X7.7877 Y9.6713 F500.00 
G01 X7.8182 Y9.6536 
G01 X7.8251 Y9.6518 
G01 X7.8314 Y9.6485 
G01 X7.8658 Y9.6409 
G01 X7.8867 Y9.6353 
G01 X7.7754 Y9.5644 
G01 X7.7773 Y9.5727 
G01 X7.7864 Y9.6067 
G01 X7.7864 Y9.6139 
G01 X7.7879 Y9.6208 
G01 X7.7864 Y9.6560 
G01 X7.7864 Y9.6719 
G00 Z2.0000  F3000
G00 X9.0334 Y8.7014  F3000
G01 Z-0.2000 F200.00 
G01 X9.1186 Y8.7557 F500.00 
G01 X9.1186 Y8.7014 
G01 X9.0334 Y8.7014 
G00 Z2.0000  F3000
G00 X9.4258 Y8.9514  F3000
G01 Z-0.2000 F200.00 
G01 X10.2297 Y9.4636 F500.00 
G01 X10.7511 Y9.4636 
G01 X10.8223 Y9.4931 
G01 X10.8769 Y9.5477 
G01 X10.9064 Y9.6189 
G01 X10.9064 Y9.7340 
G01 X10.9473 Y9.6932 
G01 X10.9931 Y9.6667 
G01 X11.0204 Y9.6509 
G01 X11.1020 Y9.6290 
G01 X11.1865 Y9.6290 
G01 X11.2647 Y9.6500 
G01 X11.2682 Y9.6509 
G01 X11.3186 Y9.6800 
G01 X11.3186 Y8.7446 
G01 X11.2905 Y8.7726 
G01 X11.2174 Y8.8149 
G01 X11.1357 Y8.8367 
G01 X11.0512 Y8.8367 
G01 X10.9696 Y8.8149 
G01 X10.9064 Y8.7784 
G01 X10.9064 Y8.7961 
G01 X10.8769 Y8.8673 
G01 X10.8223 Y8.9219 
G01 X10.7511 Y8.9514 
G01 X10.1190 Y8.9514 
G01 X10.0641 Y8.9609 
G01 X9.9258 Y8.9574 
G01 X9.8989 Y8.9514 
G01 X9.4258 Y8.9514 
G00 Z2.0000  F3000
G00 X8.3611 Y4.6169  F3000
G01 Z-0.2000 F200.00 
G01 X8.3611 Y4.1404 F500.00 
G01 X8.3182 Y4.0119 
G01 X8.2959 Y3.8350 
G01 X8.3084 Y3.6572 
G01 X8.3555 Y3.4852 
G01 X8.3611 Y3.4740 
G01 X8.3611 Y3.0031 
G01 X8.3284 Y3.0119 
G01 X8.2972 Y3.0202 
G01 X8.2127 Y3.0202 
G01 X8.1489 Y3.0031 
G01 X8.1489 Y4.6169 
G01 X8.2127 Y4.5998 
G01 X8.2972 Y4.5998 
G01 X8.3258 Y4.6074 
G01 X8.3611 Y4.6169 
G00 Z2.0000  F3000
G00 X16.3289 Y4.5307  F3000
G01 Z-0.2000 F200.00 
G01 X16.3629 Y4.5398 F500.00 
G01 X16.3799 Y4.5443 
G01 X16.4132 Y4.5636 
G01 X16.4530 Y4.5866 
G01 X16.5128 Y4.6463 
G01 X16.5480 Y4.7072 
G01 X16.5881 Y4.5863 
G01 X16.6403 Y4.4840 
G01 X16.5632 Y4.5046 
G01 X16.4787 Y4.5046 
G01 X16.4753 Y4.5037 
G01 X16.3971 Y4.4828 
G01 X16.3339 Y4.4463 
G01 X16.3339 Y4.5186 
G01 X16.3289 Y4.5307 
G00 Z2.0000  F3000
G00 X16.3044 Y5.5702  F3000
G01 Z-0.2000 F200.00 
G01 X16.3339 Y5.6414 F500.00 
G01 X16.3339 Y5.8111 
G01 X16.3738 Y5.7712 
G01 X16.4479 Y5.7280 
G01 X16.5295 Y5.7062 
G01 X16.6140 Y5.7062 
G01 X16.6622 Y5.7191 
G01 X16.5881 Y5.5737 
G01 X16.5343 Y5.4080 
G01 X16.5128 Y5.4452 
G01 X16.4530 Y5.5050 
G01 X16.3799 Y5.5472 
G01 X16.3022 Y5.5680 
G01 X16.3044 Y5.5702 
G00 Z2.0000  F3000
G00 X18.8597 Y5.7819  F3000
G01 Z-0.2000 F200.00 
G01 X18.8563 Y5.7866 F500.00 
G01 X18.8688 Y5.7833 
G01 X18.8900 Y5.7833 
G01 X18.9006 Y5.7819 
G01 X18.8597 Y5.7819 
G00 Z2.0000  F3000
G00 X18.8597 Y4.3781  F3000
G01 Z-0.2000 F200.00 
G01 X18.9006 Y4.3781 F500.00 
G01 X18.8900 Y4.3767 
G01 X18.8688 Y4.3767 
G01 X18.8563 Y4.3734 
G01 X18.8597 Y4.3781 
G00 Z2.0000  F3000
G00 X18.7364 Y9.6690  F3000
G01 Z-0.2000 F200.00 
G01 X18.7343 Y9.6692 F500.00 
G01 X18.7197 Y9.6731 
G01 X18.6924 Y9.6731 
G01 X18.6652 Y9.6757 
G01 X18.6503 Y9.6731 
G01 X18.6352 Y9.6731 
G01 X18.6089 Y9.6661 
G01 X18.6329 Y9.7007 
G01 X18.7347 Y9.6716 
G01 X18.7364 Y9.6690 
G00 Z2.0000  F3000
G00 X18.9300 Y11.4985  F3000
G01 Z-0.2000 F200.00 
G01 X18.6850 Y13.7031 F500.00 
G01 X18.6850 Y13.7425 
G01 X18.6752 Y13.7915 
G01 X18.6697 Y13.8410 
G01 X18.6578 Y13.8787 
G01 X18.6501 Y13.9174 
G01 X18.6309 Y13.9634 
G01 X18.6158 Y14.0110 
G01 X18.5968 Y14.0456 
G01 X18.5817 Y14.0820 
G01 X18.5539 Y14.1235 
G01 X18.5298 Y14.1672 
G01 X18.5044 Y14.1974 
G01 X18.4825 Y14.2302 
G01 X18.4472 Y14.2654 
G01 X18.4150 Y14.3036 
G01 X18.3842 Y14.3282 
G01 X18.3563 Y14.3561 
G01 X18.3148 Y14.3838 
G01 X18.2758 Y14.4149 
G01 X18.2408 Y14.4331 
G01 X18.2079 Y14.4550 
G01 X18.1618 Y14.4741 
G01 X18.1175 Y14.4970 
G01 X18.0796 Y14.5080 
G01 X18.0432 Y14.5231 
G01 X17.9942 Y14.5328 
G01 X17.9463 Y14.5466 
G01 X17.9070 Y14.5500 
G01 X17.8683 Y14.5577 
G01 X17.8184 Y14.5576 
G01 X17.7686 Y14.5619 
G01 X17.7294 Y14.5575 
G01 X15.1500 Y14.5550 
G01 X14.9751 Y14.5201 
G01 X14.9122 Y14.4939 
G01 X14.4461 Y14.4939 
G01 X14.4679 Y14.5754 
G01 X14.4679 Y14.6599 
G01 X14.4461 Y14.7416 
G01 X14.4222 Y14.7829 
G01 X14.4038 Y14.8147 
G01 X14.3630 Y14.8556 
G01 X22.1581 Y14.8556 
G01 X22.1581 Y9.5258 
G01 X22.1172 Y9.5667 
G01 X22.0714 Y9.5931 
G01 X22.0441 Y9.6089 
G01 X21.9624 Y9.6308 
G01 X21.8781 Y9.6308 
G01 X21.9291 Y9.7072 
G01 X22.0012 Y9.8812 
G01 X22.0379 Y10.0658 
G01 X22.0379 Y10.2541 
G01 X22.0012 Y10.4388 
G01 X21.9291 Y10.6128 
G01 X21.8245 Y10.7693 
G01 X21.6913 Y10.9025 
G01 X21.5348 Y11.0071 
G01 X21.3608 Y11.0792 
G01 X21.1761 Y11.1159 
G01 X20.2690 Y11.1159 
G01 X18.9300 Y11.4985 
G00 Z2.0000  F3000
G00 X17.1872 Y10.7915  F3000
G01 Z-0.2000 F200.00 
G01 X15.9161 Y8.9985 F500.00 
G01 X15.9113 Y9.0204 
G01 X15.9055 Y9.0543 
G01 X15.9022 Y9.0615 
G01 X15.9005 Y9.0692 
G01 X15.8846 Y9.0998 
G01 X15.8702 Y9.1311 
G01 X15.8652 Y9.1372 
G01 X15.8615 Y9.1442 
G01 X15.8383 Y9.1696 
G01 X15.8163 Y9.1961 
G01 X15.8098 Y9.2007 
G01 X15.8045 Y9.2066 
G01 X15.7755 Y9.2251 
G01 X15.7474 Y9.2450 
G01 X15.7399 Y9.2477 
G01 X15.7332 Y9.2520 
G01 X15.7004 Y9.2624 
G01 X15.6682 Y9.2743 
G01 X15.6602 Y9.2751 
G01 X15.6561 Y9.2764 
G01 X15.6874 Y9.2973 
G01 X15.6927 Y9.3026 
G01 X15.6988 Y9.3069 
G01 X15.7415 Y9.3513 
G01 X15.7852 Y9.3951 
G01 X15.7894 Y9.4013 
G01 X15.7945 Y9.4067 
G01 X15.8277 Y9.4587 
G01 X15.8620 Y9.5100 
G01 X15.8649 Y9.5169 
G01 X15.8689 Y9.5232 
G01 X15.8913 Y9.5808 
G01 X15.9149 Y9.6378 
G01 X15.9164 Y9.6451 
G01 X15.9191 Y9.6521 
G01 X15.9299 Y9.7129 
G01 X15.9419 Y9.7734 
G01 X15.9419 Y9.7808 
G01 X15.9432 Y9.7882 
G01 X15.9419 Y9.8499 
G01 X15.9419 Y10.9061 
G01 X16.0786 Y10.9061 
G01 X16.1498 Y10.9356 
G01 X16.2044 Y10.9902 
G01 X16.2339 Y11.0614 
G01 X16.2339 Y12.4386 
G01 X16.2044 Y12.5098 
G01 X16.1498 Y12.5644 
G01 X16.0786 Y12.5939 
G01 X14.4331 Y12.5939 
G01 X14.4502 Y12.6577 
G01 X14.4502 Y12.7422 
G01 X14.4426 Y12.7708 
G01 X14.4331 Y12.8061 
G01 X14.9123 Y12.8061 
G01 X14.9768 Y12.7794 
G01 X15.1517 Y12.7448 
G01 X16.9700 Y12.7466 
G01 X17.1872 Y10.7915 
G00 Z2.0000  F3000
G00 X14.5200 Y10.7875  F3000
G01 Z-0.2000 F200.00 
G01 X14.5172 Y10.8085 F500.00 
G01 X14.5091 Y10.8281 
G01 X14.5036 Y10.8486 
G01 X14.4930 Y10.8670 
G01 X14.4849 Y10.8866 
G01 X14.4720 Y10.9034 
G01 X14.4704 Y10.9061 
G01 X14.5381 Y10.9061 
G01 X14.5381 Y10.4062 
G01 X14.2577 Y10.3443 
G01 X14.2003 Y10.4017 
G01 X14.2046 Y10.4011 
G01 X14.2256 Y10.4039 
G01 X14.2468 Y10.4039 
G01 X14.2673 Y10.4094 
G01 X14.2883 Y10.4121 
G01 X14.3079 Y10.4203 
G01 X14.3284 Y10.4257 
G01 X14.3468 Y10.4364 
G01 X14.3664 Y10.4445 
G01 X14.3832 Y10.4574 
G01 X14.4016 Y10.4680 
G01 X14.4166 Y10.4830 
G01 X14.4334 Y10.4959 
G01 X14.4463 Y10.5127 
G01 X14.4613 Y10.5277 
G01 X14.4720 Y10.5461 
G01 X14.4849 Y10.5629 
G01 X14.4930 Y10.5825 
G01 X14.5036 Y10.6009 
G01 X14.5091 Y10.6214 
G01 X14.5172 Y10.6410 
G01 X14.5200 Y10.6620 
G01 X14.5255 Y10.6825 
G01 X14.5255 Y10.7037 
G01 X14.5282 Y10.7248 
G01 X14.5255 Y10.7458 
G01 X14.5255 Y10.7670 
G01 X14.5200 Y10.7875 
G00 Z2.0000  F3000
G00 X22.1361 Y8.3219  F3000
G01 Z-0.2000 F200.00 
G01 X22.1581 Y8.3439 F500.00 
G01 X22.1581 Y8.3219 
G01 X22.1361 Y8.3219 
G00 Z2.0000  F3000
G00 X0.8571 Y2.6521  F3000
G01 Z-0.2000 F200.00 
G01 X0.8781 Y2.6360 F500.00 
G01 X0.8968 Y2.6173 
G01 X0.9198 Y2.6040 
G01 X0.9408 Y2.5879 
G01 X0.9653 Y2.5777 
G01 X0.9883 Y2.5645 
G01 X1.0138 Y2.5576 
G01 X1.0383 Y2.5475 
G01 X1.0646 Y2.5440 
G01 X1.0902 Y2.5372 
G01 X1.1167 Y2.5372 
G01 X1.1430 Y2.5337 
G01 X1.1693 Y2.5372 
G01 X1.1958 Y2.5372 
G01 X1.2214 Y2.5440 
G01 X1.2477 Y2.5475 
G01 X1.2721 Y2.5576 
G01 X1.2977 Y2.5645 
G01 X1.3207 Y2.5777 
G01 X1.3452 Y2.5879 
G01 X1.3662 Y2.6040 
G01 X1.3892 Y2.6173 
G01 X1.4079 Y2.6360 
G01 X1.4289 Y2.6521 
G01 X1.4451 Y2.6732 
G01 X1.4638 Y2.6919 
G01 X1.4770 Y2.7149 
G01 X1.4932 Y2.7359 
G01 X1.5033 Y2.7604 
G01 X1.5166 Y2.7833 
G01 X1.5234 Y2.8089 
G01 X1.6565 Y3.1303 
G01 X1.9497 Y3.4234 
G01 X2.3327 Y3.5821 
G01 X2.7473 Y3.5821 
G01 X3.1303 Y3.4234 
G01 X3.4234 Y3.1303 
G01 X3.5821 Y2.7473 
G01 X3.5821 Y2.3327 
G01 X3.4234 Y1.9497 
G01 X3.1303 Y1.6565 
G01 X2.8089 Y1.5234 
G01 X2.7833 Y1.5166 
G01 X2.7604 Y1.5033 
G01 X2.7359 Y1.4932 
G01 X2.7149 Y1.4770 
G01 X2.6919 Y1.4638 
G01 X2.6732 Y1.4451 
G01 X2.6521 Y1.4289 
G01 X2.6360 Y1.4079 
G01 X2.6173 Y1.3892 
G01 X2.6040 Y1.3662 
G01 X2.5879 Y1.3452 
G01 X2.5777 Y1.3207 
G01 X2.5645 Y1.2977 
G01 X2.5576 Y1.2721 
G01 X2.5475 Y1.2477 
G01 X2.5440 Y1.2214 
G01 X2.5372 Y1.1958 
G01 X2.5372 Y1.1693 
G01 X2.5337 Y1.1430 
G01 X2.5372 Y1.1167 
G01 X2.5372 Y1.0902 
G01 X2.5440 Y1.0646 
G01 X2.5475 Y1.0383 
G01 X2.5576 Y1.0138 
G01 X2.5645 Y0.9883 
G01 X2.5777 Y0.9653 
G01 X2.5879 Y0.9408 
G01 X2.6040 Y0.9198 
G01 X2.6173 Y0.8968 
G01 X2.6360 Y0.8781 
G01 X2.6521 Y0.8571 
G01 X2.6732 Y0.8409 
G01 X2.6919 Y0.8222 
G01 X2.7149 Y0.8089 
G01 X2.7359 Y0.7928 
G01 X2.7604 Y0.7827 
G01 X2.7833 Y0.7694 
G01 X2.8089 Y0.7626 
G01 X2.8334 Y0.7524 
G01 X2.8597 Y0.7490 
G01 X2.8853 Y0.7421 
G01 X2.9118 Y0.7421 
G01 X2.9381 Y0.7386 
G01 X2.9643 Y0.7421 
G01 X22.7098 Y0.7421 
G01 X22.8117 Y0.7694 
G01 X22.9032 Y0.8222 
G01 X22.9778 Y0.8968 
G01 X23.0306 Y0.9883 
G01 X23.0579 Y1.0902 
G01 X23.0579 Y6.7330 
G01 X23.0306 Y6.8349 
G01 X23.0193 Y6.8545 
G01 X23.0881 Y6.8681 
G01 X23.2304 Y6.9271 
G01 X23.3584 Y7.0127 
G01 X23.4673 Y7.1216 
G01 X23.5529 Y7.2496 
G01 X23.6119 Y7.3919 
G01 X23.6419 Y7.5430 
G01 X23.6419 Y15.6345 
G01 X23.6119 Y15.7856 
G01 X23.5529 Y15.9279 
G01 X23.4673 Y16.0559 
G01 X23.3584 Y16.1648 
G01 X23.2304 Y16.2504 
G01 X23.0881 Y16.3093 
G01 X22.9370 Y16.3394 
G01 X10.2180 Y16.3394 
G01 X10.1993 Y16.3422 
G01 X10.1412 Y16.3394 
G01 X10.0830 Y16.3394 
G01 X10.0644 Y16.3357 
G01 X10.0454 Y16.3348 
G01 X9.9890 Y16.3207 
G01 X9.9319 Y16.3093 
G01 X9.9144 Y16.3021 
G01 X9.7130 Y16.2518 
G01 X9.7057 Y16.2592 
G01 X9.6432 Y16.2952 
G01 X9.5736 Y16.3139 
G01 X8.2014 Y16.3139 
G01 X8.1318 Y16.2952 
G01 X8.0693 Y16.2592 
G01 X8.0183 Y16.2082 
G01 X7.9823 Y16.1457 
G01 X7.9636 Y16.0761 
G01 X7.9636 Y14.5244 
G01 X7.9407 Y14.5240 
G01 X7.9114 Y14.5240 
G01 X7.9114 Y16.0761 
G01 X7.8927 Y16.1457 
G01 X7.8567 Y16.2082 
G01 X7.8057 Y16.2592 
G01 X7.7432 Y16.2952 
G01 X7.6736 Y16.3139 
G01 X6.3014 Y16.3139 
G01 X6.2318 Y16.2952 
G01 X6.1693 Y16.2592 
G01 X6.1183 Y16.2082 
G01 X6.0823 Y16.1457 
G01 X6.0636 Y16.0761 
G01 X6.0636 Y15.7287 
G01 X6.0604 Y15.7306 
G01 X5.9585 Y15.7579 
G01 X1.0902 Y15.7579 
G01 X0.9883 Y15.7306 
G01 X0.8968 Y15.6778 
G01 X0.8222 Y15.6032 
G01 X0.7694 Y15.5117 
G01 X0.7421 Y15.4098 
G01 X0.7421 Y2.9643 
G01 X0.7386 Y2.9381 
G01 X0.7421 Y2.9118 
G01 X0.7421 Y2.8853 
G01 X0.7490 Y2.8597 
G01 X0.7524 Y2.8334 
G01 X0.7626 Y2.8089 
G01 X0.7694 Y2.7833 
G01 X0.7827 Y2.7604 
G01 X0.7928 Y2.7359 
G01 X0.8089 Y2.7149 
G01 X0.8222 Y2.6919 
G01 X0.8409 Y2.6732 
G01 X0.8571 Y2.6521 
G00 Z2.0000  F3000
G00 X8.2289 Y3.1002  F3000
G01 Z-0.2000 F200.00 
G01 X8.2289 Y3.6480 F500.00 
G01 X8.2292 Y3.6437 
G01 X8.2804 Y3.4565 
G01 X8.2811 Y3.1002 
G01 X8.2289 Y3.1002 
G00 Z2.0000  F3000
G00 X8.2289 Y3.9432  F3000
G01 Z-0.2000 F200.00 
G01 X8.2289 Y4.5198 F500.00 
G01 X8.2811 Y4.5198 
G01 X8.2811 Y4.1534 
G01 X8.2398 Y4.0298 
G01 X8.2289 Y3.9432 
G00 Z2.0000  F3000
G00 X5.1061 Y6.9102  F3000
G01 Z-0.2000 F200.00 
G01 X5.0902 Y6.9102 F500.00 
G01 X5.0539 Y6.9102 
G01 X5.0539 Y8.3298 
G01 X5.1061 Y8.3298 
G01 X5.1061 Y6.9102 
G00 Z2.0000  F3000
G00 X6.8153 Y11.3039  F3000
G01 Z-0.2000 F200.00 
G01 X6.8264 Y11.3454 F500.00 
G01 X6.8264 Y11.4510 
G01 X6.8156 Y11.4914 
G01 X6.7991 Y11.5529 
G01 X6.7973 Y11.5561 
G01 X6.9152 Y11.5561 
G01 X6.9644 Y11.5471 
G01 X7.1184 Y11.5493 
G01 X7.1501 Y11.5561 
G01 X7.2627 Y11.5561 
G01 X7.2609 Y11.5529 
G01 X7.2447 Y11.4925 
G01 X7.2336 Y11.4510 
G01 X7.2336 Y11.3454 
G01 X7.2447 Y11.3039 
G01 X6.8153 Y11.3039 
G00 Z2.0000  F3000
G00 X3.3627 Y11.3039  F3000
G01 Z-0.2000 F200.00 
G01 X3.2447 Y11.3039 F500.00 
G01 X3.1949 Y11.3130 
G01 X3.0409 Y11.3106 
G01 X3.0097 Y11.3039 
G01 X2.8973 Y11.3039 
G01 X2.8991 Y11.3071 
G01 X2.9153 Y11.3675 
G01 X2.9264 Y11.4090 
G01 X2.9264 Y11.5146 
G01 X2.9153 Y11.5561 
G01 X3.3447 Y11.5561 
G01 X3.3336 Y11.5146 
G01 X3.3336 Y11.4090 
G01 X3.3444 Y11.3686 
G01 X3.3609 Y11.3071 
G01 X3.3627 Y11.3039 
G00 Z2.0000  F3000
G00 X9.7002 Y9.0314  F3000
G01 Z-0.2000 F200.00 
G01 X10.2530 Y9.3836 F500.00 
G01 X10.7486 Y9.3836 
G01 X10.8182 Y9.4023 
G01 X10.8807 Y9.4383 
G01 X10.9317 Y9.4893 
G01 X10.9677 Y9.5518 
G01 X10.9764 Y9.5840 
G01 X10.9896 Y9.5764 
G01 X11.0630 Y9.5567 
G01 X11.0915 Y9.5490 
G01 X11.1971 Y9.5490 
G01 X11.2386 Y9.5602 
G01 X11.2386 Y8.8920 
G01 X11.1463 Y8.9167 
G01 X11.0407 Y8.9167 
G01 X11.0146 Y8.9097 
G01 X10.9507 Y8.8926 
G01 X10.9317 Y8.9257 
G01 X10.8807 Y8.9767 
G01 X10.8182 Y9.0127 
G01 X10.7486 Y9.0314 
G01 X10.1259 Y9.0314 
G01 X10.0699 Y9.0411 
G01 X9.9160 Y9.0372 
G01 X9.8901 Y9.0314 
G01 X9.7002 Y9.0314 
G00 Z2.0000  F3000
G00 X15.8053 Y9.3020  F3000
G01 Z-0.2000 F200.00 
G01 X15.8473 Y9.3441 F500.00 
G01 X15.8520 Y9.3510 
G01 X15.8577 Y9.3570 
G01 X15.8947 Y9.4150 
G01 X15.9329 Y9.4721 
G01 X15.9361 Y9.4798 
G01 X15.9406 Y9.4868 
G01 X15.9655 Y9.5508 
G01 X15.9918 Y9.6144 
G01 X15.9935 Y9.6226 
G01 X15.9965 Y9.6304 
G01 X16.0085 Y9.6980 
G01 X16.0219 Y9.7655 
G01 X16.0219 Y9.7738 
G01 X16.0234 Y9.7820 
G01 X16.0219 Y9.8508 
G01 X16.0219 Y10.8261 
G01 X16.0761 Y10.8261 
G01 X16.1457 Y10.8448 
G01 X16.2082 Y10.8808 
G01 X16.2592 Y10.9318 
G01 X16.2952 Y10.9943 
G01 X16.3139 Y11.0639 
G01 X16.3139 Y12.4361 
G01 X16.2952 Y12.5057 
G01 X16.2592 Y12.5682 
G01 X16.2082 Y12.6192 
G01 X16.1457 Y12.6552 
G01 X16.1064 Y12.6658 
G01 X16.8984 Y12.6665 
G01 X17.1044 Y10.8129 
G01 X15.9401 Y9.1707 
G01 X15.9385 Y9.1740 
G01 X15.9322 Y9.1816 
G01 X15.9276 Y9.1905 
G01 X15.8986 Y9.2221 
G01 X15.8712 Y9.2553 
G01 X15.8631 Y9.2610 
G01 X15.8564 Y9.2683 
G01 X15.8202 Y9.2914 
G01 X15.8053 Y9.3020 
G00 Z2.0000  F3000
G00 X15.0980 Y12.6739  F3000
G01 Z-0.2000 F200.00 
G01 X14.5302 Y12.6739 F500.00 
G01 X14.5302 Y12.7261 
G01 X14.8964 Y12.7261 
G01 X14.9536 Y12.7025 
G01 X15.0980 Y12.6739 
G00 Z2.0000  F3000
G00 X15.1420 Y14.6350  F3000
G01 Z-0.2000 F200.00 
G01 X14.9517 Y14.5970 F500.00 
G01 X14.8962 Y14.5739 
G01 X14.5479 Y14.5739 
G01 X14.5479 Y14.6705 
G01 X14.5409 Y14.6966 
G01 X14.5206 Y14.7724 
G01 X14.5188 Y14.7756 
G01 X22.0781 Y14.7756 
G01 X22.0781 Y10.4465 
G01 X22.0420 Y10.5576 
G01 X21.9680 Y10.7029 
G01 X21.8721 Y10.8348 
G01 X21.7568 Y10.9501 
G01 X21.6249 Y11.0460 
G01 X21.4796 Y11.1200 
G01 X21.3246 Y11.1704 
G01 X21.1635 Y11.1959 
G01 X20.2802 Y11.1959 
G01 X19.0036 Y11.5606 
G01 X18.7650 Y13.7075 
G01 X18.7650 Y13.7505 
G01 X18.7544 Y13.8037 
G01 X18.7484 Y13.8577 
G01 X18.7354 Y13.8987 
G01 X18.7270 Y13.9408 
G01 X18.7061 Y13.9909 
G01 X18.6897 Y14.0427 
G01 X18.6690 Y14.0803 
G01 X18.6525 Y14.1200 
G01 X18.6223 Y14.1651 
G01 X18.5961 Y14.2127 
G01 X18.5685 Y14.2455 
G01 X18.5446 Y14.2812 
G01 X18.5061 Y14.3196 
G01 X18.4711 Y14.3611 
G01 X18.4376 Y14.3879 
G01 X18.4072 Y14.4183 
G01 X18.3620 Y14.4484 
G01 X18.3196 Y14.4823 
G01 X18.2815 Y14.5021 
G01 X18.2458 Y14.5259 
G01 X18.1956 Y14.5467 
G01 X18.1474 Y14.5717 
G01 X18.1061 Y14.5836 
G01 X18.0664 Y14.6000 
G01 X18.0131 Y14.6106 
G01 X17.9610 Y14.6257 
G01 X17.9182 Y14.6294 
G01 X17.8761 Y14.6377 
G01 X17.8218 Y14.6376 
G01 X17.7676 Y14.6423 
G01 X17.7249 Y14.6375 
G01 X15.1420 Y14.6350 
G00 Z2.0000  F3000
G00 X16.4139 Y5.6553  F3000
G01 Z-0.2000 F200.00 
G01 X16.4171 Y5.6535 F500.00 
G01 X16.5174 Y5.6266 
G01 X16.5251 Y5.6262 
G01 X16.5140 Y5.6044 
G01 X16.5024 Y5.5687 
G01 X16.4107 Y5.6218 
G01 X16.4081 Y5.6225 
G01 X16.4139 Y5.6439 
G01 X16.4139 Y5.6553 
G00 Z2.0000  F3000
G00 X22.0106 Y9.7007  F3000
G01 Z-0.2000 F200.00 
G01 X22.0420 Y9.7623 F500.00 
G01 X22.0781 Y9.8735 
G01 X22.0781 Y9.6817 
G01 X22.0749 Y9.6835 
G01 X22.0106 Y9.7007 
G00 Z2.0000  F3000
G00 X0.8000 Y2.5951  F3000
G01 Z-0.2000 F200.00 
G01 X0.8252 Y2.5757 F500.00 
G01 X0.8477 Y2.5533 
G01 X0.8753 Y2.5374 
G01 X0.9005 Y2.5180 
G01 X0.9298 Y2.5058 
G01 X0.9574 Y2.4899 
G01 X0.9881 Y2.4817 
G01 X1.0175 Y2.4695 
G01 X1.0490 Y2.4654 
G01 X1.0797 Y2.4572 
G01 X1.1115 Y2.4572 
G01 X1.1430 Y2.4530 
G01 X1.1745 Y2.4572 
G01 X1.2063 Y2.4572 
G01 X1.2370 Y2.4654 
G01 X1.2685 Y2.4695 
G01 X1.2979 Y2.4817 
G01 X1.3286 Y2.4899 
G01 X1.3561 Y2.5058 
G01 X1.3855 Y2.5180 
G01 X1.4107 Y2.5374 
G01 X1.4383 Y2.5533 
G01 X1.4608 Y2.5757 
G01 X1.4860 Y2.5951 
G01 X1.5053 Y2.6203 
G01 X1.5278 Y2.6428 
G01 X1.5437 Y2.6703 
G01 X1.5631 Y2.6955 
G01 X1.5752 Y2.7249 
G01 X1.5911 Y2.7524 
G01 X1.5994 Y2.7832 
G01 X1.7244 Y3.0850 
G01 X1.9950 Y3.3556 
G01 X2.3486 Y3.5021 
G01 X2.7314 Y3.5021 
G01 X3.0850 Y3.3556 
G01 X3.3556 Y3.0850 
G01 X3.5021 Y2.7314 
G01 X3.5021 Y2.3486 
G01 X3.3556 Y1.9950 
G01 X3.0850 Y1.7244 
G01 X2.7832 Y1.5994 
G01 X2.7524 Y1.5911 
G01 X2.7249 Y1.5752 
G01 X2.6955 Y1.5631 
G01 X2.6703 Y1.5437 
G01 X2.6428 Y1.5278 
G01 X2.6203 Y1.5053 
G01 X2.5951 Y1.4860 
G01 X2.5757 Y1.4608 
G01 X2.5533 Y1.4383 
G01 X2.5374 Y1.4107 
G01 X2.5180 Y1.3855 
G01 X2.5058 Y1.3561 
G01 X2.4899 Y1.3286 
G01 X2.4817 Y1.2979 
G01 X2.4695 Y1.2685 
G01 X2.4654 Y1.2370 
G01 X2.4572 Y1.2063 
G01 X2.4572 Y1.1745 
G01 X2.4530 Y1.1430 
G01 X2.4572 Y1.1115 
G01 X2.4572 Y1.0797 
G01 X2.4654 Y1.0490 
G01 X2.4695 Y1.0175 
G01 X2.4817 Y0.9881 
G01 X2.4899 Y0.9574 
G01 X2.5058 Y0.9298 
G01 X2.5180 Y0.9005 
G01 X2.5374 Y0.8753 
G01 X2.5533 Y0.8477 
G01 X2.5757 Y0.8252 
G01 X2.5951 Y0.8000 
G01 X2.6203 Y0.7807 
G01 X2.6428 Y0.7582 
G01 X2.6703 Y0.7423 
G01 X2.6955 Y0.7229 
G01 X2.7249 Y0.7108 
G01 X2.7524 Y0.6949 
G01 X2.7832 Y0.6866 
G01 X2.8125 Y0.6745 
G01 X2.8440 Y0.6703 
G01 X2.8748 Y0.6621 
G01 X2.9065 Y0.6621 
G01 X2.9381 Y0.6579 
G01 X2.9696 Y0.6621 
G01 X22.7203 Y0.6621 
G01 X22.8426 Y0.6949 
G01 X22.9523 Y0.7582 
G01 X23.0418 Y0.8477 
G01 X23.1051 Y0.9574 
G01 X23.1379 Y1.0797 
G01 X23.1379 Y6.7435 
G01 X23.1237 Y6.7963 
G01 X23.2683 Y6.8562 
G01 X23.4094 Y6.9505 
G01 X23.5295 Y7.0706 
G01 X23.6238 Y7.2117 
G01 X23.6888 Y7.3686 
G01 X23.7219 Y7.5351 
G01 X23.7219 Y15.6424 
G01 X23.6888 Y15.8089 
G01 X23.6238 Y15.9658 
G01 X23.5295 Y16.1069 
G01 X23.4094 Y16.2270 
G01 X23.2683 Y16.3213 
G01 X23.1114 Y16.3863 
G01 X22.9449 Y16.4194 
G01 X10.2240 Y16.4194 
G01 X10.2033 Y16.4225 
G01 X10.1392 Y16.4194 
G01 X10.0751 Y16.4194 
G01 X10.0546 Y16.4153 
G01 X10.0337 Y16.4143 
G01 X9.9715 Y16.3988 
G01 X9.9086 Y16.3863 
G01 X9.8893 Y16.3783 
G01 X9.7288 Y16.3382 
G01 X9.6741 Y16.3698 
G01 X9.5841 Y16.3939 
G01 X8.1909 Y16.3939 
G01 X8.1009 Y16.3698 
G01 X8.0202 Y16.3232 
G01 X7.9543 Y16.2573 
G01 X7.9375 Y16.2282 
G01 X7.9207 Y16.2573 
G01 X7.8548 Y16.3232 
G01 X7.7741 Y16.3698 
G01 X7.6841 Y16.3939 
G01 X6.2909 Y16.3939 
G01 X6.2009 Y16.3698 
G01 X6.1202 Y16.3232 
G01 X6.0543 Y16.2573 
G01 X6.0077 Y16.1766 
G01 X5.9836 Y16.0866 
G01 X5.9836 Y15.8340 
G01 X5.9690 Y15.8379 
G01 X1.0797 Y15.8379 
G01 X0.9574 Y15.8051 
G01 X0.8477 Y15.7418 
G01 X0.7582 Y15.6523 
G01 X0.6949 Y15.5426 
G01 X0.6621 Y15.4203 
G01 X0.6621 Y2.9696 
G01 X0.6579 Y2.9381 
G01 X0.6621 Y2.9065 
G01 X0.6621 Y2.8748 
G01 X0.6703 Y2.8440 
G01 X0.6745 Y2.8125 
G01 X0.6866 Y2.7832 
G01 X0.6949 Y2.7524 
G01 X0.7108 Y2.7249 
G01 X0.7229 Y2.6955 
G01 X0.7423 Y2.6703 
G01 X0.7582 Y2.6428 
G01 X0.7807 Y2.6203 
G01 X0.8000 Y2.5951 
G00 Z2.0000  F3000
G00 X3.0026 Y11.3842  F3000
G01 Z-0.2000 F200.00 
G01 X3.0064 Y11.3985 F500.00 
G01 X3.0064 Y11.4611 
G01 X3.0064 Y11.4761 
G01 X3.2536 Y11.4761 
G01 X3.2536 Y11.4625 
G01 X3.2536 Y11.3985 
G01 X3.2575 Y11.3839 
G01 X3.2519 Y11.3839 
G01 X3.2016 Y11.3931 
G01 X3.0318 Y11.3905 
G01 X3.0026 Y11.3842 
G00 Z2.0000  F3000
G00 X6.9064 Y11.3839  F3000
G01 Z-0.2000 F200.00 
G01 X6.9064 Y11.3975 F500.00 
G01 X6.9064 Y11.4615 
G01 X6.9025 Y11.4761 
G01 X6.9079 Y11.4761 
G01 X6.9577 Y11.4670 
G01 X7.1275 Y11.4694 
G01 X7.1574 Y11.4758 
G01 X7.1536 Y11.4615 
G01 X7.1536 Y11.3989 
G01 X7.1536 Y11.3839 
G01 X6.9064 Y11.3839 
G00 Z2.0000  F3000
G00 X9.9866 Y9.1190  F3000
G01 Z-0.2000 F200.00 
G01 X10.2763 Y9.3036 F500.00 
G01 X10.7591 Y9.3036 
G01 X10.8491 Y9.3277 
G01 X10.9298 Y9.3743 
G01 X10.9957 Y9.4402 
G01 X11.0215 Y9.4850 
G01 X11.0810 Y9.4690 
G01 X11.1586 Y9.4690 
G01 X11.1586 Y8.9963 
G01 X11.0302 Y8.9967 
G01 X10.9857 Y8.9848 
G01 X10.9298 Y9.0407 
G01 X10.8491 Y9.0873 
G01 X10.7591 Y9.1114 
G01 X10.1328 Y9.1114 
G01 X10.0758 Y9.1212 
G01 X9.9866 Y9.1190 
G00 Z2.0000  F3000
G00 X15.9357 Y9.3028  F3000
G01 Z-0.2000 F200.00 
G01 X15.9260 Y9.3144 F500.00 
G01 X15.9617 Y9.3713 
G01 X16.0038 Y9.4342 
G01 X16.0073 Y9.4427 
G01 X16.0123 Y9.4505 
G01 X16.0398 Y9.5211 
G01 X16.0688 Y9.5911 
G01 X16.0706 Y9.6001 
G01 X16.0739 Y9.6087 
G01 X16.0871 Y9.6833 
G01 X16.1019 Y9.7576 
G01 X16.1019 Y9.7668 
G01 X16.1035 Y9.7758 
G01 X16.1019 Y9.8516 
G01 X16.1019 Y10.7502 
G01 X16.1766 Y10.7702 
G01 X16.2573 Y10.8168 
G01 X16.3232 Y10.8827 
G01 X16.3698 Y10.9634 
G01 X16.3939 Y11.0534 
G01 X16.3939 Y12.4466 
G01 X16.3698 Y12.5366 
G01 X16.3413 Y12.5860 
G01 X16.8268 Y12.5865 
G01 X17.0215 Y10.8343 
G01 X15.9357 Y9.3028 
G00 Z2.0000  F3000
G00 X19.0772 Y11.6228  F3000
G01 Z-0.2000 F200.00 
G01 X18.8450 Y13.7120 F500.00 
G01 X18.8450 Y13.7374 
G01 X18.8358 Y13.7952 
G01 X18.8293 Y13.8534 
G01 X18.8226 Y13.8779 
G01 X18.8186 Y13.9029 
G01 X18.8005 Y13.9586 
G01 X18.7850 Y14.0151 
G01 X18.7745 Y14.0382 
G01 X18.7667 Y14.0623 
G01 X18.7400 Y14.1145 
G01 X18.7159 Y14.1679 
G01 X18.7019 Y14.1890 
G01 X18.6904 Y14.2116 
G01 X18.6559 Y14.2590 
G01 X18.6237 Y14.3079 
G01 X18.6067 Y14.3267 
G01 X18.5917 Y14.3472 
G01 X18.5502 Y14.3886 
G01 X18.5108 Y14.4318 
G01 X18.4910 Y14.4477 
G01 X18.4731 Y14.4656 
G01 X18.4256 Y14.5000 
G01 X18.3799 Y14.5366 
G01 X18.3579 Y14.5491 
G01 X18.3373 Y14.5640 
G01 X18.2851 Y14.5905 
G01 X18.2342 Y14.6195 
G01 X18.2105 Y14.6285 
G01 X18.1879 Y14.6400 
G01 X18.1322 Y14.6580 
G01 X18.0774 Y14.6787 
G01 X18.0525 Y14.6838 
G01 X18.0284 Y14.6916 
G01 X18.0031 Y14.6956 
G01 X21.9981 Y14.6956 
G01 X21.9981 Y10.7976 
G01 X21.9332 Y10.8870 
G01 X21.8090 Y11.0112 
G01 X21.6669 Y11.1144 
G01 X21.5104 Y11.1941 
G01 X21.3433 Y11.2484 
G01 X21.1698 Y11.2759 
G01 X20.2914 Y11.2759 
G01 X19.0772 Y11.6228 
G00 Z2.0000  F3000
G00 X15.0333 Y14.6956  F3000
G01 Z-0.2000 F200.00 
G01 X14.9896 Y14.6886 F500.00 
G01 X14.8830 Y14.6539 
G01 X14.6279 Y14.6539 
G01 X14.6279 Y14.6810 
G01 X14.6240 Y14.6956 
G01 X15.0333 Y14.6956 
G00 Z2.0000  F3000
G00 X0.7430 Y2.5380  F3000
G01 Z-0.2000 F200.00 
G01 X0.7724 Y2.5155 F500.00 
G01 X0.7986 Y2.4892 
G01 X0.8307 Y2.4707 
G01 X0.8601 Y2.4481 
G01 X0.8944 Y2.4339 
G01 X0.9265 Y2.4154 
G01 X0.9623 Y2.4058 
G01 X0.9966 Y2.3916 
G01 X1.0333 Y2.3868 
G01 X1.0692 Y2.3772 
G01 X1.1062 Y2.3772 
G01 X1.1430 Y2.3723 
G01 X1.1798 Y2.3772 
G01 X1.2168 Y2.3772 
G01 X1.2527 Y2.3868 
G01 X1.2894 Y2.3916 
G01 X1.3237 Y2.4058 
G01 X1.3595 Y2.4154 
G01 X1.3916 Y2.4339 
G01 X1.4259 Y2.4481 
G01 X1.4553 Y2.4707 
G01 X1.4874 Y2.4892 
G01 X1.5136 Y2.5155 
G01 X1.5430 Y2.5380 
G01 X1.5656 Y2.5674 
G01 X1.5918 Y2.5937 
G01 X1.6104 Y2.6258 
G01 X1.6329 Y2.6552 
G01 X1.6471 Y2.6895 
G01 X1.6657 Y2.7216 
G01 X1.6753 Y2.7574 
G01 X1.7922 Y3.0397 
G01 X2.0403 Y3.2878 
G01 X2.3645 Y3.4221 
G01 X2.7155 Y3.4221 
G01 X3.0397 Y3.2878 
G01 X3.2878 Y3.0397 
G01 X3.4221 Y2.7155 
G01 X3.4221 Y2.3645 
G01 X3.2878 Y2.0403 
G01 X3.0397 Y1.7922 
G01 X2.7574 Y1.6753 
G01 X2.7216 Y1.6657 
G01 X2.6895 Y1.6471 
G01 X2.6552 Y1.6329 
G01 X2.6258 Y1.6104 
G01 X2.5937 Y1.5918 
G01 X2.5674 Y1.5656 
G01 X2.5380 Y1.5430 
G01 X2.5155 Y1.5136 
G01 X2.4892 Y1.4874 
G01 X2.4707 Y1.4553 
G01 X2.4481 Y1.4259 
G01 X2.4339 Y1.3916 
G01 X2.4154 Y1.3595 
G01 X2.4058 Y1.3237 
G01 X2.3916 Y1.2894 
G01 X2.3868 Y1.2527 
G01 X2.3772 Y1.2168 
G01 X2.3772 Y1.1798 
G01 X2.3723 Y1.1430 
G01 X2.3772 Y1.1062 
G01 X2.3772 Y1.0692 
G01 X2.3868 Y1.0333 
G01 X2.3916 Y0.9966 
G01 X2.4058 Y0.9623 
G01 X2.4154 Y0.9265 
G01 X2.4339 Y0.8944 
G01 X2.4481 Y0.8601 
G01 X2.4707 Y0.8307 
G01 X2.4892 Y0.7986 
G01 X2.5155 Y0.7724 
G01 X2.5380 Y0.7430 
G01 X2.5674 Y0.7204 
G01 X2.5937 Y0.6942 
G01 X2.6258 Y0.6756 
G01 X2.6552 Y0.6531 
G01 X2.6895 Y0.6389 
G01 X2.7216 Y0.6203 
G01 X2.7574 Y0.6107 
G01 X2.7916 Y0.5965 
G01 X2.8284 Y0.5917 
G01 X2.8642 Y0.5821 
G01 X2.9013 Y0.5821 
G01 X2.9381 Y0.5773 
G01 X2.9748 Y0.5821 
G01 X22.7308 Y0.5821 
G01 X22.8735 Y0.6203 
G01 X23.0014 Y0.6942 
G01 X23.1058 Y0.7986 
G01 X23.1797 Y0.9265 
G01 X23.2179 Y1.0692 
G01 X23.2179 Y6.7487 
G01 X23.3062 Y6.7853 
G01 X23.4604 Y6.8884 
G01 X23.5916 Y7.0196 
G01 X23.6947 Y7.1738 
G01 X23.7657 Y7.3453 
G01 X23.8019 Y7.5272 
G01 X23.8019 Y15.6503 
G01 X23.7657 Y15.8322 
G01 X23.6947 Y16.0037 
G01 X23.5916 Y16.1579 
G01 X23.4604 Y16.2891 
G01 X23.3062 Y16.3922 
G01 X23.1347 Y16.4632 
G01 X22.9528 Y16.4994 
G01 X10.2299 Y16.4994 
G01 X10.2073 Y16.5028 
G01 X10.1373 Y16.4994 
G01 X10.0672 Y16.4994 
G01 X10.0448 Y16.4949 
G01 X10.0220 Y16.4938 
G01 X9.9540 Y16.4769 
G01 X9.8853 Y16.4632 
G01 X9.8641 Y16.4545 
G01 X9.7408 Y16.4237 
G01 X9.7050 Y16.4443 
G01 X9.5946 Y16.4739 
G01 X8.1804 Y16.4739 
G01 X8.0700 Y16.4443 
G01 X7.9711 Y16.3872 
G01 X7.9375 Y16.3536 
G01 X7.9039 Y16.3872 
G01 X7.8050 Y16.4443 
G01 X7.6946 Y16.4739 
G01 X6.2804 Y16.4739 
G01 X6.1700 Y16.4443 
G01 X6.0711 Y16.3872 
G01 X5.9903 Y16.3064 
G01 X5.9332 Y16.2075 
G01 X5.9036 Y16.0971 
G01 X5.9036 Y15.9179 
G01 X1.0692 Y15.9179 
G01 X0.9265 Y15.8797 
G01 X0.7986 Y15.8058 
G01 X0.6942 Y15.7014 
G01 X0.6203 Y15.5735 
G01 X0.5821 Y15.4308 
G01 X0.5821 Y2.9748 
G01 X0.5773 Y2.9381 
G01 X0.5821 Y2.9013 
G01 X0.5821 Y2.8642 
G01 X0.5917 Y2.8284 
G01 X0.5965 Y2.7916 
G01 X0.6107 Y2.7574 
G01 X0.6203 Y2.7216 
G01 X0.6389 Y2.6895 
G01 X0.6531 Y2.6552 
G01 X0.6756 Y2.6258 
G01 X0.6942 Y2.5937 
G01 X0.7204 Y2.5674 
G01 X0.7430 Y2.5380 
G00 Z2.0000  F3000
G00 X10.2491 Y9.1914  F3000
G01 Z-0.2000 F200.00 
G01 X10.2996 Y9.2236 F500.00 
G01 X10.7696 Y9.2236 
G01 X10.8800 Y9.2532 
G01 X10.9789 Y9.3103 
G01 X11.0597 Y9.3911 
G01 X11.0704 Y9.3890 
G01 X11.0786 Y9.3890 
G01 X11.0786 Y9.0767 
G01 X11.0197 Y9.0767 
G01 X11.0096 Y9.0740 
G01 X10.9789 Y9.1047 
G01 X10.8800 Y9.1618 
G01 X10.7696 Y9.1914 
G01 X10.2491 Y9.1914 
G00 Z2.0000  F3000
G00 X16.1832 Y9.7903  F3000
G01 Z-0.2000 F200.00 
G01 X16.1819 Y9.8525 F500.00 
G01 X16.1819 Y10.6888 
G01 X16.2075 Y10.6957 
G01 X16.3064 Y10.7528 
G01 X16.3872 Y10.8336 
G01 X16.4443 Y10.9325 
G01 X16.4739 Y11.0429 
G01 X16.4739 Y12.4571 
G01 X16.4608 Y12.5061 
G01 X16.7552 Y12.5064 
G01 X16.9386 Y10.8558 
G01 X16.1832 Y9.7903 
G00 Z2.0000  F3000
G00 X19.1508 Y11.6850  F3000
G01 Z-0.2000 F200.00 
G01 X18.9250 Y13.7165 F500.00 
G01 X18.9250 Y13.7437 
G01 X18.9151 Y13.8059 
G01 X18.9081 Y13.8685 
G01 X18.9009 Y13.8948 
G01 X18.8966 Y13.9217 
G01 X18.8771 Y13.9816 
G01 X18.8605 Y14.0423 
G01 X18.8492 Y14.0672 
G01 X18.8408 Y14.0931 
G01 X18.8121 Y14.1492 
G01 X18.7862 Y14.2066 
G01 X18.7712 Y14.2293 
G01 X18.7588 Y14.2536 
G01 X18.7217 Y14.3046 
G01 X18.6871 Y14.3571 
G01 X18.6688 Y14.3773 
G01 X18.6527 Y14.3993 
G01 X18.6081 Y14.4439 
G01 X18.5657 Y14.4904 
G01 X18.5444 Y14.5074 
G01 X18.5251 Y14.5267 
G01 X18.4741 Y14.5636 
G01 X18.4250 Y14.6030 
G01 X18.4028 Y14.6156 
G01 X21.9181 Y14.6156 
G01 X21.9181 Y11.0152 
G01 X21.8611 Y11.0722 
G01 X21.7088 Y11.1828 
G01 X21.5411 Y11.2683 
G01 X21.3620 Y11.3264 
G01 X21.1761 Y11.3559 
G01 X20.3026 Y11.3559 
G01 X19.1508 Y11.6850 
G00 Z2.0000  F3000
G00 X0.6452 Y2.5295  F3000
G01 Z-0.2000 F200.00 
G01 X0.7344 Y2.4402 F500.00 
G01 X0.8380 Y2.3710 
G01 X0.9560 Y2.3218 
G01 X1.0799 Y2.2972 
G01 X1.2061 Y2.2972 
G01 X1.2255 Y2.3010 
G01 X1.3299 Y2.3218 
G01 X1.4466 Y2.3701 
G01 X1.4828 Y2.3943 
G01 X1.5515 Y2.4402 
G01 X1.6408 Y2.5295 
G01 X1.7100 Y2.6331 
G01 X1.7593 Y2.7511 
G01 X1.8600 Y2.9944 
G01 X2.0856 Y3.2200 
G01 X2.3804 Y3.3421 
G01 X2.6995 Y3.3421 
G01 X2.9943 Y3.2200 
G01 X3.2200 Y2.9943 
G01 X3.3421 Y2.6995 
G01 X3.3421 Y2.3804 
G01 X3.2200 Y2.0856 
G01 X2.9944 Y1.8600 
G01 X2.7511 Y1.7593 
G01 X2.6378 Y1.7123 
G01 X2.6345 Y1.7110 
G01 X2.5295 Y1.6408 
G01 X2.4402 Y1.5515 
G01 X2.3925 Y1.4800 
G01 X2.3701 Y1.4466 
G01 X2.3218 Y1.3299 
G01 X2.3015 Y1.2278 
G01 X2.2972 Y1.2061 
G01 X2.2972 Y1.0799 
G01 X2.2986 Y1.0729 
G01 X2.3218 Y0.9560 
G01 X2.3687 Y0.8428 
G01 X2.3701 Y0.8394 
G01 X2.4402 Y0.7344 
G01 X2.5295 Y0.6452 
G01 X2.6011 Y0.5974 
G01 X2.6345 Y0.5750 
G01 X2.7511 Y0.5267 
G01 X2.8532 Y0.5064 
G01 X2.8749 Y0.5021 
G01 X22.7201 Y0.5021 
G01 X22.8439 Y0.5267 
G01 X22.9606 Y0.5750 
G01 X23.0655 Y0.6452 
G01 X23.1548 Y0.7344 
G01 X23.2250 Y0.8394 
G01 X23.2733 Y0.9560 
G01 X23.2979 Y1.0799 
G01 X23.2979 Y6.6953 
G01 X23.3440 Y6.7144 
G01 X23.5114 Y6.8262 
G01 X23.6538 Y6.9686 
G01 X23.7656 Y7.1359 
G01 X23.8426 Y7.3219 
G01 X23.8819 Y7.5194 
G01 X23.8819 Y15.6581 
G01 X23.8426 Y15.8556 
G01 X23.7656 Y16.0416 
G01 X23.6538 Y16.2089 
G01 X23.5114 Y16.3513 
G01 X23.3440 Y16.4631 
G01 X23.1581 Y16.5401 
G01 X22.9606 Y16.5794 
G01 X10.2358 Y16.5794 
G01 X10.2113 Y16.5831 
G01 X10.1354 Y16.5794 
G01 X10.0594 Y16.5794 
G01 X10.0350 Y16.5746 
G01 X10.0103 Y16.5734 
G01 X9.9365 Y16.5550 
G01 X9.8619 Y16.5401 
G01 X9.8390 Y16.5306 
G01 X9.7528 Y16.5091 
G01 X9.7359 Y16.5189 
G01 X9.6052 Y16.5539 
G01 X8.1698 Y16.5539 
G01 X8.0391 Y16.5189 
G01 X7.9375 Y16.4602 
G01 X7.8359 Y16.5189 
G01 X7.7052 Y16.5539 
G01 X6.2698 Y16.5539 
G01 X6.1391 Y16.5189 
G01 X6.0220 Y16.4512 
G01 X5.9263 Y16.3555 
G01 X5.8586 Y16.2384 
G01 X5.8236 Y16.1077 
G01 X5.8236 Y15.9979 
G01 X1.0799 Y15.9979 
G01 X0.9560 Y15.9733 
G01 X0.8394 Y15.9250 
G01 X0.7344 Y15.8548 
G01 X0.6452 Y15.7655 
G01 X0.5750 Y15.6606 
G01 X0.5267 Y15.5439 
G01 X0.5021 Y15.4201 
G01 X0.5021 Y2.8749 
G01 X0.5060 Y2.8556 
G01 X0.5267 Y2.7511 
G01 X0.5750 Y2.6345 
G01 X0.5992 Y2.5983 
G01 X0.6452 Y2.5295 
G00 Z2.0000  F3000
G00 X10.9609 Y9.2075  F3000
G01 Z-0.2000 F200.00 
G01 X10.9986 Y9.2293 F500.00 
G01 X10.9986 Y9.1857 
G01 X10.9609 Y9.2075 
G00 Z2.0000  F3000
G00 X16.2619 Y10.0396  F3000
G01 Z-0.2000 F200.00 
G01 X16.2619 Y10.6347 F500.00 
G01 X16.3555 Y10.6888 
G01 X16.4512 Y10.7845 
G01 X16.5189 Y10.9016 
G01 X16.5539 Y11.0323 
G01 X16.5539 Y12.4262 
G01 X16.6836 Y12.4263 
G01 X16.8557 Y10.8772 
G01 X16.2619 Y10.0396 
G00 Z2.0000  F3000
G00 X19.2243 Y11.7472  F3000
G01 Z-0.2000 F200.00 
G01 X19.0050 Y13.7210 F500.00 
G01 X19.0050 Y13.7501 
G01 X18.9944 Y13.8166 
G01 X18.9870 Y13.8836 
G01 X18.9792 Y13.9117 
G01 X18.9746 Y13.9406 
G01 X18.9538 Y14.0046 
G01 X18.9359 Y14.0696 
G01 X18.9239 Y14.0962 
G01 X18.9149 Y14.1239 
G01 X18.8842 Y14.1839 
G01 X18.8565 Y14.2453 
G01 X18.8404 Y14.2696 
G01 X18.8272 Y14.2956 
G01 X18.7875 Y14.3501 
G01 X18.7505 Y14.4064 
G01 X18.7308 Y14.4279 
G01 X18.7137 Y14.4515 
G01 X18.6660 Y14.4991 
G01 X18.6327 Y14.5356 
G01 X21.8381 Y14.5356 
G01 X21.8381 Y11.1878 
G01 X21.7507 Y11.2512 
G01 X21.5718 Y11.3424 
G01 X21.3808 Y11.4045 
G01 X21.1824 Y11.4359 
G01 X20.3138 Y11.4359 
G01 X19.2243 Y11.7472 
G00 Z2.0000  F3000
G00 X16.3419 Y10.2908  F3000
G01 Z-0.2000 F200.00 
G01 X16.3419 Y10.5874 F500.00 
G01 X16.4186 Y10.6387 
G01 X16.5013 Y10.7214 
G01 X16.5663 Y10.8187 
G01 X16.6111 Y10.9268 
G01 X16.6339 Y11.0415 
G01 X16.6339 Y12.1493 
G01 X16.7729 Y10.8986 
G01 X16.3419 Y10.2908 
G00 Z2.0000  F3000
G00 X19.2979 Y11.8093  F3000
G01 Z-0.2000 F200.00 
G01 X19.0850 Y13.7254 F500.00 
G01 X19.0850 Y13.7565 
G01 X19.0737 Y13.8273 
G01 X19.0658 Y13.8987 
G01 X19.0575 Y13.9287 
G01 X19.0527 Y13.9594 
G01 X19.0304 Y14.0276 
G01 X19.0114 Y14.0968 
G01 X18.9986 Y14.1251 
G01 X18.9890 Y14.1547 
G01 X18.9563 Y14.2186 
G01 X18.9268 Y14.2840 
G01 X18.9097 Y14.3100 
G01 X18.8955 Y14.3376 
G01 X18.8533 Y14.3956 
G01 X18.8139 Y14.4556 
G01 X21.7581 Y14.4556 
G01 X21.7581 Y11.3373 
G01 X21.6025 Y11.4166 
G01 X21.3995 Y11.4825 
G01 X21.1887 Y11.5159 
G01 X20.3250 Y11.5159 
G01 X19.2979 Y11.8093 
G00 Z2.0000  F3000
G00 Z5.0000  F3000
;M03 S0
M0
