; generated by Slic3r 1.2.9 on 2018-01-08 at 17:12:00

; external perimeters extrusion width = 0.40mm
; perimeters extrusion width = 0.40mm
; infill extrusion width = 0.40mm
; solid infill extrusion width = 0.40mm
; top infill extrusion width = 0.40mm

M107
M83
T0
M116
G21 ; set units to millimeters
G90 ; use absolute coordinates
M83 ; use relative distances for extrusion
G1 E-3.50000 F1500.00000
G1 Z0.400 F15000.000
G1 X-4.900 Y21.010 F15000.000
G1 Z0.300 F15000.000
G1 E3.50000 F1500.00000
G1 X-5.564 Y20.851 E0.05260 F960.000
G1 X-6.546 Y20.567 E0.07872
G1 X-7.485 Y20.241 E0.07667
G1 X-8.768 Y19.723 E0.10664
G1 X-9.666 Y19.294 E0.07666
G1 X-10.885 Y18.638 E0.10665
G1 X-11.730 Y18.114 E0.07666
G1 X-12.685 Y17.462 E0.08916
G1 X-13.517 Y16.824 E0.08078
G1 X-14.529 Y15.960 E0.10252
G1 X-15.407 Y15.111 E0.09415
G1 X-16.197 Y14.265 E0.08916
G1 X-16.869 Y13.461 E0.08079
G1 X-17.815 Y12.185 E0.12242
G1 X-18.527 Y11.066 E0.10219
G1 X-19.033 Y10.179 E0.07872
G1 X-19.479 Y9.290 E0.07663
G1 X-19.951 Y8.234 E0.08916
G1 X-20.325 Y7.255 E0.08080
G1 X-20.736 Y5.989 E0.10250
G1 X-21.039 Y4.806 E0.09414
G1 X-21.307 Y3.448 E0.10668
G1 X-21.440 Y2.463 E0.07662
G1 X-21.557 Y1.083 E0.10669
G1 X-21.581 Y0.089 E0.07661
G1 X-21.546 Y-1.295 E0.10669
G1 X-21.459 Y-2.285 E0.07661
G1 X-21.309 Y-3.432 E0.08915
G1 X-20.997 Y-4.986 E0.12212
G1 X-20.741 Y-5.975 E0.07872
G1 X-20.441 Y-6.922 E0.07660
G1 X-19.958 Y-8.220 E0.10671
G1 X-19.555 Y-9.128 E0.07659
G1 X-18.933 Y-10.365 E0.10671
G1 X-18.433 Y-11.224 E0.07659
G1 X-17.678 Y-12.385 E0.10672
G1 X-17.086 Y-13.183 E0.07659
G1 X-16.358 Y-14.082 E0.08915
G1 X-15.652 Y-14.859 E0.08085
G1 X-14.709 Y-15.796 E0.10245
G1 X-13.790 Y-16.600 E0.09415
G1 X-12.699 Y-17.454 E0.10673
G1 X-11.881 Y-18.017 E0.07657
G1 X-10.702 Y-18.745 E0.10673
G1 X-9.827 Y-19.214 E0.07657
G1 X-8.784 Y-19.716 E0.08915
G1 X-7.472 Y-20.246 E0.10905
G1 X-6.536 Y-20.572 E0.07640
G1 X-5.555 Y-20.855 E0.07872
G1 X-4.261 Y-21.160 E0.10243
G1 X-3.056 Y-21.364 E0.09415
G1 X-1.680 Y-21.520 E0.10675
G1 X-0.688 Y-21.570 E0.07655
G1 X0.697 Y-21.574 E0.10676
G1 X1.689 Y-21.515 E0.07654 F960.000
G1 X3.066 Y-21.366 E0.10676
G1 X4.045 Y-21.199 E0.07654
G1 X5.398 Y-20.899 E0.10677
G1 X6.352 Y-20.625 E0.07654
G1 X7.664 Y-20.179 E0.10677
G1 X8.582 Y-19.801 E0.07653
G1 X9.632 Y-19.316 E0.08915
G1 X10.559 Y-18.822 E0.08091
G1 X11.699 Y-18.139 E0.10239
G1 X12.997 Y-17.229 E0.12221
G1 X13.800 Y-16.597 E0.07872
G1 X14.546 Y-15.942 E0.07652
G1 X15.382 Y-15.142 E0.08915
G1 X16.211 Y-14.245 E0.09415
G1 X16.954 Y-13.358 E0.08915
G1 X17.581 Y-12.516 E0.08093
G1 X18.320 Y-11.412 E0.10238
G1 X18.852 Y-10.506 E0.08093
G1 X19.464 Y-9.328 E0.10237
G1 X19.893 Y-8.369 E0.08093
G1 X20.372 Y-7.130 E0.10237
G1 X20.693 Y-6.130 E0.08094
G1 X21.084 Y-4.623 E0.12002
G1 X21.270 Y-3.648 E0.07649
G1 X21.464 Y-2.275 E0.10682
G1 X21.542 Y-1.286 E0.07648
G1 X21.584 Y0.100 E0.10686
G1 X21.546 Y1.295 E0.09213
G1 X21.441 Y2.483 E0.09193
G1 X21.300 Y3.469 E0.07674
G1 X21.038 Y4.827 E0.10657
G1 X20.789 Y5.791 E0.07673
G1 X20.379 Y7.112 E0.10657
G1 X20.026 Y8.043 E0.07673
G1 X19.473 Y9.310 E0.10658
G1 X19.020 Y10.197 E0.07672
G1 X18.448 Y11.203 E0.08916
G1 X17.882 Y12.083 E0.08070
G1 X17.104 Y13.164 E0.10260
G1 X16.444 Y13.977 E0.08071
G1 X15.552 Y14.965 E0.10259
G1 X14.807 Y15.701 E0.08071
G1 X13.812 Y16.585 E0.10259
G1 X12.849 Y17.338 E0.09414
G1 X11.904 Y18.004 E0.08916
G1 X10.696 Y18.742 E0.10905
G1 X9.828 Y19.217 E0.07626
G1 X8.907 Y19.657 E0.07871
G1 X7.679 Y20.171 E0.10258
G1 X6.690 Y20.518 E0.08073
G1 X5.413 Y20.893 E0.10257
G1 X4.392 Y21.129 E0.08074
G1 X3.082 Y21.362 E0.10256
G1 X2.042 Y21.484 E0.08074
G1 X0.714 Y21.571 E0.10256
G1 X-0.334 Y21.578 E0.08075
G1 X-1.664 Y21.519 E0.10256
G1 X-2.706 Y21.411 E0.08075
G1 X-4.021 Y21.205 E0.10255
G1 X-4.842 Y21.023 E0.06483
G1 E-3.50000 F1500.00000
G1 Z0.700 F15000.000
G1 X-3.710 Y15.599 F15000.000
G1 Z0.300 F15000.000
G1 E3.50000 F1500.00000
G1 X-4.599 Y15.362 E0.07091 F720.000
G1 X-6.468 Y14.742 E0.15173
G1 X-5.707 Y12.652 E0.17141
G1 X-6.024 Y12.505 E0.02693
G1 X-7.136 Y14.431 E0.17141
G1 X-8.812 Y13.397 E0.15173
G1 X-9.576 Y12.862 E0.07189
G1 X-11.120 Y11.641 E0.15173
G1 X-9.691 Y9.937 E0.17141
G1 X-9.938 Y9.690 E0.02693
G1 X-11.642 Y11.120 E0.17141
G1 X-12.863 Y9.575 E0.15173
G1 X-13.398 Y8.811 E0.07189
G1 X-14.432 Y7.136 E0.15173
G1 X-12.505 Y6.024 E0.17141
G1 X-12.653 Y5.707 E0.02693
G1 X-14.743 Y6.468 E0.17141
G1 X-15.362 Y4.599 E0.15173
G1 X-15.604 Y3.698 E0.07189
G1 X-16.002 Y1.769 E0.15173
G1 X-13.812 Y1.383 E0.17141
G1 X-13.842 Y1.035 E0.02693
G1 X-16.066 Y1.035 E0.17141
G1 X-16.009 Y-0.934 E0.15181
G1 X-15.923 Y-1.897 E0.07452
G1 X-15.642 Y-3.810 E0.14901
G1 X-13.452 Y-3.424 E0.17141
G1 X-13.361 Y-3.762 E0.02693
G1 X-15.451 Y-4.522 E0.17141
G1 X-14.724 Y-6.353 E0.15181
G1 X-14.314 Y-7.229 E0.07452
G1 X-13.396 Y-8.931 E0.14901
G1 X-11.470 Y-7.818 E0.17141
G1 X-11.269 Y-8.105 E0.02693
G1 X-12.973 Y-9.534 E0.17141
G1 X-11.663 Y-11.006 E0.15181
G1 X-10.978 Y-11.688 E0.07452
G1 X-9.534 Y-12.974 E0.14901
G1 X-8.104 Y-11.270 E0.17141
G1 X-7.818 Y-11.470 E0.02693
G1 X-8.930 Y-13.397 E0.17141
G1 X-7.196 Y-14.331 E0.15181
G1 X-6.319 Y-14.738 E0.07452
G1 X-4.522 Y-15.452 E0.14901
G1 X-3.761 Y-13.362 E0.17141
G1 X-3.424 Y-13.452 E0.02693
G1 X-3.810 Y-15.643 E0.17141
G1 X-1.861 Y-15.928 E0.15181
G1 X-0.897 Y-16.011 E0.07452
G1 X1.036 Y-16.067 E0.14902 F720.000
G1 X1.036 Y-13.843 E0.17141
G1 X1.384 Y-13.812 E0.02693
G1 X1.770 Y-16.003 E0.17141
G1 X3.698 Y-15.604 E0.15173
G1 X4.599 Y-15.363 E0.07189
G1 X6.468 Y-14.744 E0.15173
G1 X5.707 Y-12.654 E0.17141
G1 X6.024 Y-12.506 E0.02693
G1 X7.136 Y-14.432 E0.17141
G1 X8.812 Y-13.399 E0.15173
G1 X9.576 Y-12.863 E0.07189
G1 X11.120 Y-11.642 E0.15173
G1 X9.691 Y-9.938 E0.17141
G1 X9.938 Y-9.691 E0.02693
G1 X11.642 Y-11.121 E0.17141
G1 X12.863 Y-9.577 E0.15173
G1 X13.398 Y-8.813 E0.07189
G1 X14.432 Y-7.137 E0.15173
G1 X12.505 Y-6.025 E0.17141
G1 X12.653 Y-5.708 E0.02693
G1 X14.745 Y-6.469 E0.17157
G1 X15.371 Y-4.566 E0.15444
G1 X15.604 Y-3.699 E0.06917
G1 X16.002 Y-1.771 E0.15173
G1 X13.812 Y-1.384 E0.17141
G1 X13.842 Y-1.036 E0.02693
G1 X16.066 Y-1.036 E0.17141
G1 X16.009 Y0.932 E0.15173
G1 X15.928 Y1.861 E0.07189
G1 X15.642 Y3.809 E0.15173
G1 X13.452 Y3.423 E0.17141
G1 X13.361 Y3.760 E0.02693
G1 X15.451 Y4.521 E0.17141
G1 X14.725 Y6.351 E0.15173
G1 X14.330 Y7.196 E0.07189
G1 X13.396 Y8.929 E0.15173
G1 X11.470 Y7.817 E0.17141
G1 X11.269 Y8.104 E0.02693
G1 X12.973 Y9.533 E0.17141
G1 X11.664 Y11.004 E0.15173
G1 X11.005 Y11.664 E0.07189
G1 X9.534 Y12.973 E0.15173
G1 X8.104 Y11.269 E0.17141
G1 X7.818 Y11.469 E0.02693
G1 X8.930 Y13.395 E0.17141
G1 X7.197 Y14.330 E0.15173
G1 X6.352 Y14.724 E0.07189
G1 X4.522 Y15.451 E0.15173
G1 X3.761 Y13.361 E0.17141
G1 X3.424 Y13.451 E0.02693
G1 X3.810 Y15.644 E0.17157
G1 X1.827 Y15.930 E0.15444
G1 X0.932 Y16.008 E0.06918
G1 X-1.036 Y16.066 E0.15173
G1 X-1.036 Y13.841 E0.17141
G1 X-1.384 Y13.811 E0.02693
G1 X-1.770 Y16.003 E0.17157
G1 X-3.651 Y15.611 E0.14808
G1 X-3.522 Y14.989 F15000.000
G1 X-4.417 Y14.753 E0.07135 F720.000
G1 X-5.647 Y14.345 E0.09988
G1 X-2.625 Y6.043 E0.68087
G1 X-2.942 Y5.895 E0.02693
G1 X-7.359 Y13.546 E0.68087
G1 X-8.463 Y12.866 E0.09988
G1 X-9.196 Y12.352 E0.06904
G1 X-10.213 Y11.548 E0.09988
G1 X-4.534 Y4.780 E0.68087
G1 X-4.781 Y4.533 E0.02693
G1 X-11.549 Y10.212 E0.68087
G1 X-12.353 Y9.196 E0.09988
G1 X-12.867 Y8.462 E0.06904
G1 X-13.547 Y7.359 E0.09988
G1 X-5.896 Y2.941 E0.68087
G1 X-6.043 Y2.625 E0.02693
G1 X-14.346 Y5.646 E0.68087
G1 X-14.753 Y4.416 E0.09988
G1 X-14.985 Y3.551 E0.06904
G1 X-15.247 Y2.282 E0.09988
G1 X-6.546 Y0.748 E0.68087
G1 X-6.577 Y0.399 E0.02693
G1 X-15.412 Y0.399 E0.68087
G1 X-15.374 Y-0.896 E0.09991
G1 X-15.291 Y-1.823 E0.07167
G1 X-15.108 Y-3.071 E0.09721
G1 X-6.407 Y-1.537 E0.68087
G1 X-6.317 Y-1.874 E0.02693
G1 X-14.619 Y-4.896 E0.68087
G1 X-14.141 Y-6.101 E0.09991
G1 X-13.746 Y-6.943 E0.07167
G1 X-13.147 Y-8.053 E0.09721
G1 X-5.496 Y-3.635 E0.68087
G1 X-5.295 Y-3.922 E0.02693
G1 X-12.063 Y-9.601 E0.68087
G1 X-11.201 Y-10.569 E0.09991
G1 X-10.542 Y-11.225 E0.07167
G1 X-9.600 Y-12.064 E0.09721
G1 X-3.921 Y-5.296 E0.68087
G1 X-3.635 Y-5.496 E0.02693
G1 X-8.052 Y-13.148 E0.68087
G1 X-6.911 Y-13.763 E0.09991
G1 X-6.068 Y-14.154 E0.07167
G1 X-4.895 Y-14.620 E0.09721
G1 X-1.874 Y-6.318 E0.68087
G1 X-1.536 Y-6.408 E0.02693
G1 X-3.070 Y-15.109 E0.68087
G1 X-1.787 Y-15.297 E0.09991
G1 X-0.861 Y-15.376 E0.07167
G1 X0.400 Y-15.412 E0.09721 F720.000
G1 X0.400 Y-6.577 E0.68087
G1 X0.748 Y-6.547 E0.02693
G1 X2.282 Y-15.248 E0.68087
G1 X3.552 Y-14.986 E0.09988
G1 X4.417 Y-14.754 E0.06904
G1 X5.647 Y-14.346 E0.09988
G1 X2.625 Y-6.044 E0.68087
G1 X2.942 Y-5.896 E0.02693
G1 X7.359 Y-13.548 E0.68087
G1 X8.463 Y-12.867 E0.09988
G1 X9.196 Y-12.353 E0.06904
G1 X10.213 Y-11.550 E0.09988
G1 X4.534 Y-4.782 E0.68087
G1 X4.781 Y-4.535 E0.02693
G1 X11.549 Y-10.214 E0.68087
G1 X12.353 Y-9.197 E0.09988
G1 X12.867 Y-8.463 E0.06904
G1 X13.547 Y-7.360 E0.09988
G1 X5.896 Y-2.943 E0.68087
G1 X6.043 Y-2.626 E0.02693
G1 X14.346 Y-5.648 E0.68093
G1 X14.762 Y-4.384 E0.10253
G1 X14.985 Y-3.552 E0.06638
G1 X15.247 Y-2.283 E0.09988
G1 X6.546 Y-0.749 E0.68087
G1 X6.577 Y-0.401 E0.02693
G1 X15.412 Y-0.401 E0.68087
G1 X15.374 Y0.895 E0.09988
G1 X15.296 Y1.787 E0.06904
G1 X15.108 Y3.070 E0.09988
G1 X6.407 Y1.535 E0.68087
G1 X6.317 Y1.873 E0.02693
G1 X14.619 Y4.895 E0.68087
G1 X14.141 Y6.099 E0.09988
G1 X13.762 Y6.911 E0.06904
G1 X13.147 Y8.052 E0.09988
G1 X5.496 Y3.634 E0.68087
G1 X5.295 Y3.920 E0.02693
G1 X12.063 Y9.600 E0.68087
G1 X11.202 Y10.568 E0.09988
G1 X10.568 Y11.201 E0.06904
G1 X9.600 Y12.063 E0.09988
G1 X3.921 Y5.295 E0.68087
G1 X3.635 Y5.495 E0.02693
G1 X8.052 Y13.146 E0.68087
G1 X6.912 Y13.761 E0.09987
G1 X6.100 Y14.140 E0.06904
G1 X4.895 Y14.619 E0.09988
G1 X1.874 Y6.316 E0.68087
G1 X1.536 Y6.407 E0.02693
G1 X3.070 Y15.108 E0.68093
G1 X1.753 Y15.298 E0.10253
G1 X0.895 Y15.374 E0.06638
G1 X-0.400 Y15.411 E0.09988
G1 X-0.400 Y6.576 E0.68087
G1 X-0.748 Y6.546 E0.02693
G1 X-2.282 Y15.247 E0.68093
G1 X-3.463 Y15.001 E0.09292
G1 X-3.798 Y15.278 F15000.000
G1 E-3.50000 F1500.00000
G1 Z0.700 F15000.000
G1 X-1.789 Y1.499 F15000.000
G1 Z0.300 F15000.000
G1 E3.50000 F1500.00000
G1 X-2.150 Y0.825 E0.05893 F600.000
G1 X-2.288 Y0.267 E0.04436
G1 X-2.282 Y-0.309 E0.04436
G1 X-2.135 Y-0.866 E0.04436
G1 X-1.853 Y-1.368 E0.04436
G1 X-1.456 Y-1.785 E0.04436
G1 X-0.967 Y-2.091 E0.04452
G1 X-0.394 Y-2.267 E0.04617
G1 X0.155 Y-2.299 E0.04235 F600.000
G1 X0.720 Y-2.188 E0.04436
G1 X1.240 Y-1.942 E0.04436
G1 X1.682 Y-1.574 E0.04436
G1 X2.020 Y-1.107 E0.04436
G1 X2.231 Y-0.572 E0.04436
G1 X2.303 Y-0.005 E0.04401
G1 X2.254 Y0.470 E0.03680
G1 X2.110 Y0.920 E0.03645
G1 X1.783 Y1.499 E0.05125
G1 X-1.729 Y1.499 E0.27059
G1 X-2.167 Y1.628 F15000.000
G1 X-1.729 Y2.135 F15000.000
G1 X-2.169 Y2.135 E0.03394 F600.000
G1 X-2.748 Y1.055 E0.09442
G1 X-2.924 Y0.341 E0.05670
G1 X-2.917 Y-0.395 E0.05670
G1 X-2.728 Y-1.106 E0.05670
G1 X-2.369 Y-1.748 E0.05670
G1 X-1.862 Y-2.281 E0.05670
G1 X-1.233 Y-2.675 E0.05716
G1 X-0.507 Y-2.897 E0.05851
G1 X0.198 Y-2.938 E0.05440 F600.000
G1 X0.920 Y-2.797 E0.05670
G1 X1.585 Y-2.482 E0.05670
G1 X2.150 Y-2.011 E0.05670
G1 X2.582 Y-1.415 E0.05670
G1 X2.852 Y-0.731 E0.05670
G1 X2.942 Y-0.012 E0.05580
G1 X2.879 Y0.600 E0.04747
G1 X2.695 Y1.176 E0.04657
G1 X2.153 Y2.135 E0.08489
G1 X-1.669 Y2.135 E0.29454
G1 E-3.50000 F1500.00000
G1 Z0.700 F15000.000
G1 X-1.226 Y16.913 F15000.000
G1 Z0.300 F15000.000
G1 E3.50000 F1500.00000
G1 X-2.174 Y16.820 E0.07340 F720.000
G1 X-3.259 Y16.647 E0.08464
G1 X-4.329 Y16.398 E0.08468
G1 X-5.071 Y16.188 E0.05943
G1 X-5.799 Y15.938 E0.05937
G1 X-6.824 Y15.530 E0.08497
G1 X-7.517 Y15.203 E0.05909
G1 X-8.491 Y14.685 E0.08497
G1 X-9.144 Y14.284 E0.05909
G1 X-10.055 Y13.662 E0.08497
G1 X-10.660 Y13.191 E0.05909
G1 X-11.497 Y12.473 E0.08497
G1 X-12.046 Y11.939 E0.05909
G1 X-12.799 Y11.133 E0.08497
G1 X-13.287 Y10.541 E0.05909
G1 X-13.944 Y9.661 E0.08464
G1 X-14.537 Y8.736 E0.08468
G1 X-14.922 Y8.068 E0.05943
G1 X-15.270 Y7.381 E0.05938
G1 X-15.720 Y6.374 E0.08497
G1 X-15.989 Y5.656 E0.05909
G1 X-16.326 Y4.606 E0.08497
G1 X-16.515 Y3.863 E0.05909
G1 X-16.734 Y2.783 E0.08497
G1 X-16.839 Y2.023 E0.05909
G1 X-16.939 Y0.925 E0.08497
G1 X-16.960 Y0.159 E0.05909
G1 X-16.938 Y-0.944 E0.08497
G1 X-16.874 Y-1.708 E0.05909
G1 X-16.732 Y-2.797 E0.08465
G1 X-16.512 Y-3.874 E0.08467
G1 X-16.323 Y-4.621 E0.05942
G1 X-16.093 Y-5.356 E0.05938
G1 X-15.714 Y-6.392 E0.08497
G1 X-15.406 Y-7.094 E0.05910
G1 X-14.915 Y-8.082 E0.08497
G1 X-14.532 Y-8.746 E0.05910
G1 X-13.936 Y-9.673 E0.08497
G1 X-13.482 Y-10.291 E0.05910
G1 X-12.788 Y-11.147 E0.08497
G1 X-12.268 Y-11.712 E0.05910
G1 X-11.484 Y-12.486 E0.08497
G1 X-10.906 Y-12.990 E0.05910
G1 X-10.041 Y-13.674 E0.08497
G1 X-9.411 Y-14.111 E0.05910
G1 X-8.476 Y-14.695 E0.08497
G1 X-7.801 Y-15.060 E0.05910
G1 X-6.812 Y-15.537 E0.08465
G1 X-5.790 Y-15.942 E0.08467
G1 X-5.061 Y-16.192 E0.05941
G1 X-4.320 Y-16.402 E0.05939
G1 X-3.246 Y-16.651 E0.08497
G1 X-2.489 Y-16.777 E0.05910
G1 X-1.394 Y-16.907 E0.08497
G1 X-0.629 Y-16.949 E0.05910
G1 X0.474 Y-16.958 E0.08497
G1 X1.239 Y-16.916 E0.05910
G1 X2.336 Y-16.803 E0.08497 F720.000
G1 X3.093 Y-16.677 E0.05910
G1 X4.170 Y-16.444 E0.08497
G1 X4.908 Y-16.235 E0.05910
G1 X5.954 Y-15.885 E0.08497
G1 X6.664 Y-15.597 E0.05910
G1 X7.665 Y-15.134 E0.08496
G1 X8.339 Y-14.769 E0.05910
G1 X9.280 Y-14.201 E0.08466
G1 X10.177 Y-13.568 E0.08466
G1 X10.786 Y-13.094 E0.05941
G1 X11.367 Y-12.588 E0.05940
G1 X12.163 Y-11.826 E0.08496
G1 X12.682 Y-11.262 E0.05910
G1 X13.390 Y-10.416 E0.08496
G1 X13.844 Y-9.798 E0.05910
G1 X14.454 Y-8.880 E0.08496
G1 X14.838 Y-8.216 E0.05910
G1 X15.343 Y-7.236 E0.08496
G1 X15.651 Y-6.534 E0.05910
G1 X16.046 Y-5.505 E0.08496
G1 X16.275 Y-4.773 E0.05910
G1 X16.554 Y-3.706 E0.08496
G1 X16.701 Y-2.953 E0.05910
G1 X16.861 Y-1.863 E0.08496
G1 X16.925 Y-1.098 E0.05910
G1 X16.964 Y0.003 E0.08496
G1 X16.938 Y0.939 E0.07211
G1 X16.860 Y1.875 E0.07243
G1 X16.754 Y2.638 E0.05938
G1 X16.550 Y3.722 E0.08497
G1 X16.362 Y4.465 E0.05909
G1 X16.040 Y5.520 E0.08497
G1 X15.772 Y6.238 E0.05909
G1 X15.336 Y7.251 E0.08497
G1 X14.990 Y7.935 E0.05909
G1 X14.445 Y8.894 E0.08497
G1 X14.026 Y9.536 E0.05909
G1 X13.379 Y10.429 E0.08497
G1 X12.892 Y11.021 E0.05909
G1 X12.151 Y11.837 E0.08497
G1 X11.601 Y12.372 E0.05909
G1 X10.775 Y13.102 E0.08497
G1 X10.170 Y13.573 E0.05909
G1 X9.272 Y14.205 E0.08464
G1 X8.331 Y14.772 E0.08468
G1 X7.652 Y15.139 E0.05944
G1 X6.956 Y15.468 E0.05937
G1 X5.937 Y15.890 E0.08497
G1 X5.212 Y16.139 E0.05909
G1 X4.153 Y16.447 E0.08497
G1 X3.405 Y16.615 E0.05909
G1 X2.319 Y16.804 E0.08497
G1 X1.557 Y16.888 E0.05909
G1 X0.456 Y16.957 E0.08497
G1 X-0.311 Y16.957 E0.05909
G1 X-1.166 Y16.916 E0.06601
G1 E-3.50000 F1500.00000
G1 Z0.700 F15000.000
G1 X-1.951 Y3.450 F15000.000
G1 Z0.300 F15000.000
G1 E3.50000 F1500.00000
G1 X-2.379 Y3.169 E0.03946 F600.000
G1 X-2.821 Y2.820 E0.04338
G1 X-3.170 Y2.379 E0.04338
G1 X-3.608 Y1.709 E0.06166
G1 X-3.795 Y1.143 E0.04595
G1 X-3.975 Y0.373 E0.06090
G1 X-3.958 Y-0.216 E0.04541
G1 X-3.863 Y-1.008 E0.06152
G1 X-3.645 Y-1.556 E0.04544
G1 X-3.286 Y-2.269 E0.06152
G1 X-2.894 Y-2.709 E0.04544
G1 X-2.312 Y-3.256 E0.06152
G1 X-1.793 Y-3.536 E0.04544
G1 X-1.034 Y-3.861 E0.06359
G1 X-0.215 Y-3.958 E0.06359
G1 X0.374 Y-3.975 E0.04544
G1 X1.152 Y-3.793 E0.06152
G1 X1.711 Y-3.608 E0.04541 F600.000
G1 X2.372 Y-3.175 E0.06090
G1 X2.841 Y-2.806 E0.04595
G1 X3.320 Y-2.166 E0.06166
G1 X3.615 Y-1.687 E0.04338
G1 X3.793 Y-1.152 E0.04338
G1 X3.975 Y-0.375 E0.06152
G1 X3.958 Y0.214 E0.04544
G1 X3.863 Y1.007 E0.06152
G1 X3.649 Y1.547 E0.04476
G1 X3.286 Y2.267 E0.06211
G1 X2.899 Y2.701 E0.04485
G1 X2.313 Y3.254 E0.06211
G1 X1.800 Y3.530 E0.04485
G1 X1.060 Y3.849 E0.06211
G1 X0.484 Y3.933 E0.04485
G1 X-0.347 Y3.981 E0.06418
G1 X-1.152 Y3.792 E0.06367
G1 X-1.711 Y3.606 E0.04544
G1 X-1.901 Y3.483 E0.01744
G1 X-8.295 Y15.509 F15000.000
G1 X-8.807 Y15.237 E0.04465 F720.000
G1 X-9.490 Y14.817 E0.06179
G1 X-10.430 Y14.176 E0.08767
G1 X-11.062 Y13.684 E0.06179
G1 X-11.926 Y12.943 E0.08767
G1 X-12.500 Y12.384 E0.06179
