; generated by Slic3r 1.2.9 on 2018-06-19 at 15:33:02

; external perimeters extrusion width = 0.40mm
; perimeters extrusion width = 0.40mm
; infill extrusion width = 0.40mm
; solid infill extrusion width = 0.40mm
; top infill extrusion width = 0.40mm

M107
M83
T0
M116
G21 ; set units to millimeters
G90 ; use absolute coordinates
M83 ; use relative distances for extrusion
G1 E-3.50000 F1500.00000
G1 Z0.400 F15000.000
G1 X0.000 Y22.586 F15000.000
G1 Z0.300 F15000.000
G1 E3.50000 F1500.00000
G1 X-10.950 Y22.586 E0.84387 F960.000
G1 X-11.646 Y22.518 E0.05391
G1 X-32.146 Y18.518 E1.60964
G1 X-33.687 Y17.816 E0.13052
G1 X-34.876 Y16.166 E0.15673
G1 X-45.876 Y-14.834 E2.53497
G1 X-46.086 Y-16.050 E0.09507
G1 X-46.086 Y-18.950 E0.22349
G1 X-45.691 Y-20.597 E0.13052
G1 X-44.593 Y-21.887 E0.13052
G1 X-42.450 Y-22.586 E0.17373
G1 X42.450 Y-22.586 E6.54286
G1 X44.097 Y-22.191 E0.13052
G1 X45.387 Y-21.093 E0.13052 F960.000
G1 X46.086 Y-18.950 E0.17373
G1 X46.086 Y-16.050 E0.22349
G1 X45.876 Y-14.834 E0.09507
G1 X34.876 Y16.166 E2.53497
G1 X33.954 Y17.586 E0.13052
G1 X32.146 Y18.518 E0.15673
G1 X11.646 Y22.518 E1.60964
G1 X10.950 Y22.586 E0.05391
G1 X0.060 Y22.586 E0.83924
G1 E-3.50000 F1500.00000
G1 Z0.700 F15000.000
G1 X-20.363 Y9.647 F15000.000
G1 Z0.300 F15000.000
G1 E3.50000 F1500.00000
G1 X-20.848 Y10.350 E0.06583 F600.000
G1 X-21.487 Y10.916 E0.06583
G1 X-22.244 Y11.313 E0.06583
G1 X-23.073 Y11.517 E0.06583
G1 X-23.927 Y11.517 E0.06583
G1 X-24.756 Y11.313 E0.06583
G1 X-25.513 Y10.916 E0.06583
G1 X-26.152 Y10.350 E0.06583
G1 X-26.637 Y9.647 E0.06583
G1 X-26.940 Y8.848 E0.06583
G1 X-27.043 Y8.000 E0.06583
G1 X-26.940 Y7.152 E0.06583
G1 X-26.637 Y6.353 E0.06583
G1 X-26.152 Y5.650 E0.06583
G1 X-25.513 Y5.084 E0.06583
G1 X-24.756 Y4.687 E0.06583
G1 X-23.927 Y4.483 E0.06583
G1 X-23.073 Y4.483 E0.06583 F600.000
G1 X-22.244 Y4.687 E0.06583
G1 X-21.487 Y5.084 E0.06583
G1 X-20.848 Y5.650 E0.06583
G1 X-20.363 Y6.353 E0.06583
G1 X-20.060 Y7.152 E0.06583
G1 X-19.957 Y8.000 E0.06583
G1 X-20.060 Y8.848 E0.06583
G1 X-20.341 Y9.591 E0.06120
G1 X-20.930 Y9.349 F15000.000
G1 X-21.327 Y9.925 E0.05393 F600.000
G1 X-21.851 Y10.389 E0.05393
G1 X-22.471 Y10.714 E0.05393
G1 X-23.150 Y10.882 E0.05393
G1 X-23.850 Y10.882 E0.05393
G1 X-24.529 Y10.714 E0.05393
G1 X-25.149 Y10.389 E0.05393
G1 X-25.673 Y9.925 E0.05393
G1 X-26.070 Y9.349 E0.05393
G1 X-26.319 Y8.695 E0.05393
G1 X-26.403 Y8.000 E0.05393
G1 X-26.319 Y7.305 E0.05393
G1 X-26.070 Y6.651 E0.05393
G1 X-25.673 Y6.075 E0.05393
G1 X-25.149 Y5.611 E0.05393
G1 X-24.529 Y5.286 E0.05393
G1 X-23.850 Y5.118 E0.05393
G1 X-23.150 Y5.118 E0.05393 F600.000
G1 X-22.471 Y5.286 E0.05393
G1 X-21.851 Y5.611 E0.05393
G1 X-21.327 Y6.075 E0.05393
G1 X-20.930 Y6.651 E0.05393
G1 X-20.681 Y7.305 E0.05393
G1 X-20.597 Y8.000 E0.05393
G1 X-20.681 Y8.695 E0.05393
G1 X-20.908 Y9.293 E0.04931
G1 X-20.730 Y9.695 F15000.000
G1 E-3.50000 F1500.00000
G1 Z0.700 F15000.000
G1 X-8.266 Y17.964 F15000.000
G1 Z0.300 F15000.000
G1 E3.50000 F1500.00000
G1 X-9.964 Y17.964 E0.13089 F720.000
G1 X-9.964 Y13.964 E0.30826
G1 X-30.464 Y13.964 E1.57984
G1 X-30.464 Y-17.036 E2.38903
G1 X-41.464 Y-17.036 E0.84772
G1 X-41.464 Y-17.964 E0.07158
G1 X-29.536 Y-17.964 E0.91930
G1 X-29.536 Y4.036 E1.69544
G1 X-19.536 Y4.036 E0.77065 F720.000
G1 X-19.536 Y13.036 E0.69359
G1 X29.536 Y13.036 E3.78170
G1 X29.536 Y-17.964 E2.38903
G1 X41.464 Y-17.964 E0.91930
G1 X41.464 Y-17.036 E0.07158
G1 X30.464 Y-17.036 E0.84772
G1 X30.464 Y13.964 E2.38903
G1 X9.964 Y13.964 E1.57984
G1 X9.964 Y17.964 E0.30826
G1 X8.266 Y17.964 E0.13089
G1 X8.428 Y17.537 E0.03524
G1 X8.493 Y17.000 E0.04168
G1 X8.428 Y16.463 E0.04168
G1 X8.236 Y15.958 E0.04168
G1 X7.929 Y15.512 E0.04168
G1 X7.524 Y15.154 E0.04168
G1 X7.045 Y14.903 E0.04168
G1 X6.520 Y14.773 E0.04167
G1 X5.980 Y14.773 E0.04168
G1 X5.455 Y14.903 E0.04167
G1 X4.976 Y15.154 E0.04168
G1 X4.571 Y15.512 E0.04168
G1 X4.264 Y15.958 E0.04168
G1 X4.072 Y16.463 E0.04168
G1 X4.007 Y17.000 E0.04168
G1 X4.072 Y17.537 E0.04168
G1 X4.234 Y17.964 E0.03524
G1 X-4.234 Y17.964 E0.65261
G1 X-4.072 Y17.537 E0.03524
G1 X-4.007 Y17.000 E0.04168
G1 X-4.072 Y16.463 E0.04168
G1 X-4.264 Y15.958 E0.04168
G1 X-4.571 Y15.512 E0.04167
G1 X-4.976 Y15.154 E0.04168
G1 X-5.455 Y14.903 E0.04168
G1 X-5.980 Y14.773 E0.04167
G1 X-6.520 Y14.773 E0.04168
G1 X-7.045 Y14.903 E0.04168
G1 X-7.524 Y15.154 E0.04168
G1 X-7.929 Y15.512 E0.04168
G1 X-8.236 Y15.958 E0.04167
G1 X-8.428 Y16.463 E0.04168
G1 X-8.493 Y17.000 E0.04168
G1 X-8.428 Y17.537 E0.04168
G1 X-8.287 Y17.908 E0.03061
G1 X-7.693 Y17.683 F15000.000
G1 X-7.669 Y17.745 E0.00511 F720.000
G1 X-7.450 Y18.063 E0.02978
G1 X-6.844 Y18.600 E0.06241
G1 X-10.600 Y18.600 E0.28949
G1 X-10.600 Y14.600 E0.30826
G1 X-31.100 Y14.600 E1.57984
G1 X-31.100 Y-16.400 E2.38903
G1 X-42.100 Y-16.400 E0.84772
G1 X-42.100 Y-18.600 E0.16954
G1 X-28.900 Y-18.600 E1.01726
G1 X-28.900 Y3.400 E1.69544
G1 X-18.900 Y3.400 E0.77065 F720.000
G1 X-18.900 Y12.400 E0.69359
G1 X28.900 Y12.400 E3.68373
G1 X28.900 Y-18.600 E2.38903
G1 X42.100 Y-18.600 E1.01726
G1 X42.100 Y-16.400 E0.16954
G1 X31.100 Y-16.400 E0.84772
G1 X31.100 Y14.600 E2.38903
G1 X10.600 Y14.600 E1.57984
G1 X10.600 Y18.600 E0.30826
G1 X6.844 Y18.600 E0.28949
G1 X7.450 Y18.063 E0.06241
G1 X7.669 Y17.745 E0.02978
G1 X7.806 Y17.384 E0.02978
G1 X7.853 Y17.000 E0.02978
G1 X7.806 Y16.616 E0.02978
G1 X7.669 Y16.255 E0.02978
G1 X7.450 Y15.937 E0.02978
G1 X7.161 Y15.681 E0.02978
G1 X6.818 Y15.501 E0.02978
G1 X6.443 Y15.409 E0.02978
G1 X6.057 Y15.409 E0.02978
G1 X5.682 Y15.501 E0.02978
G1 X5.339 Y15.681 E0.02978
G1 X5.050 Y15.937 E0.02978
G1 X4.831 Y16.255 E0.02978
G1 X4.694 Y16.616 E0.02978
G1 X4.647 Y17.000 E0.02978
G1 X4.694 Y17.384 E0.02978
G1 X4.831 Y17.745 E0.02978
G1 X5.050 Y18.063 E0.02978
G1 X5.656 Y18.600 E0.06241
G1 X-5.656 Y18.600 E0.87182
G1 X-5.050 Y18.063 E0.06241
G1 X-4.831 Y17.745 E0.02978
G1 X-4.694 Y17.384 E0.02978
G1 X-4.647 Y17.000 E0.02978
G1 X-4.694 Y16.616 E0.02978
G1 X-4.831 Y16.255 E0.02978
G1 X-5.050 Y15.937 E0.02978
G1 X-5.339 Y15.681 E0.02978
G1 X-5.682 Y15.501 E0.02978
G1 X-6.057 Y15.409 E0.02978
G1 X-6.443 Y15.409 E0.02978
G1 X-6.818 Y15.501 E0.02978
G1 X-7.161 Y15.681 E0.02978
G1 X-7.450 Y15.937 E0.02978
G1 X-7.669 Y16.255 E0.02978
G1 X-7.806 Y16.616 E0.02978
G1 X-7.853 Y17.000 E0.02978
G1 X-7.806 Y17.384 E0.02978
G1 X-7.714 Y17.627 E0.02004
G1 X-7.735 Y17.734 F15000.000
G1 X-9.647 Y13.500 F15000.000
G1 X-19.853 Y13.500 E0.78659 F960.000
G1 X-19.941 Y5.953 F15000.000
G1 X-20.289 Y5.604 E0.05242 F960.000
G1 X-19.921 Y4.731 F15000.000
G1 X-20.231 Y4.421 E0.04663 F960.000
G1 X-21.163 Y4.731 E0.10459
G1 X-21.440 Y4.454 E0.04173
G1 X-25.553 Y4.705 F15000.000
G1 X-25.837 Y4.421 E0.03218 F960.000
G1 X-26.063 Y5.130 E0.05967
G1 X-26.772 Y4.421 E0.08042
G1 X-27.707 Y4.421 E0.07495
G1 X-26.524 Y5.604 E0.13409
G1 X-26.906 Y6.157 E0.05388
G1 X-28.642 Y4.421 E0.19680
G1 X-29.265 Y4.734 E0.05584
G1 X-27.183 Y6.815 E0.23598
G1 X-27.364 Y7.569 E0.06217
G1 X-30.079 Y4.854 E0.30780
G1 X-30.079 Y5.789 E0.07495
G1 X-27.391 Y8.477 E0.30473
G1 X-27.082 Y9.721 E0.10277
G1 X-30.079 Y6.724 E0.33979
G1 X-30.079 Y7.659 E0.07495
G1 X-24.159 Y13.579 E0.67109
G1 X-23.224 Y13.579 E0.07495
G1 X-25.199 Y11.604 E0.22387
G1 X-23.965 Y11.903 E0.10174
G1 X-22.289 Y13.579 E0.19002
G1 X-21.354 Y13.579 E0.07495
G1 X-23.053 Y11.880 E0.19258
G1 X-22.303 Y11.695 E0.06193
G1 X-20.419 Y13.579 E0.21354
G1 X-20.239 Y12.824 E0.06220
G1 X-21.669 Y11.394 E0.16219
G1 X-21.108 Y11.020 E0.05407
G1 X-19.921 Y12.207 E0.13452
G1 X-19.921 Y11.272 E0.07495
G1 X-20.612 Y10.581 E0.07831
G1 X-20.225 Y10.033 E0.05378
G1 X-19.921 Y10.337 E0.03447
G1 X-25.094 Y13.579 F15000.000
G1 X-30.079 Y8.594 E0.56509 F960.000
G1 X-30.079 Y9.529 E0.07495
G1 X-26.029 Y13.579 E0.45910
G1 X-26.964 Y13.579 E0.07495
G1 X-30.079 Y10.464 E0.35310
G1 X-30.079 Y11.399 E0.07495
G1 X-27.899 Y13.579 E0.24710
G1 X-28.834 Y13.579 E0.07495
G1 X-30.079 Y12.334 E0.14110
G1 X-30.079 Y13.269 E0.07495
G1 X-29.769 Y13.579 E0.03510
G1 X-30.000 Y4.353 F15000.000
G1 X-30.000 Y-17.353 E1.67285 F960.000
G1 X-30.025 Y-17.475 E0.00956
G1 X-30.147 Y-17.500 E0.00956
G1 X-41.147 Y-17.500 E0.84772
G1 E-3.50000 F1500.00000
G1 Z0.700 F15000.000
G1 X-9.579 Y17.269 F15000.000
G1 Z0.300 F15000.000
G1 E3.50000 F1500.00000
G1 X-9.269 Y17.579 E0.03501 F960.000
G1 X-8.871 Y17.044 E0.05327
G1 X-9.579 Y16.337 E0.07998
G1 X-9.579 Y15.404 E0.07454
G1 X-8.722 Y16.261 E0.09689
G1 X-8.417 Y15.634 E0.05578
G1 X-9.579 Y14.472 E0.13135
G1 X-9.261 Y13.857 E0.05532
G1 X-7.991 Y15.127 E0.14354
G1 X-7.452 Y14.734 E0.05335
G1 X-8.765 Y13.421 E0.14843
G1 X-7.833 Y13.421 E0.07454
G1 X-6.783 Y14.470 E0.11861
G1 X-5.933 Y14.388 E0.06827
G1 X-6.900 Y13.421 E0.10929
G1 X-5.968 Y13.421 E0.07454
G1 X-1.810 Y17.579 E0.47007
G1 X-0.877 Y17.579 E0.07454
G1 X-5.035 Y13.421 E0.47007
G1 X-4.103 Y13.421 E0.07454
G1 X0.055 Y17.579 E0.47007
G1 X0.988 Y17.579 E0.07454
G1 X-3.170 Y13.421 E0.47007
G1 X-2.238 Y13.421 E0.07454
G1 X1.920 Y17.579 E0.47007
G1 X2.852 Y17.579 E0.07454
G1 X-1.305 Y13.421 E0.47007
G1 X-0.373 Y13.421 E0.07454
G1 X3.656 Y17.450 E0.45547
G1 X3.689 Y16.550 E0.07197
G1 X0.559 Y13.421 E0.35375
G1 X1.492 Y13.421 E0.07454
G1 X3.930 Y15.860 E0.27568
G1 X4.309 Y15.306 E0.05363
G1 X2.424 Y13.421 E0.21309
G1 X3.357 Y13.421 E0.07454
G1 X4.802 Y14.867 E0.16343
G1 X5.413 Y14.545 E0.05518
G1 X4.289 Y13.421 E0.12707
G1 X5.222 Y13.421 E0.07454
G1 X6.188 Y14.388 E0.10929
G1 X7.252 Y14.519 E0.08571
G1 X6.154 Y13.421 E0.12417
G1 X7.087 Y13.421 E0.07454
G1 X9.579 Y15.913 E0.28177
G1 X9.579 Y14.981 E0.07454
G1 X8.019 Y13.421 E0.17636
G1 X8.951 Y13.421 E0.07454
G1 X9.261 Y13.731 E0.03501
G1 X8.720 Y15.987 F15000.000
G1 X9.579 Y16.846 E0.09708 F960.000
G1 X8.859 Y17.058 E0.06001
G1 X9.380 Y17.579 E0.05886
G1 E-3.50000 F1500.00000
G1 Z0.700 F15000.000
G1 X-2.742 Y17.579 F15000.000
G1 Z0.300 F15000.000
G1 E3.50000 F1500.00000
G1 X-3.640 Y16.681 E0.10149 F960.000
G1 X9.647 Y13.500 F15000.000
G1 X29.853 Y13.500 E1.55725 F960.000
G1 X29.975 Y13.475 E0.00956
G1 X30.000 Y13.353 E0.00956
G1 X30.000 Y-17.353 E2.36644
G1 X30.025 Y-17.475 E0.00956
G1 X30.147 Y-17.500 E0.00956
G1 X41.147 Y-17.500 E0.84772
G1 E-3.50000 F1500.00000
G1 Z0.700 F15000.000
G1 X7.150 Y16.203 F15000.000
G1 Z0.500 F15000.000
G1 E3.50000 F1500.00000
G1 X7.314 Y16.441 E0.00836 F2451.202
G1 X7.417 Y16.712 E0.00836
G1 X7.452 Y17.000 E0.00836
G1 X7.417 Y17.288 E0.00836
G1 X7.314 Y17.559 E0.00836
G1 X7.150 Y17.797 E0.00836
G1 X6.933 Y17.989 E0.00836
G1 X6.676 Y18.124 E0.00836
G1 X6.395 Y18.193 E0.00836
G1 X6.105 Y18.193 E0.00836
G1 X5.824 Y18.124 E0.00836
G1 X5.567 Y17.989 E0.00836
G1 X5.350 Y17.797 E0.00836
G1 X5.186 Y17.559 E0.00836
G1 X5.083 Y17.288 E0.00836
G1 X5.072 Y17.193 E0.00275
G1 X5.048 Y17.000 E0.00561
G1 X5.083 Y16.712 E0.00836
G1 X5.186 Y16.441 E0.00836
G1 X5.350 Y16.203 E0.00836
G1 X5.567 Y16.011 E0.00836
G1 X5.824 Y15.876 E0.00836
G1 X6.105 Y15.807 E0.00836
G1 X6.395 Y15.807 E0.00836 F2451.202
G1 X6.676 Y15.876 E0.00836
G1 X6.933 Y16.011 E0.00836
G1 X7.105 Y16.163 E0.00663
G1 X7.436 Y16.157 F15000.000
G1 E-3.50000 F1500.00000
G1 Z0.900 F15000.000
G1 X-5.048 Y17.000 F15000.000
G1 Z0.500 F15000.000
G1 E3.50000 F1500.00000
G1 X-5.083 Y17.288 E0.00836 F2451.202
G1 X-5.186 Y17.559 E0.00836
G1 X-5.350 Y17.797 E0.00836
G1 X-5.567 Y17.989 E0.00836
G1 X-5.824 Y18.124 E0.00836
G1 X-6.105 Y18.193 E0.00836
G1 X-6.395 Y18.193 E0.00836
G1 X-6.676 Y18.124 E0.00836
G1 X-6.933 Y17.989 E0.00836
G1 X-7.150 Y17.797 E0.00836
G1 X-7.314 Y17.559 E0.00836
G1 X-7.417 Y17.288 E0.00836
G1 X-7.452 Y17.000 E0.00836
G1 X-7.417 Y16.712 E0.00836
G1 X-7.314 Y16.441 E0.00836
G1 X-7.150 Y16.203 E0.00836
G1 X-6.933 Y16.011 E0.00836
G1 X-6.676 Y15.876 E0.00836
G1 X-6.395 Y15.807 E0.00836
G1 X-6.105 Y15.807 E0.00836 F2451.202
G1 X-5.824 Y15.876 E0.00836
G1 X-5.567 Y16.011 E0.00836
G1 X-5.350 Y16.203 E0.00836
G1 X-5.186 Y16.441 E0.00836
G1 X-5.083 Y16.712 E0.00836
G1 X-5.055 Y16.940 E0.00663
G1 X-4.803 Y17.155 F15000.000
G1 E-3.50000 F1500.00000
G1 Z0.900 F15000.000
G1 X-20.745 Y9.446 F15000.000
G1 Z0.500 F15000.000
G1 E3.50000 F1500.00000
G1 X-21.171 Y10.063 E0.02165 F2451.202
G1 X-21.732 Y10.561 E0.02165
G1 X-22.397 Y10.909 E0.02165
G1 X-23.125 Y11.089 E0.02165
G1 X-23.875 Y11.089 E0.02165
G1 X-24.605 Y10.909 E0.02170
G1 X-25.281 Y10.549 E0.02209
G1 X-25.829 Y10.063 E0.02115
G1 X-26.255 Y9.446 E0.02165
G1 X-26.521 Y8.745 E0.02165
G1 X-26.612 Y8.000 E0.02165
G1 X-26.521 Y7.255 E0.02165
G1 X-26.255 Y6.554 E0.02165
G1 X-25.829 Y5.937 E0.02165
G1 X-25.268 Y5.439 E0.02165
G1 X-24.603 Y5.091 E0.02165
G1 X-23.875 Y4.911 E0.02165
G1 X-23.125 Y4.911 E0.02165 F2451.202
G1 X-22.397 Y5.091 E0.02165
G1 X-21.732 Y5.439 E0.02165
G1 X-21.171 Y5.937 E0.02165
G1 X-20.745 Y6.554 E0.02165
G1 X-20.479 Y7.255 E0.02165
G1 X-20.388 Y8.000 E0.02165
G1 X-20.479 Y8.745 E0.02165
G1 X-20.724 Y9.390 E0.01992
G1 X-21.057 Y9.263 F15000.000
G1 X-21.440 Y9.825 E0.01961 F2451.202
G1 X-21.937 Y10.265 E0.01915
G1 X-22.524 Y10.573 E0.01915
G1 X-23.168 Y10.732 E0.01915
G1 X-23.832 Y10.732 E0.01915
G1 X-24.476 Y10.573 E0.01916
G1 X-25.075 Y10.254 E0.01959
G1 X-25.560 Y9.825 E0.01868
G1 X-25.937 Y9.279 E0.01915
G1 X-26.172 Y8.659 E0.01915
G1 X-26.252 Y8.000 E0.01915
G1 X-26.172 Y7.341 E0.01915
G1 X-25.937 Y6.721 E0.01915
G1 X-25.560 Y6.175 E0.01915
G1 X-25.063 Y5.735 E0.01915
G1 X-24.476 Y5.427 E0.01915
G1 X-23.832 Y5.268 E0.01915
G1 X-23.168 Y5.268 E0.01915 F2451.202
G1 X-22.524 Y5.427 E0.01915
G1 X-21.937 Y5.735 E0.01915
G1 X-21.440 Y6.175 E0.01915
G1 X-21.063 Y6.721 E0.01915
G1 X-20.828 Y7.341 E0.01915
G1 X-20.748 Y8.000 E0.01915
G1 X-20.828 Y8.659 E0.01915
G1 X-21.036 Y9.207 E0.01694
G1 X-20.856 Y9.609 F15000.000
G1 E-3.50000 F1500.00000
G1 Z0.900 F15000.000
G1 X7.217 Y18.393 F15000.000
G1 Z0.500 F15000.000
G1 E3.50000 F1500.00000
G1 X7.015 Y18.393 E0.00581 F2941.443
G1 X7.419 Y18.035 E0.01556
G1 X7.633 Y17.726 E0.01087
G1 X7.766 Y17.374 E0.01086
G1 X7.812 Y17.000 E0.01087
G1 X7.766 Y16.626 E0.01087
G1 X7.633 Y16.274 E0.01086
G1 X7.419 Y15.965 E0.01086
G1 X7.137 Y15.715 E0.01087
G1 X6.804 Y15.540 E0.01087
G1 X6.438 Y15.450 E0.01087
G1 X6.062 Y15.450 E0.01087
G1 X5.696 Y15.540 E0.01087
G1 X5.363 Y15.715 E0.01087
G1 X5.081 Y15.965 E0.01087
G1 X4.867 Y16.274 E0.01087
G1 X4.734 Y16.626 E0.01086
G1 X4.688 Y17.000 E0.01087
G1 X4.717 Y17.236 E0.00686
G1 X4.734 Y17.374 E0.00401
G1 X4.867 Y17.726 E0.01086
G1 X5.081 Y18.035 E0.01086
G1 X5.485 Y18.393 E0.01556
G1 X-5.485 Y18.393 E0.31660
G1 X-5.081 Y18.035 E0.01556
G1 X-4.867 Y17.726 E0.01086
G1 X-4.734 Y17.374 E0.01087
G1 X-4.688 Y17.000 E0.01087
G1 X-4.734 Y16.626 E0.01087
G1 X-4.867 Y16.274 E0.01086
G1 X-5.081 Y15.965 E0.01087
G1 X-5.363 Y15.715 E0.01087
G1 X-5.696 Y15.540 E0.01087
G1 X-6.062 Y15.450 E0.01087
G1 X-6.438 Y15.450 E0.01087
G1 X-6.804 Y15.540 E0.01087
G1 X-7.137 Y15.715 E0.01087
G1 X-7.419 Y15.965 E0.01087
G1 X-7.633 Y16.274 E0.01086
G1 X-7.766 Y16.626 E0.01086
G1 X-7.812 Y17.000 E0.01087
G1 X-7.795 Y17.138 E0.00401
G1 X-7.766 Y17.374 E0.00686
G1 X-7.633 Y17.726 E0.01086
G1 X-7.419 Y18.035 E0.01086
G1 X-7.015 Y18.393 E0.01556
G1 X-10.393 Y18.393 E0.09748
G1 X-10.393 Y14.393 E0.11545
G1 X-30.893 Y14.393 E0.59168
G1 X-30.893 Y-16.607 E0.89474
G1 X-41.893 Y-16.607 E0.31749
G1 X-41.893 Y-18.393 E0.05154
G1 X-29.107 Y-18.393 E0.36903
G1 X-29.107 Y3.607 E0.63498
G1 X-19.107 Y3.607 E0.28863 F2941.443
G1 X-19.107 Y12.607 E0.25976
G1 X29.107 Y12.607 E1.39159
G1 X29.107 Y-18.393 E0.89474
G1 X41.893 Y-18.393 E0.36903
G1 X41.893 Y-16.607 E0.05154
G1 X30.893 Y-16.607 E0.31749
G1 X30.893 Y14.393 E0.89474
G1 X10.393 Y14.393 E0.59168
G1 X10.393 Y18.393 E0.11545
G1 X7.277 Y18.393 E0.08994
G1 X7.277 Y18.750 F15000.000
G1 X-10.750 Y18.750 E0.52030 F2941.443
G1 X-10.750 Y14.750 E0.11545
G1 X-31.250 Y14.750 E0.59168
G1 X-31.250 Y-16.250 E0.89474
G1 X-42.250 Y-16.250 E0.31749
G1 X-42.250 Y-18.750 E0.07216
G1 X-28.750 Y-18.750 E0.38965
G1 X-28.750 Y3.250 E0.63498
G1 X-18.750 Y3.250 E0.28863 F2941.443
G1 X-18.750 Y12.250 E0.25976
G1 X28.750 Y12.250 E1.37098
G1 X28.750 Y-18.750 E0.89474
G1 X42.250 Y-18.750 E0.38965
G1 X42.250 Y-16.250 E0.07216
