; generated by Slic3r 1.2.9 on 2018-06-19 at 12:37:06

; external perimeters extrusion width = 0.40mm
; perimeters extrusion width = 0.40mm
; infill extrusion width = 0.40mm
; solid infill extrusion width = 0.40mm
; top infill extrusion width = 0.40mm

M107
M83
T0
M116
G21 ; set units to millimeters
G90 ; use absolute coordinates
M83 ; use relative distances for extrusion
G1 E-3.50000 F1500.00000
G1 Z0.400 F15000.000
G1 X0.000 Y28.586 F15000.000
G1 Z0.300 F15000.000
G1 E3.50000 F1500.00000
G1 X-27.950 Y28.586 E2.15398 F960.000
G1 X-29.597 Y28.191 E0.13052
G1 X-30.887 Y27.093 E0.13052
G1 X-31.586 Y24.950 E0.17373
G1 X-31.586 Y-24.950 E3.84557
G1 X-31.191 Y-26.597 E0.13052
G1 X-30.093 Y-27.887 E0.13052
G1 X-27.950 Y-28.586 E0.17373
G1 X27.950 Y-28.586 E4.30796
G1 X29.597 Y-28.191 E0.13052
G1 X30.887 Y-27.093 E0.13052 F960.000
G1 X31.586 Y-24.950 E0.17373
G1 X31.586 Y24.950 E3.84557
G1 X31.191 Y26.597 E0.13052
G1 X30.093 Y27.887 E0.13052
G1 X27.950 Y28.586 E0.17373
G1 X0.060 Y28.586 E2.14936
G1 E-3.50000 F1500.00000
G1 Z0.700 F15000.000
G1 X-8.429 Y-23.964 F15000.000
G1 Z0.300 F15000.000
G1 E3.50000 F1500.00000
G1 X26.964 Y-23.964 E2.72758 F720.000
G1 X26.964 Y23.964 E3.69365
G1 X-26.964 Y23.964 E4.15605 F720.000
G1 X-26.964 Y-23.964 E3.69365
G1 X-8.489 Y-23.964 E1.42384
G1 X-8.489 Y-24.600 F15000.000
G1 X27.600 Y-24.600 E2.78119 F720.000
G1 X27.600 Y24.600 E3.79162
G1 X-27.600 Y24.600 E4.25402 F720.000
G1 X-27.600 Y-24.600 E3.79162
G1 X-8.549 Y-24.600 E1.46820
G1 X-8.289 Y-24.254 F15000.000
G1 X26.579 Y-23.269 F15000.000
G1 X26.269 Y-23.579 E0.03403 F960.000
G1 X25.363 Y-23.579 E0.07042
G1 X26.579 Y-22.363 E0.13362
G1 X26.579 Y-21.457 E0.07042
G1 X24.457 Y-23.579 E0.23322
G1 X23.550 Y-23.579 E0.07042
G1 X26.579 Y-20.550 E0.33281
G1 X26.579 Y-19.644 E0.07042
G1 X22.644 Y-23.579 E0.43241
G1 X21.738 Y-23.579 E0.07042
G1 X26.579 Y-18.738 E0.53200
G1 X26.579 Y-17.831 E0.07042
G1 X20.831 Y-23.579 E0.63160
G1 X19.925 Y-23.579 E0.07042
G1 X26.579 Y-16.925 E0.73119
G1 X26.579 Y-16.019 E0.07042
G1 X19.019 Y-23.579 E0.83079
G1 X18.112 Y-23.579 E0.07042
G1 X26.579 Y-15.112 E0.93038
G1 X26.579 Y-14.206 E0.07042
G1 X17.206 Y-23.579 E1.02998
G1 X16.300 Y-23.579 E0.07042
G1 X26.579 Y-13.300 E1.12957
G1 X26.579 Y-12.393 E0.07042
G1 X15.393 Y-23.579 E1.22917
G1 X14.487 Y-23.579 E0.07042
G1 X26.579 Y-11.487 E1.32877
G1 X26.579 Y-10.581 E0.07042
G1 X13.581 Y-23.579 E1.42836
G1 X12.674 Y-23.579 E0.07042
G1 X26.579 Y-9.674 E1.52796
G1 X26.579 Y-8.768 E0.07042
G1 X11.768 Y-23.579 E1.62755
G1 X10.862 Y-23.579 E0.07042
G1 X26.579 Y-7.862 E1.72715
G1 X26.579 Y-6.955 E0.07042
G1 X9.955 Y-23.579 E1.82674
G1 X9.049 Y-23.579 E0.07042
G1 X26.579 Y-6.049 E1.92634
G1 X26.579 Y-5.143 E0.07042
G1 X8.143 Y-23.579 E2.02593
G1 X7.236 Y-23.579 E0.07042
G1 X26.579 Y-4.236 E2.12553
G1 X26.579 Y-3.330 E0.07042
G1 X6.330 Y-23.579 E2.22512
G1 X5.424 Y-23.579 E0.07042
G1 X26.579 Y-2.424 E2.32472
G1 X26.579 Y-1.517 E0.07042
G1 X4.517 Y-23.579 E2.42431
G1 X3.611 Y-23.579 E0.07042
G1 X26.579 Y-0.611 E2.52391
G1 X26.579 Y0.295 E0.07042
G1 X2.705 Y-23.579 E2.62350
G1 X1.798 Y-23.579 E0.07042
G1 X26.579 Y1.202 E2.72310
G1 X26.579 Y2.108 E0.07042
G1 X0.892 Y-23.579 E2.82269
G1 X-0.014 Y-23.579 E0.07042
G1 X26.579 Y3.014 E2.92229
G1 X26.579 Y3.921 E0.07042
G1 X-0.921 Y-23.579 E3.02188
G1 X-1.827 Y-23.579 E0.07042
G1 X26.579 Y4.827 E3.12148
G1 X26.579 Y5.733 E0.07042
G1 X-2.733 Y-23.579 E3.22107
G1 X-3.640 Y-23.579 E0.07042
G1 X26.579 Y6.640 E3.32067
G1 X26.579 Y7.546 E0.07042
G1 X-4.546 Y-23.579 E3.42026
G1 X-5.452 Y-23.579 E0.07042
G1 X26.579 Y8.452 E3.51986
G1 X26.579 Y9.359 E0.07042
G1 X-6.359 Y-23.579 E3.61945
G1 X-7.265 Y-23.579 E0.07042
G1 X26.579 Y10.265 E3.71905
G1 X26.579 Y11.171 E0.07042
G1 X-8.171 Y-23.579 E3.81864
G1 X-9.078 Y-23.579 E0.07042
G1 X26.579 Y12.078 E3.91824
G1 X26.579 Y12.984 E0.07042
G1 X-9.984 Y-23.579 E4.01783
G1 X-10.890 Y-23.579 E0.07042
G1 X26.579 Y13.890 E4.11743
G1 X26.579 Y14.797 E0.07042
G1 X-11.797 Y-23.579 E4.21702
G1 X-12.703 Y-23.579 E0.07042
G1 X26.579 Y15.703 E4.31662
G1 X26.579 Y16.609 E0.07042
G1 X-13.609 Y-23.579 E4.41621
G1 X-14.516 Y-23.579 E0.07042
G1 X26.579 Y17.516 E4.51581
G1 X26.579 Y18.422 E0.07042
G1 X-15.422 Y-23.579 E4.61540
G1 X-16.328 Y-23.579 E0.07042
G1 X26.579 Y19.328 E4.71500
G1 X26.579 Y20.235 E0.07042
G1 X-17.235 Y-23.579 E4.81459
G1 X-18.141 Y-23.579 E0.07042
G1 X26.579 Y21.141 E4.91419
G1 X26.579 Y22.047 E0.07042
G1 X-19.047 Y-23.579 E5.01378
G1 X-19.954 Y-23.579 E0.07042
G1 X26.579 Y22.954 E5.11338
G1 X26.298 Y23.579 E0.05327
G1 X-20.860 Y-23.579 E5.18209
G1 X-21.766 Y-23.579 E0.07042
G1 X25.392 Y23.579 E5.18209
G1 X24.485 Y23.579 E0.07042
G1 X-22.673 Y-23.579 E5.18209
G1 X-23.579 Y-23.579 E0.07042
G1 X23.579 Y23.579 E5.18209
G1 X22.673 Y23.579 E0.07042
G1 X-24.485 Y-23.579 E5.18209
G1 X-25.392 Y-23.579 E0.07042
G1 X21.766 Y23.579 E5.18209
G1 X20.860 Y23.579 E0.07042
G1 X-26.298 Y-23.579 E5.18209
G1 X-26.579 Y-22.954 E0.05327
G1 X19.954 Y23.579 E5.11337
G1 X19.047 Y23.579 E0.07042
G1 X-26.579 Y-22.047 E5.01377
G1 X-26.579 Y-21.141 E0.07042
G1 X18.141 Y23.579 E4.91418
G1 X17.235 Y23.579 E0.07042
G1 X-26.579 Y-20.235 E4.81458
G1 X-26.579 Y-19.328 E0.07042
G1 X16.328 Y23.579 E4.71499
G1 X15.422 Y23.579 E0.07042
G1 X-26.579 Y-18.422 E4.61539
G1 X-26.579 Y-17.516 E0.07042
G1 X14.516 Y23.579 E4.51580
G1 X13.609 Y23.579 E0.07042
G1 X-26.579 Y-16.609 E4.41620
G1 X-26.579 Y-15.703 E0.07042
G1 X12.703 Y23.579 E4.31661
G1 X11.797 Y23.579 E0.07042
G1 X-26.579 Y-14.797 E4.21701
G1 X-26.579 Y-13.890 E0.07042
G1 X10.890 Y23.579 E4.11742
G1 X9.984 Y23.579 E0.07042
G1 X-26.579 Y-12.984 E4.01782
G1 X-26.579 Y-12.078 E0.07042
G1 X9.078 Y23.579 E3.91823
G1 X8.171 Y23.579 E0.07042
G1 X-26.579 Y-11.171 E3.81863
G1 X-26.579 Y-10.265 E0.07042
G1 X7.265 Y23.579 E3.71904
G1 X6.359 Y23.579 E0.07042
G1 X-26.579 Y-9.359 E3.61944
G1 X-26.579 Y-8.452 E0.07042
G1 X5.452 Y23.579 E3.51985
G1 X4.546 Y23.579 E0.07042
G1 X-26.579 Y-7.546 E3.42025
G1 X-26.579 Y-6.640 E0.07042
G1 X3.640 Y23.579 E3.32066
G1 X2.733 Y23.579 E0.07042
G1 X-26.579 Y-5.733 E3.22106
G1 X-26.579 Y-4.827 E0.07042
G1 X1.827 Y23.579 E3.12147
G1 X0.921 Y23.579 E0.07042
G1 X-26.579 Y-3.921 E3.02187
G1 X-26.579 Y-3.014 E0.07042
G1 X0.014 Y23.579 E2.92228
G1 X-0.892 Y23.579 E0.07042
G1 X-26.579 Y-2.108 E2.82268
G1 X-26.579 Y-1.202 E0.07042
G1 X-1.798 Y23.579 E2.72309
G1 X-2.705 Y23.579 E0.07042
G1 X-26.579 Y-0.295 E2.62349
G1 X-26.579 Y0.611 E0.07042
G1 X-3.611 Y23.579 E2.52390
G1 X-4.517 Y23.579 E0.07042
G1 X-26.579 Y1.517 E2.42430
G1 X-26.579 Y2.424 E0.07042
G1 X-5.424 Y23.579 E2.32471
G1 X-6.330 Y23.579 E0.07042
G1 X-26.579 Y3.330 E2.22511
G1 X-26.579 Y4.236 E0.07042
G1 X-7.236 Y23.579 E2.12552
G1 X-8.143 Y23.579 E0.07042
G1 X-26.579 Y5.143 E2.02592
G1 X-26.579 Y6.049 E0.07042
G1 X-9.049 Y23.579 E1.92633
G1 X-9.955 Y23.579 E0.07042
G1 X-26.579 Y6.955 E1.82673
G1 X-26.579 Y7.862 E0.07042
G1 X-10.862 Y23.579 E1.72714
G1 X-11.768 Y23.579 E0.07042
G1 X-26.579 Y8.768 E1.62754
G1 X-26.579 Y9.674 E0.07042
G1 X-12.674 Y23.579 E1.52795
G1 X-13.581 Y23.579 E0.07042
G1 X-26.579 Y10.581 E1.42835
G1 X-26.579 Y11.487 E0.07042
G1 X-14.487 Y23.579 E1.32876
G1 X-15.393 Y23.579 E0.07042
G1 X-26.579 Y12.393 E1.22916
G1 X-26.579 Y13.300 E0.07042
G1 X-16.300 Y23.579 E1.12957
G1 X-17.206 Y23.579 E0.07042
G1 X-26.579 Y14.206 E1.02997
G1 X-26.579 Y15.112 E0.07042
G1 X-18.112 Y23.579 E0.93038
G1 X-19.019 Y23.579 E0.07042
G1 X-26.579 Y16.019 E0.83078
G1 X-26.579 Y16.925 E0.07042
G1 X-19.925 Y23.579 E0.73119
G1 X-20.831 Y23.579 E0.07042
G1 X-26.579 Y17.831 E0.63159
G1 X-26.579 Y18.738 E0.07042
G1 X-21.738 Y23.579 E0.53200
G1 X-22.644 Y23.579 E0.07042
G1 X-26.579 Y19.644 E0.43240
G1 X-26.579 Y20.550 E0.07042
G1 X-23.550 Y23.579 E0.33281
G1 X-24.457 Y23.579 E0.07042
G1 X-26.579 Y21.457 E0.23321
G1 X-26.579 Y22.363 E0.07042
G1 X-25.363 Y23.579 E0.13362
G1 X-26.269 Y23.579 E0.07042
G1 X-26.579 Y23.269 E0.03402
G1 E-3.50000 F1500.00000
G1 Z0.700 F15000.000
G1 X27.393 Y-17.562 F15000.000
G1 Z0.500 F15000.000
G1 E3.50000 F1500.00000
G1 X27.393 Y24.393 E1.21093 F3600.000
G1 X-27.393 Y24.393 E1.58127 F3600.000
G1 X-27.393 Y-24.393 E1.40809
G1 X27.393 Y-24.393 E1.58127
G1 X27.393 Y-17.622 E0.19542
G1 X27.750 Y-17.622 F15000.000
G1 X27.750 Y24.750 E1.22297 F3600.000
G1 X-27.750 Y24.750 E1.60188 F3600.000
G1 X-27.750 Y-24.750 E1.42870
G1 X27.750 Y-24.750 E1.60188
G1 X27.750 Y-17.682 E0.20400
G1 X27.404 Y-17.422 F15000.000
G1 X26.994 Y24.185 F15000.000
G1 X27.185 Y23.994 E0.00784 F4800.000
G1 X27.185 Y23.487 E0.01468
G1 X26.487 Y24.185 E0.02860
G1 X25.980 Y24.185 E0.01468
G1 X27.185 Y22.980 E0.04935
G1 X27.185 Y22.474 E0.01468
G1 X25.474 Y24.185 E0.07011
G1 X24.967 Y24.185 E0.01468
G1 X27.185 Y21.967 E0.09086
G1 X27.185 Y21.460 E0.01468
G1 X24.460 Y24.185 E0.11162
G1 X23.953 Y24.185 E0.01468
G1 X27.185 Y20.953 E0.13237
G1 X27.185 Y20.447 E0.01468
G1 X23.447 Y24.185 E0.15312
G1 X22.940 Y24.185 E0.01468
G1 X27.185 Y19.940 E0.17388
G1 X27.185 Y19.433 E0.01468
G1 X22.433 Y24.185 E0.19463
G1 X21.926 Y24.185 E0.01468
G1 X27.185 Y18.926 E0.21539
G1 X27.185 Y18.420 E0.01468
G1 X21.420 Y24.185 E0.23614
G1 X20.913 Y24.185 E0.01468
G1 X27.185 Y17.913 E0.25690
G1 X27.185 Y17.406 E0.01468
G1 X20.406 Y24.185 E0.27765
G1 X19.900 Y24.185 E0.01468
G1 X27.185 Y16.900 E0.29841
G1 X27.185 Y16.393 E0.01468
G1 X19.393 Y24.185 E0.31916
G1 X18.886 Y24.185 E0.01468
G1 X27.185 Y15.886 E0.33991
G1 X27.185 Y15.379 E0.01468
G1 X18.379 Y24.185 E0.36067
G1 X17.873 Y24.185 E0.01468
G1 X27.185 Y14.873 E0.38142
G1 X27.185 Y14.366 E0.01468
G1 X17.366 Y24.185 E0.40218
G1 X16.859 Y24.185 E0.01468
G1 X27.185 Y13.859 E0.42293
G1 X27.185 Y13.353 E0.01468
G1 X16.353 Y24.185 E0.44369
G1 X15.846 Y24.185 E0.01468
G1 X27.185 Y12.846 E0.46444
G1 X27.185 Y12.339 E0.01468
G1 X15.339 Y24.185 E0.48520
G1 X14.832 Y24.185 E0.01468
G1 X27.185 Y11.832 E0.50595
G1 X27.185 Y11.326 E0.01468
G1 X14.326 Y24.185 E0.52670
G1 X13.819 Y24.185 E0.01468
G1 X27.185 Y10.819 E0.54746
G1 X27.185 Y10.312 E0.01468
G1 X13.312 Y24.185 E0.56821
G1 X12.805 Y24.185 E0.01468
G1 X27.185 Y9.805 E0.58897
G1 X27.185 Y9.299 E0.01468
G1 X12.299 Y24.185 E0.60972
G1 X11.792 Y24.185 E0.01468
G1 X27.185 Y8.792 E0.63048
G1 X27.185 Y8.285 E0.01468
G1 X11.285 Y24.185 E0.65123
G1 X10.779 Y24.185 E0.01468
G1 X27.185 Y7.779 E0.67199
G1 X27.185 Y7.272 E0.01468
G1 X10.272 Y24.185 E0.69274
G1 X9.765 Y24.185 E0.01468
G1 X27.185 Y6.765 E0.71349
G1 X27.185 Y6.258 E0.01468
G1 X9.258 Y24.185 E0.73425
G1 X8.752 Y24.185 E0.01468
G1 X27.185 Y5.752 E0.75500
G1 X27.185 Y5.245 E0.01468
G1 X8.245 Y24.185 E0.77576
G1 X7.738 Y24.185 E0.01468
G1 X27.185 Y4.738 E0.79651
G1 X27.185 Y4.232 E0.01468
G1 X7.232 Y24.185 E0.81727
G1 X6.725 Y24.185 E0.01468
G1 X27.185 Y3.725 E0.83802
G1 X27.185 Y3.218 E0.01468
G1 X6.218 Y24.185 E0.85878
G1 X5.711 Y24.185 E0.01468
G1 X27.185 Y2.711 E0.87953
G1 X27.185 Y2.205 E0.01468
G1 X5.205 Y24.185 E0.90028
G1 X4.698 Y24.185 E0.01468
G1 X27.185 Y1.698 E0.92104
G1 X27.185 Y1.191 E0.01468
G1 X4.191 Y24.185 E0.94179
G1 X3.684 Y24.185 E0.01468
G1 X27.185 Y0.684 E0.96255
G1 X27.185 Y0.178 E0.01468
G1 X3.178 Y24.185 E0.98330
G1 X2.671 Y24.185 E0.01468
G1 X27.185 Y-0.329 E1.00406
G1 X27.185 Y-0.836 E0.01468
G1 X2.164 Y24.185 E1.02481
G1 X1.658 Y24.185 E0.01468
G1 X27.185 Y-1.342 E1.04557
G1 X27.185 Y-1.849 E0.01468
G1 X1.151 Y24.185 E1.06632
G1 X0.644 Y24.185 E0.01468
G1 X27.185 Y-2.356 E1.08708
G1 X27.185 Y-2.863 E0.01468
G1 X0.137 Y24.185 E1.10783
G1 X-0.369 Y24.185 E0.01468
G1 X27.185 Y-3.369 E1.12858
G1 X27.185 Y-3.876 E0.01468
G1 X-0.876 Y24.185 E1.14934
G1 X-1.383 Y24.185 E0.01468
G1 X27.185 Y-4.383 E1.17009
G1 X27.185 Y-4.889 E0.01468
G1 X-1.889 Y24.185 E1.19085
G1 X-2.396 Y24.185 E0.01468
G1 X27.185 Y-5.396 E1.21160
G1 X27.185 Y-5.903 E0.01468
G1 X-2.903 Y24.185 E1.23236
G1 X-3.410 Y24.185 E0.01468
G1 X27.185 Y-6.410 E1.25311
G1 X27.185 Y-6.916 E0.01468
G1 X-3.916 Y24.185 E1.27387
G1 X-4.423 Y24.185 E0.01468
G1 X27.185 Y-7.423 E1.29462
G1 X27.185 Y-7.930 E0.01468
G1 X-4.930 Y24.185 E1.31537
G1 X-5.437 Y24.185 E0.01468
G1 X27.185 Y-8.437 E1.33613
G1 X27.185 Y-8.943 E0.01468
G1 X-5.943 Y24.185 E1.35688
G1 X-6.450 Y24.185 E0.01468
G1 X27.185 Y-9.450 E1.37764
G1 X27.185 Y-9.957 E0.01468
G1 X-6.957 Y24.185 E1.39839
G1 X-7.463 Y24.185 E0.01468
G1 X27.185 Y-10.463 E1.41915
G1 X27.185 Y-10.970 E0.01468
G1 X-7.970 Y24.185 E1.43990
G1 X-8.477 Y24.185 E0.01468
G1 X27.185 Y-11.477 E1.46066
G1 X27.185 Y-11.984 E0.01468
G1 X-8.984 Y24.185 E1.48141
G1 X-9.490 Y24.185 E0.01468
G1 X27.185 Y-12.490 E1.50216
G1 X27.185 Y-12.997 E0.01468
G1 X-9.997 Y24.185 E1.52292
G1 X-10.504 Y24.185 E0.01468
G1 X27.185 Y-13.504 E1.54367
G1 X27.185 Y-14.010 E0.01468
G1 X-11.010 Y24.185 E1.56443
G1 X-11.517 Y24.185 E0.01468
G1 X27.185 Y-14.517 E1.58518
G1 X27.185 Y-15.024 E0.01468
G1 X-12.024 Y24.185 E1.60594
G1 X-12.531 Y24.185 E0.01468
G1 X27.185 Y-15.531 E1.62669
G1 X27.185 Y-16.037 E0.01468
G1 X-13.037 Y24.185 E1.64745
G1 X-13.544 Y24.185 E0.01468
G1 X27.185 Y-16.544 E1.66820
G1 X27.185 Y-17.051 E0.01468
G1 X-14.051 Y24.185 E1.68895
G1 X-14.558 Y24.185 E0.01468
G1 X27.185 Y-17.558 E1.70971
G1 X27.185 Y-18.064 E0.01468
G1 X-15.064 Y24.185 E1.73046
G1 X-15.571 Y24.185 E0.01468
G1 X27.185 Y-18.571 E1.75122
G1 X27.185 Y-19.078 E0.01468
G1 X-16.078 Y24.185 E1.77197
G1 X-16.584 Y24.185 E0.01468
G1 X27.185 Y-19.584 E1.79273
G1 X27.185 Y-20.091 E0.01468
G1 X-17.091 Y24.185 E1.81348
G1 X-17.598 Y24.185 E0.01468
G1 X27.185 Y-20.598 E1.83424
G1 X27.185 Y-21.105 E0.01468
G1 X-18.105 Y24.185 E1.85499
G1 X-18.611 Y24.185 E0.01468
G1 X27.185 Y-21.611 E1.87574
G1 X27.185 Y-22.118 E0.01468
G1 X-19.118 Y24.185 E1.89650
G1 X-19.625 Y24.185 E0.01468
G1 X27.185 Y-22.625 E1.91725
G1 X27.185 Y-23.131 E0.01468
G1 X-20.131 Y24.185 E1.93801
G1 X-20.638 Y24.185 E0.01468
G1 X27.185 Y-23.638 E1.95876
G1 X27.185 Y-24.145 E0.01468
G1 X-21.145 Y24.185 E1.97952
G1 X-21.652 Y24.185 E0.01468
G1 X26.719 Y-24.185 E1.98116
G1 X26.212 Y-24.185 E0.01468
G1 X-22.158 Y24.185 E1.98116
G1 X-22.665 Y24.185 E0.01468
G1 X25.705 Y-24.185 E1.98116
G1 X25.199 Y-24.185 E0.01468
G1 X-23.172 Y24.185 E1.98116
G1 X-23.679 Y24.185 E0.01468
G1 X24.692 Y-24.185 E1.98116
G1 X24.185 Y-24.185 E0.01468
G1 X-24.185 Y24.185 E1.98116
G1 X-24.692 Y24.185 E0.01468
G1 X23.678 Y-24.185 E1.98116
G1 X23.172 Y-24.185 E0.01468
G1 X-25.199 Y24.185 E1.98116
G1 X-25.705 Y24.185 E0.01468
G1 X22.665 Y-24.185 E1.98116
G1 X22.158 Y-24.185 E0.01468
G1 X-26.212 Y24.185 E1.98116
G1 X-26.719 Y24.185 E0.01468
G1 X21.651 Y-24.185 E1.98116
G1 X21.145 Y-24.185 E0.01468
G1 X-27.185 Y24.145 E1.97951
G1 X-27.185 Y23.638 E0.01468
G1 X20.638 Y-24.185 E1.95875
G1 X20.131 Y-24.185 E0.01468
G1 X-27.185 Y23.131 E1.93800
G1 X-27.185 Y22.625 E0.01468
G1 X19.625 Y-24.185 E1.91725
G1 X19.118 Y-24.185 E0.01468
G1 X-27.185 Y22.118 E1.89649
G1 X-27.185 Y21.611 E0.01468
G1 X18.611 Y-24.185 E1.87574
G1 X18.104 Y-24.185 E0.01468
G1 X-27.185 Y21.104 E1.85498
G1 X-27.185 Y20.598 E0.01468
G1 X17.598 Y-24.185 E1.83423
G1 X17.091 Y-24.185 E0.01468
G1 X-27.185 Y20.091 E1.81347
G1 X-27.185 Y19.584 E0.01468
G1 X16.584 Y-24.185 E1.79272
G1 X16.078 Y-24.185 E0.01468
G1 X-27.185 Y19.078 E1.77196
G1 X-27.185 Y18.571 E0.01468
G1 X15.571 Y-24.185 E1.75121
G1 X15.064 Y-24.185 E0.01468
G1 X-27.185 Y18.064 E1.73046
G1 X-27.185 Y17.557 E0.01468
G1 X14.557 Y-24.185 E1.70970
G1 X14.051 Y-24.185 E0.01468
G1 X-27.185 Y17.051 E1.68895
G1 X-27.185 Y16.544 E0.01468
G1 X13.544 Y-24.185 E1.66819
G1 X13.037 Y-24.185 E0.01468
G1 X-27.185 Y16.037 E1.64744
G1 X-27.185 Y15.530 E0.01468
G1 X12.530 Y-24.185 E1.62668
G1 X12.024 Y-24.185 E0.01468
G1 X-27.185 Y15.024 E1.60593
G1 X-27.185 Y14.517 E0.01468
G1 X11.517 Y-24.185 E1.58517
G1 X11.010 Y-24.185 E0.01468
G1 X-27.185 Y14.010 E1.56442
G1 X-27.185 Y13.504 E0.01468
G1 X10.504 Y-24.185 E1.54367
G1 X9.997 Y-24.185 E0.01468
G1 X-27.185 Y12.997 E1.52291
G1 X-27.185 Y12.490 E0.01468
G1 X9.490 Y-24.185 E1.50216
G1 X8.983 Y-24.185 E0.01468
G1 X-27.185 Y11.983 E1.48140
G1 X-27.185 Y11.477 E0.01468
G1 X8.477 Y-24.185 E1.46065
G1 X7.970 Y-24.185 E0.01468
G1 X-27.185 Y10.970 E1.43989
