; generated by Slic3r 1.2.9 on 2018-05-22 at 14:41:33

; external perimeters extrusion width = 0.40mm
; perimeters extrusion width = 0.40mm
; infill extrusion width = 0.40mm
; solid infill extrusion width = 0.40mm
; top infill extrusion width = 0.40mm

M107
M83
T0
M116
G21 ; set units to millimeters
G90 ; use absolute coordinates
M83 ; use relative distances for extrusion
G1 E-3.50000 F1500.00000
G1 Z0.400 F15000.000
G1 X17.993 Y11.874 F15000.000
G1 Z0.300 F15000.000
G1 E3.50000 F1500.00000
G1 X17.474 Y12.662 E0.07270 F960.000
G1 X17.265 Y12.947 E0.02727
G1 X16.168 Y14.295 E0.13391
G1 X15.801 Y14.697 E0.04197
G1 X14.697 Y15.801 E0.12029
G1 X14.295 Y16.168 E0.04197
G1 X12.947 Y17.265 E0.13391
G1 X12.662 Y17.474 E0.02727
G1 X11.075 Y18.521 E0.14652
G1 X10.742 Y18.716 E0.02970
G1 X9.053 Y19.589 E0.14653
G1 X8.702 Y19.748 E0.02970
G1 X6.930 Y20.438 E0.14654
G1 X6.618 Y20.543 E0.02540
G1 X4.717 Y21.060 E0.15178
G1 X4.352 Y21.138 E0.02877
G1 X2.475 Y21.439 E0.14654
G1 X2.092 Y21.480 E0.02970
G1 X0.193 Y21.580 E0.14655
G1 X-0.193 Y21.580 E0.02970
G1 X-2.092 Y21.480 E0.14655
G1 X-2.475 Y21.439 E0.02970
G1 X-4.352 Y21.138 E0.14654
G1 X-4.729 Y21.056 E0.02970
G1 X-6.564 Y20.558 E0.14654
G1 X-6.930 Y20.438 E0.02970
G1 X-8.702 Y19.748 E0.14654
G1 X-9.053 Y19.589 E0.02970
G1 X-10.742 Y18.716 E0.14653
G1 X-11.075 Y18.521 E0.02970
G1 X-12.662 Y17.474 E0.14652
G1 X-12.947 Y17.265 E0.02727
G1 X-14.160 Y16.282 E0.12029
G1 X-14.549 Y15.941 E0.03987
G1 X-15.801 Y14.697 E0.13600
G1 X-16.282 Y14.160 E0.05558
G1 X-17.265 Y12.947 E0.12029
G1 X-17.474 Y12.662 E0.02727
G1 X-18.521 Y11.075 E0.14652
G1 X-18.716 Y10.742 E0.02970
G1 X-19.589 Y9.053 E0.14653
G1 X-19.748 Y8.702 E0.02970
G1 X-20.438 Y6.930 E0.14654
G1 X-20.543 Y6.618 E0.02541
G1 X-21.060 Y4.717 E0.15178
G1 X-21.138 Y4.352 E0.02876
G1 X-21.439 Y2.475 E0.14654
G1 X-21.480 Y2.092 E0.02970
G1 X-21.580 Y0.193 E0.14655
G1 X-21.580 Y-0.193 E0.02970
G1 X-21.480 Y-2.092 E0.14655
G1 X-21.439 Y-2.475 E0.02970
G1 X-21.138 Y-4.352 E0.14654
G1 X-21.056 Y-4.729 E0.02970
G1 X-20.558 Y-6.564 E0.14654
G1 X-20.438 Y-6.930 E0.02970
G1 X-19.748 Y-8.702 E0.14654
G1 X-19.599 Y-9.034 E0.02801
G1 X-18.891 Y-10.425 E0.12029
G1 X-18.521 Y-11.075 E0.05764
G1 X-17.474 Y-12.662 E0.14652
G1 X-17.265 Y-12.947 E0.02727
G1 X-16.282 Y-14.160 E0.12029
G1 X-15.941 Y-14.549 E0.03987
G1 X-14.697 Y-15.801 E0.13600
G1 X-14.160 Y-16.282 E0.05558
G1 X-12.947 Y-17.265 E0.12029
G1 X-12.662 Y-17.474 E0.02727
G1 X-11.075 Y-18.521 E0.14652
G1 X-10.742 Y-18.716 E0.02970
G1 X-9.053 Y-19.589 E0.14653
G1 X-8.702 Y-19.748 E0.02970
G1 X-6.930 Y-20.438 E0.14654
G1 X-6.564 Y-20.558 E0.02970
G1 X-4.729 Y-21.056 E0.14654
G1 X-4.352 Y-21.138 E0.02970
G1 X-2.475 Y-21.439 E0.14654
G1 X-2.092 Y-21.480 E0.02970
G1 X-0.193 Y-21.580 E0.14655
G1 X0.190 Y-21.581 E0.02951
G1 X1.749 Y-21.499 E0.12029
G1 X2.475 Y-21.439 E0.05613 F960.000
G1 X4.352 Y-21.138 E0.14654
G1 X4.729 Y-21.056 E0.02970
G1 X6.564 Y-20.558 E0.14654
G1 X6.930 Y-20.438 E0.02970
G1 X8.702 Y-19.748 E0.14654
G1 X9.053 Y-19.589 E0.02970
G1 X10.742 Y-18.716 E0.14653
G1 X11.075 Y-18.521 E0.02970
G1 X12.662 Y-17.474 E0.14652
G1 X12.947 Y-17.265 E0.02727
G1 X14.160 Y-16.282 E0.12029
G1 X14.549 Y-15.941 E0.03987
G1 X15.801 Y-14.697 E0.13600
G1 X16.282 Y-14.160 E0.05558
G1 X17.265 Y-12.947 E0.12029
G1 X17.474 Y-12.662 E0.02727
G1 X18.521 Y-11.075 E0.14652
G1 X18.716 Y-10.742 E0.02970
G1 X19.589 Y-9.053 E0.14653
G1 X19.748 Y-8.702 E0.02970
G1 X20.438 Y-6.930 E0.14654
G1 X20.558 Y-6.564 E0.02970
G1 X21.056 Y-4.729 E0.14654
G1 X21.138 Y-4.352 E0.02970
G1 X21.439 Y-2.475 E0.14654
G1 X21.480 Y-2.092 E0.02970
G1 X21.580 Y-0.193 E0.14655
G1 X21.580 Y0.193 E0.02970
G1 X21.480 Y2.092 E0.14655
G1 X21.439 Y2.475 E0.02970
G1 X21.138 Y4.352 E0.14654
G1 X21.056 Y4.729 E0.02970
G1 X20.558 Y6.564 E0.14654
G1 X20.438 Y6.930 E0.02970
G1 X19.748 Y8.702 E0.14654
G1 X19.589 Y9.053 E0.02970
G1 X18.716 Y10.742 E0.14653
G1 X18.521 Y11.075 E0.02970
G1 X18.026 Y11.824 E0.06920
G1 E-3.50000 F1500.00000
G1 Z0.700 F15000.000
G1 X-1.036 Y15.877 F15000.000
G1 Z0.300 F15000.000
G1 E3.50000 F1500.00000
G1 X-1.036 Y16.908 E0.07945 F600.000
G1 X-1.921 Y16.861 E0.06836
G1 X-1.384 Y13.812 E0.23863
G1 X-1.036 Y13.842 E0.02693
G1 X-1.036 Y15.817 E0.15221 F600.000
G1 E-3.50000 F1500.00000
G1 Z0.700 F15000.000
G1 X-6.994 Y14.185 F15000.000
G1 Z0.300 F15000.000
G1 E3.50000 F1500.00000
G1 X-6.024 Y12.505 E0.14948 F600.000
G1 X-5.707 Y12.653 E0.02693
G1 X-6.760 Y15.545 E0.23717 F600.000
G1 X-6.977 Y15.460 E0.01796
G1 X-7.557 Y15.160 E0.05031
G1 X-7.024 Y14.237 E0.08217
G1 E-3.50000 F1500.00000
G1 Z0.700 F15000.000
G1 X-10.815 Y11.277 F15000.000
G1 Z0.300 F15000.000
G1 E3.50000 F1500.00000
G1 X-11.668 Y12.294 E0.10231 F600.000
G1 X-12.294 Y11.668 E0.06825
G1 X-9.938 Y9.691 E0.23706
G1 X-9.691 Y9.938 E0.02693
G1 X-10.776 Y11.231 E0.13012 F600.000
G1 E-3.50000 F1500.00000
G1 Z0.700 F15000.000
G1 X-13.166 Y6.406 F15000.000
G1 Z0.300 F15000.000
G1 E3.50000 F1500.00000
G1 X-15.160 Y7.557 E0.17746 F600.000
G1 X-15.460 Y6.977 E0.05032
G1 X-15.545 Y6.760 E0.01796
G1 X-12.653 Y5.707 E0.23717
G1 X-12.505 Y6.024 E0.02693
G1 X-13.114 Y6.376 E0.05419 F600.000
G1 E-3.50000 F1500.00000
G1 Z0.700 F15000.000
G1 X-14.060 Y1.427 F15000.000
G1 Z0.300 F15000.000
G1 E3.50000 F1500.00000
G1 X-16.861 Y1.921 E0.21922 F600.000
G1 X-16.908 Y1.036 E0.06836
G1 X-13.842 Y1.036 E0.23628
G1 X-13.812 Y1.384 E0.02693
G1 X-14.000 Y1.417 E0.01478 F600.000
G1 E-3.50000 F1500.00000
G1 Z0.700 F15000.000
G1 X-14.775 Y-4.276 F15000.000
G1 Z0.300 F15000.000
G1 E3.50000 F1500.00000
G1 X-13.361 Y-3.761 E0.11596 F600.000
G1 X-13.452 Y-3.424 E0.02693 F600.000
G1 X-16.478 Y-3.957 E0.23677
G1 X-16.246 Y-4.811 E0.06818
G1 X-14.832 Y-4.296 E0.11596
G1 E-3.50000 F1500.00000
G1 Z0.700 F15000.000
G1 X-11.719 Y-7.962 F15000.000
G1 Z0.300 F15000.000
G1 E3.50000 F1500.00000
G1 X-14.123 Y-9.350 E0.21386 F600.000
G1 X-13.635 Y-10.089 E0.06827
G1 X-11.269 Y-8.104 E0.23796
G1 X-11.470 Y-7.818 E0.02693 F600.000
G1 X-11.667 Y-7.932 E0.01760
G1 E-3.50000 F1500.00000
G1 Z0.700 F15000.000
G1 X-9.611 Y-13.065 F15000.000
G1 Z0.300 F15000.000
G1 E3.50000 F1500.00000
G1 X-10.089 Y-13.635 E0.05735 F600.000
G1 X-9.350 Y-14.123 E0.06827
G1 X-7.818 Y-11.470 E0.23608
G1 X-8.104 Y-11.269 E0.02693 F600.000
G1 X-9.572 Y-13.019 E0.17599
G1 E-3.50000 F1500.00000
G1 Z0.700 F15000.000
G1 X-3.714 Y-15.098 F15000.000
G1 Z0.300 F15000.000
G1 E3.50000 F1500.00000
G1 X-3.424 Y-13.452 E0.12883 F600.000
G1 X-3.761 Y-13.361 E0.02693 F600.000
G1 X-4.811 Y-16.246 E0.23654
G1 X-3.957 Y-16.478 E0.06818
G1 X-3.724 Y-15.157 E0.10332
G1 E-3.50000 F1500.00000
G1 Z0.700 F15000.000
G1 X1.614 Y-15.118 F15000.000
G1 Z0.300 F15000.000
G1 E3.50000 F1500.00000
G1 X1.384 Y-13.812 E0.10223 F600.000
G1 X1.036 Y-13.842 E0.02693
G1 X1.036 Y-16.909 E0.23634
G1 X1.505 Y-16.884 E0.03625
G1 X1.921 Y-16.861 E0.03211 F600.000
G1 X1.625 Y-15.177 E0.13176
G1 E-3.50000 F1500.00000
G1 Z0.700 F15000.000
G1 X7.137 Y-14.433 F15000.000
G1 Z0.300 F15000.000
G1 E3.50000 F1500.00000
G1 X6.024 Y-12.505 E0.17152 F600.000
G1 X5.707 Y-12.653 E0.02693
G1 X6.760 Y-15.545 E0.23717
G1 X6.977 Y-15.460 E0.01796
G1 X7.557 Y-15.160 E0.05032 F600.000
G1 X7.167 Y-14.485 E0.06013
G1 E-3.50000 F1500.00000
G1 Z0.700 F15000.000
G1 X11.085 Y-10.653 F15000.000
G1 Z0.300 F15000.000
G1 E3.50000 F1500.00000
G1 X9.938 Y-9.691 E0.11539 F600.000
G1 X9.691 Y-9.938 E0.02693
G1 X11.668 Y-12.294 E0.23706
G1 X12.294 Y-11.668 E0.06825
G1 X11.131 Y-10.692 E0.11704 F600.000
G1 E-3.50000 F1500.00000
G1 Z0.700 F15000.000
G1 X13.061 Y-5.856 F15000.000
G1 Z0.300 F15000.000
G1 E3.50000 F1500.00000
G1 X12.653 Y-5.707 E0.03349 F600.000
G1 X12.505 Y-6.024 E0.02693
G1 X15.160 Y-7.557 E0.23627
G1 X15.460 Y-6.977 E0.05031
G1 X15.545 Y-6.760 E0.01796 F600.000
G1 X13.118 Y-5.877 E0.19905
G1 E-3.50000 F1500.00000
G1 Z0.700 F15000.000
G1 X14.725 Y-1.545 F15000.000
G1 Z0.300 F15000.000
G1 E3.50000 F1500.00000
G1 X16.861 Y-1.921 E0.16713 F600.000
G1 X16.908 Y-1.036 E0.06836
G1 X13.842 Y-1.036 E0.23628 F600.000
G1 X13.812 Y-1.384 E0.02693
G1 X14.666 Y-1.534 E0.06688
G1 E-3.50000 F1500.00000
G1 Z0.700 F15000.000
G1 X15.259 Y3.742 F15000.000
G1 Z0.300 F15000.000
G1 E3.50000 F1500.00000
G1 X16.478 Y3.957 E0.09539 F600.000
G1 X16.246 Y4.811 E0.06818 F600.000
G1 X13.361 Y3.761 E0.23654
G1 X13.452 Y3.424 E0.02693
G1 X15.200 Y3.732 E0.13676
G1 E-3.50000 F1500.00000
G1 Z0.700 F15000.000
G1 X12.574 Y9.199 F15000.000
G1 Z0.300 F15000.000
G1 E3.50000 F1500.00000
G1 X11.269 Y8.104 E0.13126 F600.000
G1 X11.470 Y7.818 E0.02693
G1 X14.123 Y9.350 E0.23608
G1 X13.635 Y10.089 E0.06827 F600.000
G1 X12.620 Y9.238 E0.10208
G1 E-3.50000 F1500.00000
G1 Z0.700 F15000.000
G1 X9.572 Y13.976 F15000.000
G1 Z0.300 F15000.000
G1 E3.50000 F1500.00000
G1 X9.350 Y14.123 E0.02055 F600.000
G1 X7.818 Y11.470 E0.23608
G1 X8.104 Y11.269 E0.02693
G1 X10.089 Y13.635 E0.23797
G1 X9.622 Y13.943 E0.04310 F600.000
G1 E-3.50000 F1500.00000
G1 Z0.700 F15000.000
G1 X4.258 Y14.728 F15000.000
G1 Z0.300 F15000.000
G1 E3.50000 F1500.00000
G1 X4.812 Y16.250 E0.12482 F600.000
G1 X3.957 Y16.479 E0.06822 F600.000
G1 X3.424 Y13.452 E0.23689
G1 X3.761 Y13.361 E0.02693
G1 X4.238 Y14.672 E0.10745
G1 X1.615 Y2.136 F15000.000
G1 X-1.631 Y2.136 E0.25019 F600.000
G1 X-2.253 Y1.324 E0.07876
G1 X-2.507 Y0.739 E0.04919
G1 X-2.611 Y0.109 E0.04919
G1 X-2.560 Y-0.527 E0.04919
G1 X-2.355 Y-1.132 E0.04919
G1 X-2.011 Y-1.669 E0.04919
G1 X-1.546 Y-2.107 E0.04919
G1 X-0.984 Y-2.422 E0.04966
G1 X-0.347 Y-2.587 E0.05073
G1 X0.265 Y-2.600 E0.04715 F600.000
G1 X0.887 Y-2.458 E0.04919
G1 X1.457 Y-2.170 E0.04919
G1 X1.939 Y-1.752 E0.04919
G1 X2.306 Y-1.229 E0.04919
G1 X2.535 Y-0.634 E0.04919
G1 X2.612 Y-0.013 E0.04817
G1 X2.562 Y0.503 E0.04001
G1 X2.416 Y0.988 E0.03898
G1 X2.180 Y1.435 E0.03898
G1 X1.653 Y2.089 E0.06473
G1 X1.311 Y1.500 F15000.000
G1 X-1.318 Y1.500 E0.20261 F600.000
G1 X-1.701 Y1.000 E0.04856
G1 X-1.893 Y0.558 E0.03714
G1 X-1.971 Y0.082 E0.03714
G1 X-1.932 Y-0.398 E0.03714
G1 X-1.778 Y-0.855 E0.03714
G1 X-1.518 Y-1.260 E0.03714
G1 X-1.167 Y-1.591 E0.03714
G1 X-0.745 Y-1.827 E0.03730
G1 X-0.259 Y-1.953 E0.03868
G1 X0.200 Y-1.963 E0.03539 F600.000
G1 X0.670 Y-1.856 E0.03714
G1 X1.100 Y-1.638 E0.03714
G1 X1.464 Y-1.322 E0.03714
G1 X1.741 Y-0.928 E0.03714
G1 X1.914 Y-0.478 E0.03714
G1 X1.972 Y-0.005 E0.03674
G1 X1.935 Y0.380 E0.02984
G1 X1.825 Y0.746 E0.02945
G1 X1.647 Y1.084 E0.02945
G1 X1.349 Y1.453 E0.03655
G1 X1.222 Y1.890 F15000.000
G1 X4.439 Y-7.790 F15000.000
G1 X4.926 Y-7.489 E0.04408 F720.000
G1 X5.353 Y-7.190 E0.04018
G1 X6.379 Y-6.379 E0.10080
G1 X7.190 Y-5.353 E0.10080
G1 X7.489 Y-4.926 E0.04018
G1 X8.179 Y-3.808 E0.10123
G1 X8.592 Y-2.552 E0.10189
G1 X8.722 Y-2.067 E0.03868
G1 X8.987 Y-0.786 E0.10080
G1 X8.949 Y0.521 E0.10080
G1 X8.903 Y1.041 E0.04018
G1 X8.714 Y2.335 E0.10080
G1 X8.231 Y3.550 E0.10080
G1 X8.010 Y4.023 E0.04018
G1 X7.390 Y5.174 E0.10080
G1 X6.520 Y6.151 E0.10080
G1 X6.151 Y6.520 E0.04018
G1 X5.174 Y7.390 E0.10080
G1 X4.023 Y8.010 E0.10080
G1 X3.550 Y8.231 E0.04018
G1 X2.335 Y8.714 E0.10080
G1 X1.041 Y8.903 E0.10080
G1 X0.521 Y8.949 E0.04018
G1 X-0.786 Y8.987 E0.10080
G1 X-2.067 Y8.722 E0.10080
G1 X-2.571 Y8.587 E0.04018
G1 X-3.813 Y8.176 E0.10080
G1 X-4.926 Y7.489 E0.10080
G1 X-5.353 Y7.190 E0.04018
G1 X-6.379 Y6.379 E0.10080
G1 X-7.190 Y5.353 E0.10080
G1 X-7.489 Y4.926 E0.04018
G1 X-8.176 Y3.813 E0.10080
G1 X-8.587 Y2.571 E0.10080
G1 X-8.722 Y2.067 E0.04018
G1 X-8.988 Y0.781 E0.10123
G1 X-8.947 Y-0.541 E0.10188
G1 X-8.903 Y-1.041 E0.03868
G1 X-8.714 Y-2.335 E0.10080
G1 X-8.231 Y-3.550 E0.10080
G1 X-8.010 Y-4.023 E0.04018
G1 X-7.390 Y-5.174 E0.10080
G1 X-6.520 Y-6.151 E0.10080
G1 X-6.151 Y-6.520 E0.04018
G1 X-5.174 Y-7.390 E0.10080
G1 X-4.023 Y-8.010 E0.10080
G1 X-3.550 Y-8.231 E0.04018
G1 X-2.330 Y-8.716 E0.10123
G1 X-1.021 Y-8.905 E0.10188
G1 X-0.521 Y-8.949 E0.03868
G1 X0.786 Y-8.987 E0.10080
G1 X2.067 Y-8.722 E0.10080
G1 X2.571 Y-8.587 E0.04018 F720.000
G1 X3.813 Y-8.176 E0.10080
G1 X4.388 Y-7.821 E0.05210
G1 X4.722 Y-8.362 F15000.000
G1 X5.275 Y-8.021 E0.05012 F720.000
G1 X5.733 Y-7.700 E0.04303
G1 X6.485 Y-7.106 E0.07387
G1 X11.614 Y-13.218 E0.61496
G1 X11.886 Y-12.976 E0.02810
G1 X12.976 Y-11.886 E0.11877
G1 X13.218 Y-11.614 E0.02810
G1 X7.106 Y-6.485 E0.61496
G1 X7.700 Y-5.733 E0.07387
G1 X8.021 Y-5.275 E0.04303
G1 X8.524 Y-4.459 E0.07387
G1 X15.419 Y-8.440 E0.61361
G1 X16.040 Y-7.239 E0.10422
G1 X16.373 Y-6.385 E0.07064
G1 X8.896 Y-3.663 E0.61323
G1 X9.202 Y-2.734 E0.07542
G1 X9.341 Y-2.214 E0.04149
G1 X9.535 Y-1.275 E0.07387
G1 X17.373 Y-2.657 E0.61337
G1 X17.501 Y-1.862 E0.06208
G1 X17.578 Y-0.400 E0.11282
G1 X9.611 Y-0.400 E0.61396
G1 X9.584 Y0.558 E0.07387
G1 X9.535 Y1.114 E0.04303
G1 X9.396 Y2.063 E0.07387
G1 X17.246 Y3.447 E0.61432
G1 X17.205 Y3.703 E0.01994
G1 X16.678 Y5.645 E0.15508
G1 X9.169 Y2.911 E0.61585
G1 X8.815 Y3.802 E0.07387
G1 X8.579 Y4.308 E0.04303
G1 X8.124 Y5.152 E0.07387
G1 X15.025 Y9.136 E0.61410
G1 X14.156 Y10.452 E0.12149
G1 X13.720 Y10.991 E0.05340
G1 X7.620 Y5.872 E0.61372
G1 X6.983 Y6.588 E0.07387
G1 X6.588 Y6.983 E0.04303
G1 X5.872 Y7.620 E0.07387
G1 X10.991 Y13.720 E0.61372
G1 X10.452 Y14.156 E0.05340
G1 X9.136 Y15.025 E0.12149
G1 X5.152 Y8.124 E0.61410
G1 X4.308 Y8.579 E0.07387
G1 X3.802 Y8.815 E0.04303
G1 X2.911 Y9.169 E0.07387
G1 X5.644 Y16.676 E0.61569
G1 X3.703 Y17.205 E0.15502
G1 X3.447 Y17.246 E0.01999
G1 X2.063 Y9.396 E0.61432
G1 X1.114 Y9.535 E0.07387
G1 X0.558 Y9.584 E0.04303
G1 X-0.400 Y9.611 E0.07387
G1 X-0.400 Y17.578 E0.61396
G1 X-1.862 Y17.501 E0.11282
G1 X-2.657 Y17.373 E0.06208
G1 X-1.275 Y9.535 E0.61337
G1 X-2.214 Y9.341 E0.07387
G1 X-2.753 Y9.197 E0.04303
G1 X-3.663 Y8.895 E0.07387
G1 X-6.385 Y16.373 E0.61328
G1 X-7.239 Y16.040 E0.07064
G1 X-8.440 Y15.419 E0.10422
G1 X-4.459 Y8.524 E0.61361
G1 X-5.275 Y8.021 E0.07387
G1 X-5.733 Y7.700 E0.04303
G1 X-6.485 Y7.106 E0.07387
G1 X-11.614 Y13.218 E0.61496
G1 X-11.886 Y12.976 E0.02810
G1 X-12.976 Y11.886 E0.11877
G1 X-13.218 Y11.614 E0.02810
G1 X-7.106 Y6.485 E0.61496
G1 X-7.700 Y5.733 E0.07387
G1 X-8.021 Y5.275 E0.04303
G1 X-8.524 Y4.459 E0.07387
G1 X-15.419 Y8.440 E0.61361
G1 X-16.040 Y7.239 E0.10422
G1 X-16.373 Y6.385 E0.07064
G1 X-8.895 Y3.663 E0.61328
G1 X-9.197 Y2.753 E0.07387
G1 X-9.341 Y2.214 E0.04303
G1 X-9.535 Y1.275 E0.07387
G1 X-17.373 Y2.657 E0.61337
G1 X-17.501 Y1.862 E0.06207
G1 X-17.578 Y0.400 E0.11282
G1 X-9.612 Y0.400 E0.61391
G1 X-9.582 Y-0.578 E0.07542
G1 X-9.535 Y-1.114 E0.04149
G1 X-9.396 Y-2.063 E0.07387
G1 X-17.246 Y-3.447 E0.61432
G1 X-17.205 Y-3.703 E0.01994
G1 X-16.678 Y-5.645 E0.15508
G1 X-9.169 Y-2.911 E0.61585
G1 X-8.815 Y-3.802 E0.07387
G1 X-8.579 Y-4.308 E0.04303
G1 X-8.124 Y-5.152 E0.07387
G1 X-15.025 Y-9.136 E0.61411
G1 X-14.156 Y-10.452 E0.12149
G1 X-13.720 Y-10.991 E0.05340
G1 X-7.620 Y-5.872 E0.61372
G1 X-6.983 Y-6.588 E0.07387
G1 X-6.588 Y-6.983 E0.04303
G1 X-5.872 Y-7.620 E0.07387
G1 X-10.991 Y-13.720 E0.61372
G1 X-10.452 Y-14.156 E0.05340
G1 X-9.136 Y-15.025 E0.12149
G1 X-5.152 Y-8.124 E0.61411
G1 X-4.308 Y-8.579 E0.07387
G1 X-3.802 Y-8.815 E0.04303
G1 X-2.911 Y-9.169 E0.07387
G1 X-5.645 Y-16.678 E0.61585
G1 X-3.703 Y-17.205 E0.15508
G1 X-3.447 Y-17.246 E0.01994
G1 X-2.063 Y-9.397 E0.61427
G1 X-1.095 Y-9.537 E0.07542
G1 X-0.558 Y-9.584 E0.04149
G1 X0.400 Y-9.611 E0.07387
G1 X0.400 Y-17.578 E0.61398
G1 X1.540 Y-17.519 E0.08796
G1 X1.861 Y-17.501 E0.02481 F720.000
G1 X2.657 Y-17.373 E0.06212
G1 X1.275 Y-9.535 E0.61337
G1 X2.214 Y-9.341 E0.07387
G1 X2.753 Y-9.197 E0.04303
G1 X3.663 Y-8.895 E0.07387
G1 X6.385 Y-16.373 E0.61328
G1 X7.239 Y-16.040 E0.07064
G1 X8.440 Y-15.419 E0.10422
G1 X4.459 Y-8.524 E0.61361
G1 X4.671 Y-8.393 E0.01913
G1 X4.710 Y-7.962 F15000.000
G1 E-3.50000 F1500.00000
G1 Z0.700 F15000.000
G1 X2.988 Y-17.232 F15000.000
G1 Z0.300 F15000.000
G1 E3.50000 F1500.00000
G1 X3.681 Y-17.104 E0.05432 F720.000
G1 X4.084 Y-17.007 E0.03192
G1 X5.470 Y-16.619 E0.11093
G1 X6.029 Y-16.418 E0.04579
G1 X8.709 Y-15.184 F15000.000
G1 X9.598 Y-14.617 E0.08131 F720.000
G1 X10.393 Y-14.076 E0.07409
G1 X11.282 Y-13.368 E0.08759
G1 X13.368 Y-11.282 F15000.000
