; generated by Slic3r 1.2.9 on 2018-05-22 at 12:11:29

; external perimeters extrusion width = 0.40mm
; perimeters extrusion width = 0.40mm
; infill extrusion width = 0.40mm
; solid infill extrusion width = 0.40mm
; top infill extrusion width = 0.40mm

M107
M83
T0
M116
G21 ; set units to millimeters
G90 ; use absolute coordinates
M83 ; use relative distances for extrusion
G1 E-3.50000 F1500.00000
G1 Z0.400 F15000.000
G1 X19.211 Y9.788 F15000.000
G1 Z0.300 F15000.000
G1 E3.50000 F1500.00000
G1 X18.784 Y10.626 E0.07240 F960.000
G1 X18.594 Y10.955 E0.02933
G1 X17.571 Y12.531 E0.14479
G1 X17.347 Y12.839 E0.02933
G1 X16.165 Y14.299 E0.14479
G1 X15.910 Y14.582 E0.02933
G1 X14.582 Y15.910 E0.14479
G1 X14.299 Y16.165 E0.02933
G1 X12.839 Y17.347 E0.14479
G1 X12.531 Y17.571 E0.02933
G1 X10.955 Y18.594 E0.14479
G1 X10.626 Y18.784 E0.02933
G1 X8.951 Y19.637 E0.14479
G1 X8.604 Y19.792 E0.02933
G1 X6.850 Y20.466 E0.14479
G1 X6.488 Y20.583 E0.02933
G1 X4.673 Y21.069 E0.14479
G1 X4.301 Y21.149 E0.02933
G1 X2.445 Y21.442 E0.14479
G1 X2.067 Y21.482 E0.02933
G1 X0.190 Y21.581 E0.14479
G1 X-0.190 Y21.581 E0.02933
G1 X-2.067 Y21.482 E0.14479
G1 X-2.445 Y21.442 E0.02933
G1 X-4.301 Y21.149 E0.14479
G1 X-4.673 Y21.069 E0.02933
G1 X-6.488 Y20.583 E0.14479
G1 X-6.850 Y20.466 E0.02933
G1 X-8.604 Y19.792 E0.14479
G1 X-8.951 Y19.637 E0.02933
G1 X-10.626 Y18.784 E0.14479
G1 X-10.955 Y18.594 E0.02933
G1 X-12.531 Y17.571 E0.14479
G1 X-12.839 Y17.347 E0.02933
G1 X-14.299 Y16.165 E0.14479
G1 X-14.582 Y15.910 E0.02933
G1 X-15.910 Y14.582 E0.14479
G1 X-16.165 Y14.299 E0.02933
G1 X-17.347 Y12.839 E0.14479
G1 X-17.571 Y12.531 E0.02933
G1 X-18.594 Y10.955 E0.14480
G1 X-18.784 Y10.625 E0.02933
G1 X-19.637 Y8.951 E0.14479
G1 X-19.792 Y8.604 E0.02933
G1 X-20.466 Y6.850 E0.14479
G1 X-20.583 Y6.488 E0.02933
G1 X-21.069 Y4.673 E0.14479
G1 X-21.149 Y4.301 E0.02933
G1 X-21.442 Y2.445 E0.14479
G1 X-21.482 Y2.067 E0.02933
G1 X-21.581 Y0.190 E0.14479
G1 X-21.581 Y-0.190 E0.02933
G1 X-21.482 Y-2.067 E0.14479
G1 X-21.442 Y-2.445 E0.02933
G1 X-21.149 Y-4.301 E0.14479
G1 X-21.069 Y-4.673 E0.02933
G1 X-20.583 Y-6.488 E0.14479
G1 X-20.466 Y-6.850 E0.02933
G1 X-19.792 Y-8.604 E0.14479
G1 X-19.637 Y-8.951 E0.02933
G1 X-18.784 Y-10.626 E0.14479
G1 X-18.594 Y-10.955 E0.02933
G1 X-17.571 Y-12.531 E0.14479
G1 X-17.347 Y-12.839 E0.02933
G1 X-16.165 Y-14.299 E0.14479
G1 X-15.910 Y-14.582 E0.02933
G1 X-14.582 Y-15.910 E0.14479
G1 X-14.299 Y-16.165 E0.02933
G1 X-12.839 Y-17.347 E0.14479
G1 X-12.531 Y-17.571 E0.02933
G1 X-10.955 Y-18.594 E0.14479
G1 X-10.625 Y-18.784 E0.02933
G1 X-8.951 Y-19.637 E0.14479
G1 X-8.604 Y-19.792 E0.02933
G1 X-6.850 Y-20.466 E0.14479
G1 X-6.488 Y-20.583 E0.02933
G1 X-4.673 Y-21.069 E0.14479
G1 X-4.301 Y-21.149 E0.02933
G1 X-2.445 Y-21.442 E0.14479
G1 X-2.067 Y-21.482 E0.02933
G1 X-0.190 Y-21.581 E0.14479
G1 X0.508 Y-21.564 E0.05380
G1 X2.067 Y-21.482 E0.12030 F960.000
G1 X2.445 Y-21.442 E0.02933
G1 X4.301 Y-21.149 E0.14479
G1 X4.673 Y-21.069 E0.02933
G1 X6.488 Y-20.583 E0.14479
G1 X6.850 Y-20.466 E0.02933
G1 X8.604 Y-19.792 E0.14479
G1 X8.951 Y-19.637 E0.02933
G1 X10.625 Y-18.784 E0.14479
G1 X10.955 Y-18.594 E0.02933
G1 X12.531 Y-17.571 E0.14480
G1 X12.839 Y-17.347 E0.02933
G1 X14.299 Y-16.165 E0.14479
G1 X14.582 Y-15.910 E0.02933
G1 X15.910 Y-14.582 E0.14479
G1 X16.165 Y-14.299 E0.02933
G1 X17.347 Y-12.839 E0.14479
G1 X17.571 Y-12.531 E0.02933
G1 X18.594 Y-10.955 E0.14479
G1 X18.784 Y-10.626 E0.02933
G1 X19.637 Y-8.951 E0.14479
G1 X19.792 Y-8.604 E0.02933
G1 X20.466 Y-6.850 E0.14480
G1 X20.583 Y-6.488 E0.02933
G1 X21.069 Y-4.673 E0.14479
G1 X21.149 Y-4.301 E0.02933
G1 X21.442 Y-2.445 E0.14479
G1 X21.482 Y-2.067 E0.02933
G1 X21.581 Y-0.190 E0.14479
G1 X21.581 Y0.190 E0.02933
G1 X21.482 Y2.067 E0.14479
G1 X21.442 Y2.445 E0.02933
G1 X21.198 Y3.987 E0.12030
G1 X21.069 Y4.673 E0.05380
G1 X20.583 Y6.488 E0.14479
G1 X20.466 Y6.850 E0.02933
G1 X19.792 Y8.604 E0.14479
G1 X19.637 Y8.951 E0.02933
G1 X19.238 Y9.735 E0.06777
G1 E-3.50000 F1500.00000
G1 Z0.700 F15000.000
G1 X-1.036 Y15.691 F15000.000
G1 Z0.300 F15000.000
G1 E3.50000 F1500.00000
G1 X-1.036 Y16.909 E0.09382 F600.000
G1 X-1.922 Y16.862 E0.06838
G1 X-1.384 Y13.812 E0.23873
G1 X-1.036 Y13.842 E0.02693
G1 X-1.036 Y15.631 E0.13790 F600.000
G1 E-3.50000 F1500.00000
G1 Z0.700 F15000.000
G1 X-6.584 Y15.062 F15000.000
G1 Z0.300 F15000.000
G1 E3.50000 F1500.00000
G1 X-6.767 Y15.564 E0.04120 F600.000
G1 X-7.557 Y15.161 E0.06838
G1 X-6.024 Y12.505 E0.23634
G1 X-5.707 Y12.653 E0.02693
G1 X-6.564 Y15.005 E0.19291 F600.000
G1 E-3.50000 F1500.00000
G1 Z0.700 F15000.000
G1 X-10.960 Y11.450 F15000.000
G1 Z0.300 F15000.000
G1 E3.50000 F1500.00000
G1 X-11.665 Y12.291 E0.08458 F600.000
G1 X-12.291 Y11.665 E0.06820
G1 X-9.938 Y9.691 E0.23673
G1 X-9.691 Y9.938 E0.02693
G1 X-10.921 Y11.404 E0.14752 F600.000
G1 E-3.50000 F1500.00000
G1 Z0.700 F15000.000
G1 X-12.935 Y5.810 F15000.000
G1 Z0.300 F15000.000
G1 E3.50000 F1500.00000
G1 X-12.653 Y5.707 E0.02315 F600.000
G1 X-12.505 Y6.024 E0.02693
G1 X-15.161 Y7.557 E0.23634 F600.000
G1 X-15.564 Y6.767 E0.06838
G1 X-12.992 Y5.831 E0.21096
G1 E-3.50000 F1500.00000
G1 Z0.700 F15000.000
G1 X-16.043 Y1.036 F15000.000
G1 Z0.300 F15000.000
G1 E3.50000 F1500.00000
G1 X-13.842 Y1.036 E0.16961 F600.000
G1 X-13.812 Y1.384 E0.02693
G1 X-16.862 Y1.922 E0.23873 F600.000
G1 X-16.909 Y1.036 E0.06838
G1 X-16.103 Y1.036 E0.06210
G1 E-3.50000 F1500.00000
G1 Z0.700 F15000.000
G1 X-14.278 Y-3.569 F15000.000
G1 Z0.300 F15000.000
G1 E3.50000 F1500.00000
G1 X-16.477 Y-3.957 E0.17209 F600.000
G1 X-16.248 Y-4.812 E0.06820
G1 X-13.361 Y-3.761 E0.23673
G1 X-13.452 Y-3.424 E0.02693 F600.000
G1 X-14.219 Y-3.559 E0.06002
G1 E-3.50000 F1500.00000
G1 Z0.700 F15000.000
G1 X-12.170 Y-8.222 F15000.000
G1 Z0.300 F15000.000
G1 E3.50000 F1500.00000
G1 X-14.126 Y-9.351 E0.17401 F600.000
G1 X-13.642 Y-10.095 E0.06838
G1 X-11.269 Y-8.104 E0.23873
G1 X-11.470 Y-7.818 E0.02693 F600.000
G1 X-12.118 Y-8.192 E0.05771
G1 E-3.50000 F1500.00000
G1 Z0.700 F15000.000
G1 X-9.244 Y-13.940 F15000.000
G1 Z0.300 F15000.000
G1 E3.50000 F1500.00000
G1 X-7.818 Y-11.470 E0.21979 F600.000
G1 X-8.104 Y-11.269 E0.02693 F600.000
G1 X-10.095 Y-13.642 E0.23873
G1 X-9.351 Y-14.126 E0.06838
G1 X-9.274 Y-13.992 E0.01193
G1 E-3.50000 F1500.00000
G1 Z0.700 F15000.000
G1 X-3.649 Y-14.732 F15000.000
G1 Z0.300 F15000.000
G1 E3.50000 F1500.00000
G1 X-3.424 Y-13.452 E0.10019 F600.000
G1 X-3.761 Y-13.361 E0.02693 F600.000
G1 X-4.812 Y-16.248 E0.23673
G1 X-3.957 Y-16.477 E0.06820
G1 X-3.660 Y-14.791 E0.13192
G1 E-3.50000 F1500.00000
G1 Z0.700 F15000.000
G1 X1.036 Y-15.963 F15000.000
G1 Z0.300 F15000.000
G1 E3.50000 F1500.00000
G1 X1.036 Y-16.909 E0.07284 F600.000
G1 X1.922 Y-16.862 E0.06838
G1 X1.384 Y-13.812 E0.23873 F600.000
G1 X1.036 Y-13.842 E0.02693
G1 X1.036 Y-15.903 E0.15887
G1 E-3.50000 F1500.00000
G1 Z0.700 F15000.000
G1 X5.984 Y-13.414 F15000.000
G1 Z0.300 F15000.000
G1 E3.50000 F1500.00000
G1 X6.767 Y-15.564 E0.17630 F600.000
G1 X7.557 Y-15.161 E0.06838
G1 X6.024 Y-12.505 E0.23634 F600.000
G1 X5.707 Y-12.653 E0.02693
G1 X5.964 Y-13.358 E0.05781
G1 E-3.50000 F1500.00000
G1 Z0.700 F15000.000
G1 X10.886 Y-10.486 F15000.000
G1 Z0.300 F15000.000
G1 E3.50000 F1500.00000
G1 X9.938 Y-9.691 E0.09533 F600.000
G1 X9.691 Y-9.938 E0.02693
G1 X11.665 Y-12.291 E0.23673
G1 X12.291 Y-11.665 E0.06820
G1 X10.931 Y-10.525 E0.13677 F600.000
G1 E-3.50000 F1500.00000
G1 Z0.700 F15000.000
G1 X13.515 Y-6.607 F15000.000
G1 Z0.300 F15000.000
G1 E3.50000 F1500.00000
G1 X15.161 Y-7.557 E0.14645 F600.000
G1 X15.564 Y-6.767 E0.06838
G1 X12.653 Y-5.707 E0.23873 F600.000
G1 X12.505 Y-6.024 E0.02693
G1 X13.463 Y-6.577 E0.08526
G1 E-3.50000 F1500.00000
G1 Z0.700 F15000.000
G1 X16.748 Y-1.036 F15000.000
G1 Z0.300 F15000.000
G1 E3.50000 F1500.00000
G1 X13.842 Y-1.036 E0.22397 F600.000
G1 X13.812 Y-1.384 E0.02693
G1 X16.862 Y-1.922 E0.23873
G1 X16.909 Y-1.036 E0.06838
G1 X16.808 Y-1.036 E0.00774 F600.000
G1 E-3.50000 F1500.00000
G1 Z0.700 F15000.000
G1 X14.135 Y3.544 F15000.000
G1 Z0.300 F15000.000
G1 E3.50000 F1500.00000
G1 X16.477 Y3.957 E0.18326 F600.000
G1 X16.248 Y4.812 E0.06820 F600.000
G1 X13.361 Y3.761 E0.23673
G1 X13.452 Y3.424 E0.02693
G1 X14.076 Y3.534 E0.04885
G1 E-3.50000 F1500.00000
G1 Z0.700 F15000.000
G1 X14.070 Y9.319 F15000.000
G1 Z0.300 F15000.000
G1 E3.50000 F1500.00000
G1 X14.126 Y9.351 E0.00496 F600.000
G1 X13.642 Y10.095 E0.06838 F600.000
G1 X11.269 Y8.104 E0.23873
G1 X11.470 Y7.818 E0.02693
G1 X14.018 Y9.289 E0.22675
G1 E-3.50000 F1500.00000
G1 Z0.700 F15000.000
G1 X9.928 Y13.443 F15000.000
G1 Z0.300 F15000.000
G1 E3.50000 F1500.00000
G1 X10.095 Y13.642 E0.02009 F600.000
G1 X9.351 Y14.126 E0.06838 F600.000
G1 X7.818 Y11.470 E0.23634
G1 X8.104 Y11.269 E0.02693
G1 X9.889 Y13.397 E0.21402
G1 E-3.50000 F1500.00000
G1 Z0.700 F15000.000
G1 X4.373 Y15.042 F15000.000
G1 Z0.300 F15000.000
G1 E3.50000 F1500.00000
G1 X4.812 Y16.248 E0.09890 F600.000
G1 X3.957 Y16.477 E0.06820 F600.000
G1 X3.424 Y13.452 E0.23673
G1 X3.761 Y13.361 E0.02693
G1 X4.352 Y14.986 E0.13321
G1 X1.930 Y2.136 F15000.000
G1 X-1.934 Y2.136 E0.29776 F600.000
G1 X-2.526 Y1.192 E0.08586
G1 X-2.736 Y0.561 E0.05129
G1 X-2.791 Y-0.103 E0.05129
G1 X-2.688 Y-0.760 E0.05129
G1 X-2.432 Y-1.374 E0.05129
G1 X-2.037 Y-1.911 E0.05129
G1 X-1.523 Y-2.342 E0.05172
G1 X-0.904 Y-2.639 E0.05291
G1 X-0.282 Y-2.779 E0.04918 F600.000
G1 X0.384 Y-2.767 E0.05129
G1 X1.027 Y-2.597 E0.05129
G1 X1.613 Y-2.281 E0.05129
G1 X2.106 Y-1.834 E0.05129
G1 X2.480 Y-1.284 E0.05129
G1 X2.714 Y-0.661 E0.05129
G1 X2.793 Y-0.003 E0.05104
G1 X2.721 Y0.627 E0.04890
G1 X2.510 Y1.222 E0.04865
G1 X1.962 Y2.085 E0.07877
G1 X1.581 Y1.500 F15000.000
G1 X-1.582 Y1.500 E0.24376 F600.000
G1 X-1.947 Y0.919 E0.05288
G1 X-2.109 Y0.432 E0.03953
G1 X-2.151 Y-0.079 E0.03953
G1 X-2.072 Y-0.586 E0.03953
G1 X-1.874 Y-1.059 E0.03953
G1 X-1.570 Y-1.473 E0.03953
G1 X-1.176 Y-1.804 E0.03969
G1 X-0.695 Y-2.035 E0.04115
G1 X-0.217 Y-2.142 E0.03771 F600.000
G1 X0.296 Y-2.132 E0.03953
G1 X0.792 Y-2.002 E0.03953
G1 X1.243 Y-1.758 E0.03953
G1 X1.624 Y-1.414 E0.03953
G1 X1.912 Y-0.990 E0.03953
G1 X2.092 Y-0.509 E0.03953
G1 X2.153 Y-0.001 E0.03944
G1 X2.098 Y0.484 E0.03760
G1 X1.935 Y0.942 E0.03751
G1 X1.613 Y1.449 E0.04630
G1 X1.506 Y1.893 F15000.000
G1 E-3.50000 F1500.00000
G1 Z0.700 F15000.000
G1 X-4.342 Y-7.839 F15000.000
G1 Z0.300 F15000.000
G1 E3.50000 F1500.00000
G1 X-3.550 Y-8.231 E0.06805 F720.000
G1 X-2.330 Y-8.716 E0.10123
G1 X-1.021 Y-8.905 E0.10188
G1 X-0.521 Y-8.949 E0.03868
G1 X0.792 Y-8.987 E0.10123
G1 X2.086 Y-8.717 E0.10188
G1 X2.571 Y-8.587 E0.03868 F720.000
G1 X3.812 Y-8.176 E0.10080
G1 X4.926 Y-7.489 E0.10080
G1 X5.353 Y-7.190 E0.04018
G1 X6.379 Y-6.379 E0.10080
G1 X7.190 Y-5.353 E0.10080
G1 X7.489 Y-4.926 E0.04018
G1 X8.176 Y-3.813 E0.10080
G1 X8.587 Y-2.571 E0.10080
G1 X8.722 Y-2.067 E0.04018
G1 X8.987 Y-0.786 E0.10080
G1 X8.949 Y0.521 E0.10080
G1 X8.903 Y1.041 E0.04018
G1 X8.714 Y2.335 E0.10080
G1 X8.231 Y3.550 E0.10080
G1 X8.010 Y4.023 E0.04018
G1 X7.390 Y5.174 E0.10080
G1 X6.520 Y6.151 E0.10080
G1 X6.151 Y6.520 E0.04018
G1 X5.174 Y7.390 E0.10080
G1 X4.023 Y8.010 E0.10080
G1 X3.550 Y8.231 E0.04018
G1 X2.335 Y8.714 E0.10080
G1 X1.041 Y8.903 E0.10080
G1 X0.521 Y8.949 E0.04018
G1 X-0.786 Y8.987 E0.10080
G1 X-2.067 Y8.722 E0.10080
G1 X-2.571 Y8.587 E0.04018
G1 X-3.813 Y8.176 E0.10080
G1 X-4.926 Y7.489 E0.10080
G1 X-5.353 Y7.190 E0.04018
G1 X-6.379 Y6.379 E0.10080
G1 X-7.190 Y5.353 E0.10080
G1 X-7.489 Y4.926 E0.04018
G1 X-8.176 Y3.813 E0.10080
G1 X-8.587 Y2.571 E0.10080
G1 X-8.722 Y2.067 E0.04018
G1 X-8.988 Y0.781 E0.10123
G1 X-8.947 Y-0.541 E0.10188
G1 X-8.903 Y-1.041 E0.03868
G1 X-8.714 Y-2.335 E0.10080
G1 X-8.231 Y-3.550 E0.10080
G1 X-8.010 Y-4.023 E0.04018
G1 X-7.390 Y-5.174 E0.10080
G1 X-6.520 Y-6.151 E0.10080
G1 X-6.151 Y-6.520 E0.04018
G1 X-5.174 Y-7.390 E0.10080
G1 X-4.394 Y-7.810 E0.06828
G1 X-4.696 Y-8.370 F15000.000
G1 X-4.308 Y-8.579 E0.03394 F720.000
G1 X-3.802 Y-8.815 E0.04303
G1 X-2.911 Y-9.169 E0.07387
G1 X-5.639 Y-16.661 E0.61448
G1 X-5.439 Y-16.738 E0.01651
G1 X-3.659 Y-17.215 E0.14197
G1 X-3.448 Y-17.248 E0.01651
G1 X-2.063 Y-9.397 E0.61444
G1 X-1.095 Y-9.537 E0.07542
G1 X-0.558 Y-9.584 E0.04149
G1 X0.400 Y-9.611 E0.07387
G1 X0.400 Y-17.578 E0.61398
G1 X1.840 Y-17.503 E0.11110
G1 X2.657 Y-17.374 E0.06379
G1 X1.275 Y-9.536 E0.61336
G1 X2.233 Y-9.336 E0.07542
G1 X2.753 Y-9.197 E0.04149
G1 X3.663 Y-8.895 E0.07387
G1 X6.386 Y-16.375 E0.61341
G1 X7.158 Y-16.078 E0.06379
G1 X8.443 Y-15.423 E0.11110
G1 X4.459 Y-8.524 E0.61398
G1 X5.275 Y-8.021 E0.07387
G1 X5.733 Y-7.700 E0.04303
G1 X6.485 Y-7.106 E0.07387
G1 X11.610 Y-13.214 E0.61448
G1 X11.776 Y-13.079 E0.01651
G1 X13.079 Y-11.776 E0.14197
G1 X13.214 Y-11.610 E0.01651
G1 X7.106 Y-6.485 E0.61448
G1 X7.700 Y-5.733 E0.07387
G1 X8.021 Y-5.275 E0.04303 F720.000
G1 X8.524 Y-4.459 E0.07387
G1 X15.423 Y-8.443 E0.61398
G1 X16.078 Y-7.158 E0.11110
G1 X16.375 Y-6.386 E0.06380
G1 X8.895 Y-3.663 E0.61341
G1 X9.197 Y-2.753 E0.07387
G1 X9.341 Y-2.214 E0.04303
G1 X9.535 Y-1.275 E0.07387
G1 X17.374 Y-2.657 E0.61341
G1 X17.503 Y-1.840 E0.06379
G1 X17.578 Y-0.400 E0.11110
G1 X9.611 Y-0.400 E0.61398
G1 X9.584 Y0.558 E0.07387
G1 X9.535 Y1.114 E0.04303
G1 X9.396 Y2.063 E0.07387
G1 X17.248 Y3.448 E0.61448
G1 X17.215 Y3.659 E0.01651
G1 X16.738 Y5.439 E0.14197
G1 X16.661 Y5.639 E0.01651
G1 X9.169 Y2.911 E0.61448
G1 X8.815 Y3.802 E0.07387
G1 X8.579 Y4.308 E0.04303
G1 X8.124 Y5.152 E0.07387
G1 X15.023 Y9.136 E0.61398
G1 X14.238 Y10.345 E0.11110
G1 X13.717 Y10.988 E0.06379
G1 X7.620 Y5.872 E0.61341
G1 X6.983 Y6.588 E0.07387
G1 X6.588 Y6.983 E0.04303
G1 X5.872 Y7.620 E0.07387
G1 X10.988 Y13.717 E0.61341
G1 X10.345 Y14.238 E0.06380
G1 X9.136 Y15.023 E0.11110
G1 X5.152 Y8.124 E0.61398
G1 X4.308 Y8.579 E0.07387
G1 X3.802 Y8.815 E0.04303
G1 X2.911 Y9.169 E0.07387
G1 X5.639 Y16.661 E0.61448
G1 X5.439 Y16.738 E0.01651
G1 X3.659 Y17.215 E0.14197
G1 X3.448 Y17.248 E0.01651
G1 X2.063 Y9.396 E0.61448
G1 X1.114 Y9.535 E0.07387
G1 X0.558 Y9.584 E0.04303
G1 X-0.400 Y9.611 E0.07387
G1 X-0.400 Y17.578 E0.61398
G1 X-1.840 Y17.503 E0.11110
G1 X-2.657 Y17.374 E0.06379
G1 X-1.275 Y9.535 E0.61341
G1 X-2.214 Y9.341 E0.07387
G1 X-2.753 Y9.197 E0.04303
G1 X-3.663 Y8.895 E0.07387
G1 X-6.386 Y16.375 E0.61341
G1 X-7.158 Y16.078 E0.06379
G1 X-8.443 Y15.423 E0.11110
G1 X-4.459 Y8.524 E0.61398
G1 X-5.275 Y8.021 E0.07387
G1 X-5.733 Y7.700 E0.04303
G1 X-6.485 Y7.106 E0.07387
G1 X-11.610 Y13.214 E0.61448
G1 X-11.776 Y13.079 E0.01651
G1 X-13.079 Y11.776 E0.14197
G1 X-13.214 Y11.610 E0.01651
G1 X-7.106 Y6.485 E0.61448
G1 X-7.700 Y5.733 E0.07387
G1 X-8.021 Y5.275 E0.04303
G1 X-8.524 Y4.459 E0.07387
G1 X-15.423 Y8.443 E0.61398
G1 X-16.078 Y7.158 E0.11110
G1 X-16.375 Y6.386 E0.06379
G1 X-8.895 Y3.663 E0.61341
G1 X-9.197 Y2.753 E0.07387
G1 X-9.341 Y2.214 E0.04303
G1 X-9.535 Y1.275 E0.07387
G1 X-17.374 Y2.657 E0.61341
G1 X-17.503 Y1.840 E0.06379
G1 X-17.578 Y0.400 E0.11110
G1 X-9.612 Y0.400 E0.61393
G1 X-9.582 Y-0.578 E0.07542
G1 X-9.535 Y-1.114 E0.04149
G1 X-9.396 Y-2.063 E0.07387
G1 X-17.248 Y-3.448 E0.61448
G1 X-17.215 Y-3.659 E0.01651
G1 X-16.738 Y-5.439 E0.14197
G1 X-16.661 Y-5.639 E0.01651
G1 X-9.169 Y-2.911 E0.61448
G1 X-8.815 Y-3.802 E0.07387
G1 X-8.579 Y-4.308 E0.04303
G1 X-8.124 Y-5.152 E0.07387
G1 X-15.023 Y-9.136 E0.61398
G1 X-14.238 Y-10.345 E0.11110
G1 X-13.717 Y-10.988 E0.06379
G1 X-7.620 Y-5.872 E0.61341
G1 X-6.983 Y-6.588 E0.07387
G1 X-6.588 Y-6.983 E0.04303
G1 X-5.872 Y-7.620 E0.07387
G1 X-10.988 Y-13.717 E0.61341
G1 X-10.345 Y-14.238 E0.06380
G1 X-9.136 Y-15.023 E0.11110
G1 X-5.152 Y-8.124 E0.61398
G1 X-4.749 Y-8.341 E0.03531
G1 X-4.356 Y-8.160 F15000.000
G1 E-3.50000 F1500.00000
G1 Z0.700 F15000.000
G1 X13.366 Y-11.281 F15000.000
G1 Z0.300 F15000.000
G1 E3.50000 F1500.00000
G1 X14.156 Y-10.285 E0.09795 F720.000
G1 X14.618 Y-9.599 E0.06372
G1 X15.182 Y-8.708 E0.08130
G1 X16.418 Y-6.029 F15000.000
G1 X16.640 Y-5.407 E0.05091 F720.000
G1 X16.760 Y-5.004 E0.03236
G1 X17.114 Y-3.638 E0.10879
G1 X17.232 Y-2.988 E0.05091
G1 X17.502 Y-0.050 F15000.000
G1 X17.459 Y1.004 E0.08130 F720.000
G1 X17.402 Y1.829 E0.06372
