; generated by Slic3r 1.2.9 on 2018-05-22 at 12:33:22

; external perimeters extrusion width = 0.40mm
; perimeters extrusion width = 0.40mm
; infill extrusion width = 0.40mm
; solid infill extrusion width = 0.40mm
; top infill extrusion width = 0.40mm

M107
M83
T0
M116
G21 ; set units to millimeters
G90 ; use absolute coordinates
M83 ; use relative distances for extrusion
G1 E-3.50000 F1500.00000
G1 Z0.400 F15000.000
G1 X19.211 Y9.788 F15000.000
G1 Z0.300 F15000.000
G1 E3.50000 F1500.00000
G1 X18.784 Y10.626 E0.07240 F960.000
G1 X18.594 Y10.955 E0.02933
G1 X17.571 Y12.531 E0.14479
G1 X17.347 Y12.839 E0.02933
G1 X16.165 Y14.299 E0.14479
G1 X15.910 Y14.582 E0.02933
G1 X14.582 Y15.910 E0.14479
G1 X14.299 Y16.165 E0.02933
G1 X12.839 Y17.347 E0.14479
G1 X12.531 Y17.571 E0.02933
G1 X10.955 Y18.594 E0.14479
G1 X10.626 Y18.784 E0.02933
G1 X8.951 Y19.637 E0.14479
G1 X8.604 Y19.792 E0.02933
G1 X6.850 Y20.466 E0.14479
G1 X6.488 Y20.583 E0.02933
G1 X4.673 Y21.069 E0.14479
G1 X4.301 Y21.149 E0.02933
G1 X2.445 Y21.442 E0.14479
G1 X2.067 Y21.482 E0.02933
G1 X0.190 Y21.581 E0.14479
G1 X-0.190 Y21.581 E0.02933
G1 X-2.067 Y21.482 E0.14479
G1 X-2.445 Y21.442 E0.02933
G1 X-4.301 Y21.149 E0.14480
G1 X-4.673 Y21.069 E0.02933
G1 X-6.488 Y20.583 E0.14479
G1 X-6.850 Y20.466 E0.02933
G1 X-8.604 Y19.792 E0.14479
G1 X-8.951 Y19.637 E0.02933
G1 X-10.626 Y18.784 E0.14479
G1 X-10.955 Y18.594 E0.02933
G1 X-12.531 Y17.571 E0.14479
G1 X-12.839 Y17.347 E0.02933
G1 X-14.299 Y16.165 E0.14479
G1 X-14.582 Y15.910 E0.02933
G1 X-15.910 Y14.582 E0.14479
G1 X-16.165 Y14.299 E0.02933
G1 X-17.347 Y12.839 E0.14479
G1 X-17.571 Y12.531 E0.02933
G1 X-18.594 Y10.955 E0.14480
G1 X-18.784 Y10.625 E0.02933
G1 X-19.637 Y8.951 E0.14479
G1 X-19.792 Y8.604 E0.02933
G1 X-20.466 Y6.850 E0.14479
G1 X-20.583 Y6.488 E0.02933
G1 X-21.069 Y4.673 E0.14479
G1 X-21.149 Y4.301 E0.02933
G1 X-21.442 Y2.445 E0.14479
G1 X-21.482 Y2.067 E0.02933
G1 X-21.581 Y0.190 E0.14479
G1 X-21.581 Y-0.190 E0.02933
G1 X-21.482 Y-2.067 E0.14479
G1 X-21.442 Y-2.445 E0.02933
G1 X-21.149 Y-4.301 E0.14479
G1 X-21.069 Y-4.673 E0.02933
G1 X-20.583 Y-6.488 E0.14479
G1 X-20.466 Y-6.850 E0.02933
G1 X-19.792 Y-8.604 E0.14479
G1 X-19.637 Y-8.951 E0.02933
G1 X-18.784 Y-10.626 E0.14479
G1 X-18.594 Y-10.955 E0.02933
G1 X-17.571 Y-12.531 E0.14479
G1 X-17.347 Y-12.839 E0.02933
G1 X-16.165 Y-14.299 E0.14479
G1 X-15.910 Y-14.582 E0.02933
G1 X-14.582 Y-15.910 E0.14479
G1 X-14.299 Y-16.165 E0.02933
G1 X-12.839 Y-17.347 E0.14479
G1 X-12.531 Y-17.571 E0.02933
G1 X-10.955 Y-18.594 E0.14479
G1 X-10.626 Y-18.784 E0.02933
G1 X-8.951 Y-19.637 E0.14479
G1 X-8.604 Y-19.792 E0.02933
G1 X-6.850 Y-20.466 E0.14479
G1 X-6.488 Y-20.583 E0.02933
G1 X-4.673 Y-21.069 E0.14479
G1 X-4.301 Y-21.149 E0.02933
G1 X-2.445 Y-21.442 E0.14479
G1 X-2.067 Y-21.482 E0.02933
G1 X-0.190 Y-21.581 E0.14479
G1 X0.508 Y-21.564 E0.05380
G1 X2.067 Y-21.482 E0.12030 F960.000
G1 X2.445 Y-21.442 E0.02933
G1 X4.301 Y-21.149 E0.14479
G1 X4.673 Y-21.069 E0.02933
G1 X6.488 Y-20.583 E0.14479
G1 X6.850 Y-20.466 E0.02933
G1 X8.604 Y-19.792 E0.14479
G1 X8.951 Y-19.637 E0.02933
G1 X10.626 Y-18.784 E0.14479
G1 X10.955 Y-18.594 E0.02933
G1 X12.531 Y-17.571 E0.14480
G1 X12.839 Y-17.347 E0.02933
G1 X14.299 Y-16.165 E0.14479
G1 X14.582 Y-15.910 E0.02933
G1 X15.910 Y-14.582 E0.14479
G1 X16.165 Y-14.299 E0.02933
G1 X17.347 Y-12.839 E0.14479
G1 X17.571 Y-12.531 E0.02933
G1 X18.594 Y-10.955 E0.14479
G1 X18.784 Y-10.626 E0.02933
G1 X19.637 Y-8.951 E0.14479
G1 X19.792 Y-8.604 E0.02933
G1 X20.466 Y-6.850 E0.14479
G1 X20.583 Y-6.488 E0.02933
G1 X21.069 Y-4.673 E0.14479
G1 X21.149 Y-4.301 E0.02933
G1 X21.442 Y-2.445 E0.14479
G1 X21.482 Y-2.067 E0.02933
G1 X21.581 Y-0.190 E0.14479
G1 X21.581 Y0.190 E0.02933
G1 X21.482 Y2.067 E0.14479
G1 X21.442 Y2.445 E0.02933
G1 X21.198 Y3.987 E0.12030
G1 X21.069 Y4.673 E0.05380
G1 X20.583 Y6.488 E0.14479
G1 X20.466 Y6.850 E0.02933
G1 X19.792 Y8.604 E0.14479
G1 X19.637 Y8.951 E0.02933
G1 X19.238 Y9.735 E0.06777
G1 E-3.50000 F1500.00000
G1 Z0.700 F15000.000
G1 X-1.631 Y15.215 F15000.000
G1 Z0.300 F15000.000
G1 E3.50000 F1500.00000
G1 X-1.384 Y13.812 E0.10983 F600.000
G1 X-1.036 Y13.842 E0.02693
G1 X-1.036 Y16.909 E0.23634 F600.000
G1 X-1.922 Y16.862 E0.06838
G1 X-1.642 Y15.274 E0.12427
G1 E-3.50000 F1500.00000
G1 Z0.700 F15000.000
G1 X-6.870 Y13.970 F15000.000
G1 Z0.300 F15000.000
G1 E3.50000 F1500.00000
G1 X-6.024 Y12.505 E0.13030 F600.000
G1 X-5.707 Y12.653 E0.02693
G1 X-6.767 Y15.564 E0.23873 F600.000
G1 X-7.557 Y15.161 E0.06838
G1 X-6.900 Y14.022 E0.10141
G1 E-3.50000 F1500.00000
G1 Z0.700 F15000.000
G1 X-10.625 Y11.051 F15000.000
G1 Z0.300 F15000.000
G1 E3.50000 F1500.00000
G1 X-11.665 Y12.291 E0.12478 F600.000
G1 X-12.291 Y11.665 E0.06820
G1 X-9.938 Y9.691 E0.23673
G1 X-9.691 Y9.938 E0.02693
G1 X-10.586 Y11.005 E0.10733 F600.000
G1 E-3.50000 F1500.00000
G1 Z0.700 F15000.000
G1 X-15.161 Y7.557 F15000.000
G1 Z0.300 F15000.000
G1 E3.50000 F1500.00000
G1 X-15.564 Y6.767 E0.06838 F600.000
G1 X-12.653 Y5.707 E0.23873
G1 X-12.505 Y6.024 E0.02693
G1 X-15.109 Y7.527 E0.23171 F600.000
G1 E-3.50000 F1500.00000
G1 Z0.700 F15000.000
G1 X-15.097 Y1.036 F15000.000
G1 Z0.300 F15000.000
G1 E3.50000 F1500.00000
G1 X-13.842 Y1.036 E0.09672 F600.000
G1 X-13.812 Y1.384 E0.02693
G1 X-16.862 Y1.922 E0.23873 F600.000
G1 X-16.909 Y1.036 E0.06838
G1 X-15.157 Y1.036 E0.13499
G1 E-3.50000 F1500.00000
G1 Z0.700 F15000.000
G1 X-14.986 Y-4.352 F15000.000
G1 Z0.300 F15000.000
G1 E3.50000 F1500.00000
G1 X-13.361 Y-3.761 E0.13320 F600.000
G1 X-13.452 Y-3.424 E0.02693 F600.000
G1 X-16.477 Y-3.957 E0.23673
G1 X-16.248 Y-4.812 E0.06820
G1 X-15.042 Y-4.373 E0.09891
G1 E-3.50000 F1500.00000
G1 Z0.700 F15000.000
G1 X-12.822 Y-9.407 F15000.000
G1 Z0.300 F15000.000
G1 E3.50000 F1500.00000
G1 X-11.269 Y-8.104 E0.15621 F600.000
G1 X-11.470 Y-7.818 E0.02693 F600.000
G1 X-14.126 Y-9.351 E0.23634
G1 X-13.642 Y-10.095 E0.06838
G1 X-12.868 Y-9.446 E0.07789
G1 E-3.50000 F1500.00000
G1 Z0.700 F15000.000
G1 X-8.186 Y-12.107 F15000.000
G1 Z0.300 F15000.000
G1 E3.50000 F1500.00000
G1 X-7.818 Y-11.470 E0.05673 F600.000
G1 X-8.104 Y-11.269 E0.02693 F600.000
G1 X-10.095 Y-13.642 E0.23873
G1 X-9.351 Y-14.126 E0.06838
G1 X-8.216 Y-12.159 E0.17499
G1 E-3.50000 F1500.00000
G1 Z0.700 F15000.000
G1 X-4.545 Y-15.515 F15000.000
G1 Z0.300 F15000.000
G1 E3.50000 F1500.00000
G1 X-4.812 Y-16.248 E0.06014 F600.000
G1 X-3.957 Y-16.477 E0.06820
G1 X-3.424 Y-13.452 E0.23673
G1 X-3.761 Y-13.361 E0.02693 F600.000
G1 X-4.524 Y-15.458 E0.17197
G1 E-3.50000 F1500.00000
G1 Z0.700 F15000.000
G1 X1.721 Y-15.722 F15000.000
G1 Z0.300 F15000.000
G1 E3.50000 F1500.00000
G1 X1.384 Y-13.812 E0.14954 F600.000
G1 X1.036 Y-13.842 E0.02693
G1 X1.036 Y-16.909 E0.23634
G1 X1.922 Y-16.862 E0.06838
G1 X1.731 Y-15.782 E0.08457 F600.000
G1 E-3.50000 F1500.00000
G1 Z0.700 F15000.000
G1 X6.460 Y-13.260 F15000.000
G1 Z0.300 F15000.000
G1 E3.50000 F1500.00000
G1 X6.024 Y-12.505 E0.06711 F600.000
G1 X5.707 Y-12.653 E0.02693
G1 X6.767 Y-15.564 E0.23873
G1 X7.557 Y-15.161 E0.06838
G1 X6.490 Y-13.311 E0.16460 F600.000
G1 E-3.50000 F1500.00000
G1 Z0.700 F15000.000
G1 X10.127 Y-10.458 F15000.000
G1 Z0.300 F15000.000
G1 E3.50000 F1500.00000
G1 X11.665 Y-12.291 E0.18438 F600.000
G1 X12.291 Y-11.665 E0.06820
G1 X9.938 Y-9.691 E0.23673 F600.000
G1 X9.691 Y-9.938 E0.02693
G1 X10.089 Y-10.412 E0.04772
G1 E-3.50000 F1500.00000
G1 Z0.700 F15000.000
G1 X12.962 Y-6.288 F15000.000
G1 Z0.300 F15000.000
G1 E3.50000 F1500.00000
G1 X15.161 Y-7.557 E0.19571 F600.000
G1 X15.564 Y-6.767 E0.06838
G1 X12.653 Y-5.707 E0.23873 F600.000
G1 X12.505 Y-6.024 E0.02693
G1 X12.910 Y-6.258 E0.03600
G1 E-3.50000 F1500.00000
G1 Z0.700 F15000.000
G1 X15.857 Y-1.036 F15000.000
G1 Z0.300 F15000.000
G1 E3.50000 F1500.00000
G1 X13.842 Y-1.036 E0.15527 F600.000
G1 X13.812 Y-1.384 E0.02693
G1 X16.862 Y-1.922 E0.23873
G1 X16.909 Y-1.036 E0.06838
G1 X15.917 Y-1.036 E0.07644 F600.000
G1 E-3.50000 F1500.00000
G1 Z0.700 F15000.000
G1 X13.968 Y3.982 F15000.000
G1 Z0.300 F15000.000
G1 E3.50000 F1500.00000
G1 X13.361 Y3.761 E0.04973 F600.000
G1 X13.452 Y3.424 E0.02693
G1 X16.477 Y3.957 E0.23673
G1 X16.248 Y4.812 E0.06820 F600.000
G1 X14.024 Y4.002 E0.18238
G1 E-3.50000 F1500.00000
G1 Z0.700 F15000.000
G1 X12.780 Y8.574 F15000.000
G1 Z0.300 F15000.000
G1 E3.50000 F1500.00000
G1 X14.126 Y9.351 E0.11978 F600.000
G1 X13.642 Y10.095 E0.06838 F600.000
G1 X11.269 Y8.104 E0.23873
G1 X11.470 Y7.818 E0.02693
G1 X12.728 Y8.544 E0.11193
G1 E-3.50000 F1500.00000
G1 Z0.700 F15000.000
G1 X9.432 Y12.852 F15000.000
G1 Z0.300 F15000.000
G1 E3.50000 F1500.00000
G1 X10.095 Y13.642 E0.07949 F600.000
G1 X9.351 Y14.126 E0.06838 F600.000
G1 X7.818 Y11.470 E0.23634
G1 X8.104 Y11.269 E0.02693
G1 X9.394 Y12.806 E0.15462
G1 E-3.50000 F1500.00000
G1 Z0.700 F15000.000
G1 X4.155 Y14.444 F15000.000
G1 Z0.300 F15000.000
G1 E3.50000 F1500.00000
G1 X4.812 Y16.248 E0.14791 F600.000
G1 X3.957 Y16.477 E0.06820 F600.000
G1 X3.424 Y13.452 E0.23673
G1 X3.761 Y13.361 E0.02693
G1 X4.135 Y14.388 E0.08420
G1 X1.667 Y2.136 F15000.000
G1 X-1.684 Y2.136 E0.25828 F600.000
G1 X-2.301 Y1.300 E0.08002
G1 X-2.547 Y0.707 E0.04953
G1 X-2.642 Y0.071 E0.04953
G1 X-2.581 Y-0.569 E0.04953
G1 X-2.368 Y-1.175 E0.04953
G1 X-2.014 Y-1.712 E0.04953
G1 X-1.542 Y-2.147 E0.04953
G1 X-0.973 Y-2.459 E0.04998
G1 X-0.330 Y-2.620 E0.05108
G1 X0.286 Y-2.628 E0.04747 F600.000
G1 X0.912 Y-2.481 E0.04953
G1 X1.484 Y-2.188 E0.04953
G1 X1.968 Y-1.765 E0.04953
G1 X2.335 Y-1.238 E0.04953
G1 X2.565 Y-0.638 E0.04953
G1 X2.642 Y-0.014 E0.04843
G1 X2.593 Y0.497 E0.03960
G1 X2.453 Y0.977 E0.03850
G1 X2.225 Y1.422 E0.03850
G1 X1.704 Y2.088 E0.06522
G1 X1.357 Y1.500 F15000.000
G1 X-1.364 Y1.500 E0.20967 F600.000
G1 X-1.744 Y0.985 E0.04931
G1 X-1.930 Y0.535 E0.03753
G1 X-2.002 Y0.054 E0.03753
G1 X-1.956 Y-0.431 E0.03753
G1 X-1.794 Y-0.890 E0.03753
G1 X-1.526 Y-1.297 E0.03753
G1 X-1.168 Y-1.627 E0.03753
G1 X-0.739 Y-1.862 E0.03769
G1 X-0.247 Y-1.985 E0.03908
G1 X0.217 Y-1.991 E0.03577 F600.000
G1 X0.691 Y-1.880 E0.03753
G1 X1.124 Y-1.658 E0.03753
G1 X1.491 Y-1.337 E0.03753
G1 X1.770 Y-0.938 E0.03753
G1 X1.944 Y-0.483 E0.03753
G1 X2.002 Y-0.005 E0.03711
G1 X1.966 Y0.377 E0.02961
G1 X1.860 Y0.741 E0.02919
G1 X1.687 Y1.078 E0.02919
G1 X1.394 Y1.453 E0.03667
G1 X1.269 Y1.890 F15000.000
G1 X8.667 Y2.452 F15000.000
G1 X8.231 Y3.550 E0.09108 F720.000
G1 X8.010 Y4.023 E0.04018
G1 X7.390 Y5.174 E0.10080
G1 X6.520 Y6.151 E0.10080
G1 X6.151 Y6.520 E0.04018
G1 X5.174 Y7.390 E0.10080
G1 X4.023 Y8.010 E0.10080
G1 X3.550 Y8.231 E0.04018
G1 X2.335 Y8.714 E0.10080
G1 X1.041 Y8.903 E0.10080
G1 X0.521 Y8.949 E0.04018
G1 X-0.786 Y8.987 E0.10080
G1 X-2.067 Y8.722 E0.10080
G1 X-2.571 Y8.587 E0.04018
G1 X-3.813 Y8.176 E0.10080
G1 X-4.926 Y7.489 E0.10080
G1 X-5.353 Y7.190 E0.04018
G1 X-6.379 Y6.379 E0.10080
G1 X-7.190 Y5.353 E0.10080
G1 X-7.489 Y4.926 E0.04018
G1 X-8.176 Y3.813 E0.10080
G1 X-8.587 Y2.571 E0.10080
G1 X-8.722 Y2.067 E0.04018
G1 X-8.988 Y0.781 E0.10123
G1 X-8.947 Y-0.541 E0.10188
G1 X-8.903 Y-1.041 E0.03868
G1 X-8.714 Y-2.335 E0.10080
G1 X-8.231 Y-3.550 E0.10080
G1 X-8.010 Y-4.023 E0.04018
G1 X-7.390 Y-5.174 E0.10080
G1 X-6.520 Y-6.151 E0.10080
G1 X-6.151 Y-6.520 E0.04018
G1 X-5.174 Y-7.390 E0.10080
G1 X-4.023 Y-8.010 E0.10080
G1 X-3.550 Y-8.231 E0.04018
G1 X-2.330 Y-8.716 E0.10123
G1 X-1.021 Y-8.905 E0.10188
G1 X-0.521 Y-8.949 E0.03868
G1 X0.786 Y-8.987 E0.10080
G1 X2.067 Y-8.722 E0.10080
G1 X2.571 Y-8.587 E0.04018 F720.000
G1 X3.813 Y-8.176 E0.10080
G1 X4.926 Y-7.489 E0.10080
G1 X5.353 Y-7.190 E0.04018
G1 X6.379 Y-6.379 E0.10080
G1 X7.190 Y-5.353 E0.10080
G1 X7.489 Y-4.926 E0.04018
G1 X8.179 Y-3.808 E0.10123
G1 X8.592 Y-2.552 E0.10189
G1 X8.722 Y-2.067 E0.03868
G1 X8.987 Y-0.786 E0.10080
G1 X8.949 Y0.521 E0.10080
G1 X8.903 Y1.041 E0.04018
G1 X8.714 Y2.335 E0.10080
G1 X8.689 Y2.396 E0.00510
G1 X9.169 Y2.911 F15000.000
G1 X8.815 Y3.802 E0.07387 F720.000
G1 X8.579 Y4.308 E0.04303
G1 X8.124 Y5.152 E0.07387
G1 X15.023 Y9.136 E0.61398
G1 X14.238 Y10.345 E0.11110
G1 X13.717 Y10.988 E0.06379
G1 X7.620 Y5.872 E0.61341
G1 X6.983 Y6.588 E0.07387
G1 X6.588 Y6.983 E0.04303
G1 X5.872 Y7.620 E0.07387
G1 X10.988 Y13.717 E0.61341
G1 X10.345 Y14.238 E0.06380
G1 X9.136 Y15.023 E0.11110
G1 X5.152 Y8.124 E0.61398
G1 X4.308 Y8.579 E0.07387
G1 X3.802 Y8.815 E0.04303
G1 X2.911 Y9.169 E0.07387
G1 X5.639 Y16.661 E0.61448
G1 X5.439 Y16.738 E0.01651
G1 X3.659 Y17.215 E0.14197
G1 X3.448 Y17.248 E0.01651
G1 X2.063 Y9.396 E0.61448
G1 X1.114 Y9.535 E0.07387
G1 X0.558 Y9.584 E0.04303
G1 X-0.400 Y9.611 E0.07387
G1 X-0.400 Y17.578 E0.61398
G1 X-1.840 Y17.503 E0.11110
G1 X-2.657 Y17.374 E0.06379
G1 X-1.275 Y9.535 E0.61341
G1 X-2.214 Y9.341 E0.07387
G1 X-2.753 Y9.197 E0.04303
G1 X-3.663 Y8.895 E0.07387
G1 X-6.386 Y16.375 E0.61341
G1 X-7.158 Y16.078 E0.06379
G1 X-8.443 Y15.423 E0.11110
G1 X-4.459 Y8.524 E0.61398
G1 X-5.275 Y8.021 E0.07387
G1 X-5.733 Y7.700 E0.04303
G1 X-6.485 Y7.106 E0.07387
G1 X-11.610 Y13.214 E0.61448
G1 X-11.776 Y13.079 E0.01651
G1 X-13.079 Y11.776 E0.14197
G1 X-13.214 Y11.610 E0.01651
G1 X-7.106 Y6.485 E0.61448
G1 X-7.700 Y5.733 E0.07387
G1 X-8.021 Y5.275 E0.04303
G1 X-8.524 Y4.459 E0.07387
G1 X-15.423 Y8.443 E0.61398
G1 X-16.078 Y7.158 E0.11110
G1 X-16.375 Y6.386 E0.06379
G1 X-8.895 Y3.663 E0.61341
G1 X-9.197 Y2.753 E0.07387
G1 X-9.341 Y2.214 E0.04303
G1 X-9.535 Y1.275 E0.07387
G1 X-17.374 Y2.657 E0.61341
G1 X-17.503 Y1.840 E0.06379
G1 X-17.578 Y0.400 E0.11110
G1 X-9.612 Y0.400 E0.61393
G1 X-9.582 Y-0.578 E0.07542
G1 X-9.535 Y-1.114 E0.04149
G1 X-9.396 Y-2.063 E0.07387
G1 X-17.248 Y-3.448 E0.61448
G1 X-17.215 Y-3.659 E0.01651
G1 X-16.738 Y-5.439 E0.14197
G1 X-16.661 Y-5.639 E0.01651
G1 X-9.169 Y-2.911 E0.61448
G1 X-8.815 Y-3.802 E0.07387
G1 X-8.579 Y-4.308 E0.04303
G1 X-8.124 Y-5.152 E0.07387
G1 X-15.023 Y-9.136 E0.61398
G1 X-14.238 Y-10.345 E0.11110
G1 X-13.717 Y-10.988 E0.06379
G1 X-7.620 Y-5.872 E0.61341
G1 X-6.983 Y-6.588 E0.07387
G1 X-6.588 Y-6.983 E0.04303
G1 X-5.872 Y-7.620 E0.07387
G1 X-10.988 Y-13.717 E0.61341
G1 X-10.345 Y-14.238 E0.06379
G1 X-9.136 Y-15.023 E0.11110
G1 X-5.152 Y-8.124 E0.61398
G1 X-4.308 Y-8.579 E0.07387
G1 X-3.802 Y-8.815 E0.04303
G1 X-2.911 Y-9.169 E0.07387
G1 X-5.639 Y-16.661 E0.61448
G1 X-5.439 Y-16.738 E0.01651
G1 X-3.659 Y-17.215 E0.14197
G1 X-3.448 Y-17.248 E0.01651
G1 X-2.063 Y-9.397 E0.61444
G1 X-1.095 Y-9.537 E0.07542
G1 X-0.558 Y-9.584 E0.04149
G1 X0.400 Y-9.611 E0.07387
G1 X0.400 Y-17.578 E0.61398
G1 X1.840 Y-17.503 E0.11110
G1 X2.657 Y-17.374 E0.06379 F720.000
G1 X1.275 Y-9.535 E0.61341
G1 X2.214 Y-9.341 E0.07387
G1 X2.753 Y-9.197 E0.04303
G1 X3.663 Y-8.895 E0.07387
G1 X6.386 Y-16.375 E0.61341
G1 X7.158 Y-16.078 E0.06379
G1 X8.443 Y-15.423 E0.11110
G1 X4.459 Y-8.524 E0.61398
G1 X5.275 Y-8.021 E0.07387
G1 X5.733 Y-7.700 E0.04303
G1 X6.485 Y-7.106 E0.07387
G1 X11.610 Y-13.214 E0.61448
G1 X11.776 Y-13.079 E0.01651
G1 X13.079 Y-11.776 E0.14197
G1 X13.214 Y-11.610 E0.01651
G1 X7.106 Y-6.485 E0.61448
G1 X7.700 Y-5.733 E0.07387
G1 X8.021 Y-5.275 E0.04303
G1 X8.524 Y-4.459 E0.07387
G1 X15.423 Y-8.443 E0.61398
G1 X16.078 Y-7.158 E0.11110
G1 X16.375 Y-6.386 E0.06379
G1 X8.896 Y-3.663 E0.61336
G1 X9.202 Y-2.734 E0.07542
G1 X9.341 Y-2.214 E0.04149
G1 X9.535 Y-1.275 E0.07387
G1 X17.374 Y-2.657 E0.61341
G1 X17.503 Y-1.840 E0.06379
G1 X17.578 Y-0.400 E0.11110
G1 X9.611 Y-0.400 E0.61398
G1 X9.584 Y0.558 E0.07387
G1 X9.535 Y1.114 E0.04303
G1 X9.396 Y2.063 E0.07387
G1 X17.248 Y3.448 E0.61448
G1 X17.215 Y3.659 E0.01651
G1 X16.738 Y5.439 E0.14197
G1 X16.661 Y5.639 E0.01651
G1 X9.225 Y2.932 E0.60986
G1 X8.795 Y2.767 F15000.000
G1 E-3.50000 F1500.00000
G1 Z0.700 F15000.000
G1 X2.988 Y-17.232 F15000.000
G1 Z0.300 F15000.000
G1 E3.50000 F1500.00000
G1 X3.638 Y-17.113 E0.05091 F720.000
G1 X5.004 Y-16.760 E0.10879
G1 X5.407 Y-16.640 E0.03236
G1 X6.029 Y-16.418 E0.05091
G1 X8.708 Y-15.182 F15000.000
G1 X9.599 Y-14.618 E0.08130 F720.000
G1 X10.285 Y-14.156 E0.06372
G1 X11.281 Y-13.366 E0.09795
G1 X13.366 Y-11.281 F15000.000
G1 X14.156 Y-10.285 E0.09795 F720.000
G1 X14.618 Y-9.599 E0.06372
G1 X15.182 Y-8.708 E0.08130
G1 X16.418 Y-6.029 F15000.000
